fredbec/spf-europe/data/processed/revdatfull.csv
origin_year,origin_month,origin_day,target_quarter,target_year,rgdp_growth,imputed,rgdp_growth_ann
2001,1,31,2,1991,0.303241308886554,FALSE,
2001,1,31,3,1991,0.060598135000032,FALSE,
2001,1,31,4,1991,0.956928164034133,FALSE,
2001,1,31,1,1992,1.3810162870661,FALSE,
2001,1,31,2,1992,-0.54552229809652,FALSE,
2001,1,31,3,1992,-0.323959236893396,FALSE,
2001,1,31,4,1992,-0.223459294005057,FALSE,
2001,1,31,1,1993,-0.701720032847504,FALSE,
2001,1,31,2,1993,0.0771180652744104,FALSE,
2001,1,31,3,1993,0.304259515030279,FALSE,
2001,1,31,4,1993,0.369839602810877,FALSE,-0.861918066094114
2001,1,31,1,1994,0.994919070974036,FALSE,
2001,1,31,2,1994,0.513563055748097,FALSE,
2001,1,31,3,1994,0.675000852415471,FALSE,
2001,1,31,4,1994,0.829565445589117,FALSE,2.40465436766857
2001,1,31,1,1995,0.601606578569038,FALSE,
2001,1,31,2,1995,0.519725028909235,FALSE,
2001,1,31,3,1995,0.101655790142158,FALSE,
2001,1,31,4,1995,0.229770559839911,FALSE,2.20941193682196
2001,1,31,1,1996,0.242766342329601,FALSE,
2001,1,31,2,1996,0.638935455023997,FALSE,
2001,1,31,3,1996,0.562752947299377,FALSE,
2001,1,31,4,1996,0.21098731276234,FALSE,1.42018457782167
2001,1,31,1,1997,0.176243045953982,FALSE,
2001,1,31,2,1997,1.21197852255848,FALSE,
2001,1,31,3,1997,0.715859300838263,FALSE,
2001,1,31,4,1997,0.833522721478142,FALSE,2.28011947138138
2001,1,31,1,1998,0.84640474893808,FALSE,
2001,1,31,2,1998,0.335967503070922,FALSE,
2001,1,31,3,1998,0.534674986489188,FALSE,
2001,1,31,4,1998,0.269528733077183,FALSE,2.75222517396627
2001,1,31,1,1999,0.757170294466897,FALSE,
2001,1,31,2,1999,0.572954488364693,FALSE,
2001,1,31,3,1999,0.956309384820589,FALSE,
2001,1,31,4,1999,0.963109595344863,FALSE,2.49338410153377
2001,1,31,1,2000,0.911935614279345,FALSE,
2001,1,31,2,2000,0.819520894894472,FALSE,
2001,1,31,3,2000,0.673879685902513,FALSE,
2001,1,31,4,2000,,TRUE,
2001,1,31,1,2001,,TRUE,
2001,1,31,2,2001,,TRUE,
2001,1,31,3,2001,,TRUE,
2001,1,31,4,2001,,TRUE,
2001,2,28,2,1991,0.279393286999695,FALSE,
2001,2,28,3,1991,0.0336535594395933,FALSE,
2001,2,28,4,1991,0.831158038120866,FALSE,
2001,2,28,1,1992,1.56472554975895,FALSE,
2001,2,28,2,1992,-0.606896349308097,FALSE,
2001,2,28,3,1992,-0.353964772305538,FALSE,
2001,2,28,4,1992,-0.261186239106831,FALSE,
2001,2,28,1,1993,-0.629669766881627,FALSE,
2001,2,28,2,1993,0.0653110038168035,FALSE,
2001,2,28,3,1993,0.267923580671333,FALSE,
2001,2,28,4,1993,0.425087841671141,FALSE,-0.861917685005098
2001,2,28,1,1994,0.988954864160909,FALSE,
2001,2,28,2,1994,0.486561110836713,FALSE,
2001,2,28,3,1994,0.652799547629622,FALSE,
2001,2,28,4,1994,0.897390330061352,FALSE,2.40465417379643
2001,2,28,1,1995,0.625204979537778,FALSE,
2001,2,28,2,1995,0.453053612029311,FALSE,
2001,2,28,3,1995,0.0784620437786171,FALSE,
2001,2,28,4,1995,0.250260553171014,FALSE,2.20941231964413
2001,2,28,1,1996,0.258809916627207,FALSE,
2001,2,28,2,1996,0.639312227689029,FALSE,
2001,2,28,3,1996,0.581272439429763,FALSE,
2001,2,28,4,1996,0.159999636916581,FALSE,1.42018476041832
2001,2,28,1,1997,0.156027175815338,FALSE,
2001,2,28,2,1997,1.25988807698953,FALSE,
2001,2,28,3,1997,0.757640523384662,FALSE,
2001,2,28,4,1997,0.801489509351422,FALSE,2.28011891515236
2001,2,28,1,1998,0.764467042009137,FALSE,
2001,2,28,2,1998,0.43177508267934,FALSE,
2001,2,28,3,1998,0.550133346797828,FALSE,
2001,2,28,4,1998,0.23330233006966,FALSE,2.74945693114894
2001,2,28,1,1999,0.72811993679581,FALSE,
2001,2,28,2,1999,0.589885424939101,FALSE,
2001,2,28,3,1999,0.997446178266759,FALSE,
2001,2,28,4,1999,0.939643179756241,FALSE,2.49633435771097
2001,2,28,1,2000,0.893736843559783,FALSE,
2001,2,28,2,2000,0.876702255906056,FALSE,
2001,2,28,3,2000,0.65382909563035,FALSE,
2001,2,28,4,2000,,TRUE,
2001,2,28,1,2001,,TRUE,
2001,2,28,2,2001,,TRUE,
2001,2,28,3,2001,,TRUE,
2001,2,28,4,2001,,TRUE,
2001,3,31,2,1991,0.284627195553499,FALSE,
2001,3,31,3,1991,0.036093030168264,FALSE,
2001,3,31,4,1991,0.824891093286416,FALSE,
2001,3,31,1,1992,1.56550224187995,FALSE,
2001,3,31,2,1992,-0.606065939262216,FALSE,
2001,3,31,3,1992,-0.351519903968589,FALSE,
2001,3,31,4,1992,-0.262802233492615,FALSE,
2001,3,31,1,1993,-0.626188978486842,FALSE,
2001,3,31,2,1993,0.0617867168424672,FALSE,
2001,3,31,3,1993,0.268135080737309,FALSE,
2001,3,31,4,1993,0.420160146968545,FALSE,-0.861991479807911
2001,3,31,1,1994,0.99210237596459,FALSE,
2001,3,31,2,1994,0.486732492221196,FALSE,
2001,3,31,3,1994,0.660416321868573,FALSE,
2001,3,31,4,1994,0.886956313538112,FALSE,2.40466402104598
2001,3,31,1,1995,0.610456829204806,FALSE,
2001,3,31,2,1995,0.464567490266418,FALSE,
2001,3,31,3,1995,0.0457560637488189,FALSE,
2001,3,31,4,1995,0.298834924380068,FALSE,2.19482528394166
2001,3,31,1,1996,0.235893435151031,FALSE,
2001,3,31,2,1996,0.636608092128932,FALSE,
2001,3,31,3,1996,0.609281041380106,FALSE,
2001,3,31,4,1996,0.112031909702012,FALSE,1.42018457782169
2001,3,31,1,1997,0.183900251566434,FALSE,
2001,3,31,2,1997,1.24786165095368,FALSE,
2001,3,31,3,1997,0.750781010330464,FALSE,
2001,3,31,4,1997,0.83030210146394,FALSE,2.28011965401485
2001,3,31,1,1998,0.735858962639917,FALSE,
2001,3,31,2,1998,0.454437661634781,FALSE,
2001,3,31,3,1998,0.541972260948463,FALSE,
2001,3,31,4,1998,0.235357079056315,FALSE,2.74945656420587
2001,3,31,1,1999,0.714292074669864,FALSE,
2001,3,31,2,1999,0.598203273524581,FALSE,
2001,3,31,3,1999,1.0151300000887,FALSE,
2001,3,31,4,1999,0.922045669951958,FALSE,2.49633435771095
2001,3,31,1,2000,0.889394875146879,FALSE,
2001,3,31,2,2000,0.854485925596019,FALSE,
2001,3,31,3,2000,0.625262238612894,FALSE,
2001,3,31,4,2000,,TRUE,
2001,3,31,1,2001,,TRUE,
2001,3,31,2,2001,,TRUE,
2001,3,31,3,2001,,TRUE,
2001,3,31,4,2001,,TRUE,
2001,4,30,2,1991,0.257124953853061,FALSE,
2001,4,30,3,1991,0.0554263841228708,FALSE,
2001,4,30,4,1991,0.948366796924299,FALSE,
2001,4,30,1,1992,1.42582281115263,FALSE,
2001,4,30,2,1992,-0.594761348153428,FALSE,
2001,4,30,3,1992,-0.273656867031442,FALSE,
2001,4,30,4,1992,-0.273838072910145,FALSE,
2001,4,30,1,1993,-0.695881779064548,FALSE,
2001,4,30,2,1993,0.0387906424336182,FALSE,
2001,4,30,3,1993,0.390189115313521,FALSE,
2001,4,30,4,1993,0.388913671806845,FALSE,-0.861969934349549
2001,4,30,1,1994,0.887322908291408,FALSE,
2001,4,30,2,1994,0.573534353073162,FALSE,
2001,4,30,3,1994,0.727834302420937,FALSE,
2001,4,30,4,1994,0.783307589374026,FALSE,2.40466231220418
2001,4,30,1,1995,0.581218425708675,FALSE,
2001,4,30,2,1995,0.515743914629946,FALSE,
2001,4,30,3,1995,0.0942510148210302,FALSE,
2001,4,30,4,1995,0.254762989501643,FALSE,2.1947946182902
2001,4,30,1,1996,0.284973197546175,FALSE,
2001,4,30,2,1996,0.547454769314606,FALSE,
2001,4,30,3,1996,0.611539670164592,FALSE,
2001,4,30,4,1996,0.171939582164515,FALSE,1.42236359719079
2001,4,30,1,1997,0.289094570731119,FALSE,
2001,4,30,2,1997,1.149998908,FALSE,
2001,4,30,3,1997,0.681297201098021,FALSE,
2001,4,30,4,1997,0.884113936974088,FALSE,2.31477722000311
2001,4,30,1,1998,0.876042645825416,FALSE,
2001,4,30,2,1998,0.322404494556001,FALSE,
2001,4,30,3,1998,0.575422492969171,FALSE,
2001,4,30,4,1998,0.256639493236368,FALSE,2.79543343272097
2001,4,30,1,1999,0.773889696401444,FALSE,
2001,4,30,2,1999,0.543898986870493,FALSE,
2001,4,30,3,1999,0.999370696334084,FALSE,
2001,4,30,4,1999,0.985539222470191,FALSE,2.5236384761715
2001,4,30,1,2000,0.918924358160979,FALSE,
2001,4,30,2,2000,0.754455570200464,FALSE,
2001,4,30,3,2000,0.553441629292094,FALSE,
2001,4,30,4,2000,0.702480700399667,FALSE,3.36534227141199
2001,4,30,1,2001,,TRUE,
2001,4,30,2,2001,,TRUE,
2001,4,30,3,2001,,TRUE,
2001,4,30,4,2001,,TRUE,
2001,5,31,2,1991,0.279674830344565,FALSE,
2001,5,31,3,1991,0.0371763050476289,FALSE,
2001,5,31,4,1991,0.949973866999533,FALSE,
2001,5,31,1,1992,1.44632925296721,FALSE,
2001,5,31,2,1992,-0.621567919514069,FALSE,
2001,5,31,3,1992,-0.266039511229778,FALSE,
2001,5,31,4,1992,-0.282775240181801,FALSE,
2001,5,31,1,1993,-0.691117826016957,FALSE,
2001,5,31,2,1993,0.0404769358454768,FALSE,
2001,5,31,3,1993,0.39104971147536,FALSE,
2001,5,31,4,1993,0.404025824071348,FALSE,-0.861354265450365
2001,5,31,1,1994,0.883179856152184,FALSE,
2001,5,31,2,1994,0.556379550504069,FALSE,
2001,5,31,3,1994,0.735953441040238,FALSE,
2001,5,31,4,1994,0.783515149398625,FALSE,2.40389789432036
2001,5,31,1,1995,0.564456834311434,FALSE,
2001,5,31,2,1995,0.537436346216927,FALSE,
2001,5,31,3,1995,0.09532010988912,FALSE,
2001,5,31,4,1995,0.25556598206926,FALSE,2.19501135830089
2001,5,31,1,1996,0.290669388040413,FALSE,
2001,5,31,2,1996,0.531831876583987,FALSE,
2001,5,31,3,1996,0.617788358590297,FALSE,
2001,5,31,4,1996,0.157706241526408,FALSE,1.42240525699282
2001,5,31,1,1997,0.282127913633737,FALSE,
2001,5,31,2,1997,1.16167687947222,FALSE,
2001,5,31,3,1997,0.702479674504764,FALSE,
2001,5,31,4,1997,0.879798346614479,FALSE,2.31477763728785
2001,5,31,1,1998,0.932633390210008,FALSE,
2001,5,31,2,1998,0.332673402192634,FALSE,
2001,5,31,3,1998,0.576433031965223,FALSE,
2001,5,31,4,1998,0.235112537672219,FALSE,2.86696214263329
2001,5,31,1,1999,0.799935263559503,FALSE,
2001,5,31,2,1999,0.523996874566786,FALSE,
2001,5,31,3,1999,1.00959246355415,FALSE,
2001,5,31,4,1999,0.989852698757571,FALSE,2.52799670277242
2001,5,31,1,2000,0.926442225772245,FALSE,
2001,5,31,2,2000,0.768726314874511,FALSE,
2001,5,31,3,2000,0.563393014219385,FALSE,
2001,5,31,4,2000,0.661589665161352,FALSE,3.38220156568767
2001,5,31,1,2001,,TRUE,
2001,5,31,2,2001,,TRUE,
2001,5,31,3,2001,,TRUE,
2001,5,31,4,2001,,TRUE,
2001,6,30,2,1991,0.279674830344565,FALSE,
2001,6,30,3,1991,0.0371763050476289,FALSE,
2001,6,30,4,1991,0.949973866999533,FALSE,
2001,6,30,1,1992,1.44632925296721,FALSE,
2001,6,30,2,1992,-0.621567919514069,FALSE,
2001,6,30,3,1992,-0.266039511229778,FALSE,
2001,6,30,4,1992,-0.282775240181801,FALSE,
2001,6,30,1,1993,-0.691117826016957,FALSE,
2001,6,30,2,1993,0.0404769358454768,FALSE,
2001,6,30,3,1993,0.39104971147536,FALSE,
2001,6,30,4,1993,0.404025824071348,FALSE,-0.861354265450365
2001,6,30,1,1994,0.883179856152184,FALSE,
2001,6,30,2,1994,0.556379550504069,FALSE,
2001,6,30,3,1994,0.735953441040238,FALSE,
2001,6,30,4,1994,0.783515149398625,FALSE,2.40389789432036
2001,6,30,1,1995,0.564456834311434,FALSE,
2001,6,30,2,1995,0.537436346216927,FALSE,
2001,6,30,3,1995,0.09532010988912,FALSE,
2001,6,30,4,1995,0.25556598206926,FALSE,2.19501135830089
2001,6,30,1,1996,0.290669388040413,FALSE,
2001,6,30,2,1996,0.531831876583987,FALSE,
2001,6,30,3,1996,0.617788358590297,FALSE,
2001,6,30,4,1996,0.157706241526408,FALSE,1.42240525699282
2001,6,30,1,1997,0.282127913633737,FALSE,
2001,6,30,2,1997,1.16167687947222,FALSE,
2001,6,30,3,1997,0.702479674504764,FALSE,
2001,6,30,4,1997,0.879798346614479,FALSE,2.31477763728785
2001,6,30,1,1998,0.932633390210008,FALSE,
2001,6,30,2,1998,0.332673402192634,FALSE,
2001,6,30,3,1998,0.576433031965223,FALSE,
2001,6,30,4,1998,0.235112537672219,FALSE,2.86696214263329
2001,6,30,1,1999,0.799935263559503,FALSE,
2001,6,30,2,1999,0.523996874566786,FALSE,
2001,6,30,3,1999,1.00959246355415,FALSE,
2001,6,30,4,1999,0.989852698757571,FALSE,2.52799670277242
2001,6,30,1,2000,0.926442225772245,FALSE,
2001,6,30,2,2000,0.768726314874511,FALSE,
2001,6,30,3,2000,0.563393014219385,FALSE,
2001,6,30,4,2000,0.661589665161352,FALSE,3.38220156568767
2001,6,30,1,2001,,TRUE,
2001,6,30,2,2001,,TRUE,
2001,6,30,3,2001,,TRUE,
2001,6,30,4,2001,,TRUE,
2001,7,31,2,1991,0.261432468589307,FALSE,
2001,7,31,3,1991,-0.00249247592642233,FALSE,
2001,7,31,4,1991,0.961409564560042,FALSE,
2001,7,31,1,1992,1.45535853624583,FALSE,
2001,7,31,2,1992,-0.630690617997179,FALSE,
2001,7,31,3,1992,-0.235507177446062,FALSE,
2001,7,31,4,1992,-0.289431254552247,FALSE,
2001,7,31,1,1993,-0.731247177330117,FALSE,
2001,7,31,2,1993,0.0785413230881933,FALSE,
2001,7,31,3,1993,0.399158907434408,FALSE,
2001,7,31,4,1993,0.401862479464988,FALSE,-0.861355029208777
2001,7,31,1,1994,0.864113595459236,FALSE,
2001,7,31,2,1994,0.573379311563303,FALSE,
2001,7,31,3,1994,0.697725034845549,FALSE,
2001,7,31,4,1994,0.837391399343543,FALSE,2.40389906208551
2001,7,31,1,1995,0.547442124522509,FALSE,
2001,7,31,2,1995,0.534019910407717,FALSE,
2001,7,31,3,1995,0.0946944068125148,FALSE,
2001,7,31,4,1995,0.233277191067527,FALSE,2.19500963382258
2001,7,31,1,1996,0.32864205535616,FALSE,
2001,7,31,2,1996,0.508472470111159,FALSE,
2001,7,31,3,1996,0.616000132724042,FALSE,
2001,7,31,4,1996,0.151131033313525,FALSE,1.42240600846943
2001,7,31,1,1997,0.288088407484504,FALSE,
2001,7,31,2,1997,1.17886980783933,FALSE,
2001,7,31,3,1997,0.695997818612961,FALSE,
2001,7,31,4,1997,0.863853481800629,FALSE,2.31477891574361
2001,7,31,1,1998,0.95955038269248,FALSE,
2001,7,31,2,1998,0.331686319978029,FALSE,
2001,7,31,3,1998,0.550139789884318,FALSE,
2001,7,31,4,1998,0.226792218293601,FALSE,2.86696032176415
2001,7,31,1,1999,0.809867218800382,FALSE,
2001,7,31,2,1999,0.540777677855751,FALSE,
2001,7,31,3,1999,1.00838369243671,FALSE,
2001,7,31,4,1999,0.981206847051408,FALSE,2.52820096018607
2001,7,31,1,2000,0.943236082189742,FALSE,
2001,7,31,2,2000,0.744496832915965,FALSE,
2001,7,31,3,2000,0.591474032176191,FALSE,
2001,7,31,4,2000,0.600706898833199,FALSE,3.37643084908619
2001,7,31,1,2001,0.545298308109548,FALSE,
2001,7,31,2,2001,,TRUE,
2001,7,31,3,2001,,TRUE,
2001,7,31,4,2001,,TRUE,
2001,8,31,2,1991,0.268886586362696,FALSE,
2001,8,31,3,1991,-0.00423525454421835,FALSE,
2001,8,31,4,1991,0.946910817600304,FALSE,
2001,8,31,1,1992,1.46087288201224,FALSE,
2001,8,31,2,1992,-0.630122507635963,FALSE,
2001,8,31,3,1992,-0.228212913635828,FALSE,
2001,8,31,4,1992,-0.288286262767661,FALSE,
2001,8,31,1,1993,-0.725704512931178,FALSE,
2001,8,31,2,1993,0.075151878882697,FALSE,
2001,8,31,3,1993,0.382791381952604,FALSE,
2001,8,31,4,1993,0.404047724871154,FALSE,-0.861355029208777
2001,8,31,1,1994,0.887728538073625,FALSE,
2001,8,31,2,1994,0.549398037510212,FALSE,
2001,8,31,3,1994,0.704429130969106,FALSE,
2001,8,31,4,1994,0.831143582447347,FALSE,2.4038992559364
2001,8,31,1,1995,0.547603245381513,FALSE,
2001,8,31,2,1995,0.539168368012599,FALSE,
2001,8,31,3,1995,0.103055505184712,FALSE,
2001,8,31,4,1995,0.229517755162373,FALSE,2.19500962966739
2001,8,31,1,1996,0.328433253760025,FALSE,
2001,8,31,2,1996,0.498666619236771,FALSE,
2001,8,31,3,1996,0.626392254489966,FALSE,
2001,8,31,4,1996,0.150038850978564,FALSE,1.42240600583465
2001,8,31,1,1997,0.287630822011789,FALSE,
2001,8,31,2,1997,1.17980561591616,FALSE,
2001,8,31,3,1997,0.678547455389456,FALSE,
2001,8,31,4,1997,0.890040696089518,FALSE,2.31477854624291
2001,8,31,1,1998,0.940852208817682,FALSE,
2001,8,31,2,1998,0.34099850355383,FALSE,
2001,8,31,3,1998,0.554884287971657,FALSE,
2001,8,31,4,1998,0.219561624980405,FALSE,2.86696032688185
2001,8,31,1,1999,0.838792499249757,FALSE,
2001,8,31,2,1999,0.512463788456231,FALSE,
2001,8,31,3,1999,0.983986568042133,FALSE,
2001,8,31,4,1999,1.00264409212346,FALSE,2.52820113810275
2001,8,31,1,2000,0.921886499262263,FALSE,
2001,8,31,2,2000,0.782147679143249,FALSE,
2001,8,31,3,2000,0.584456202013237,FALSE,
2001,8,31,4,2000,0.599086071647742,FALSE,3.37638802870124
2001,8,31,1,2001,0.582525088167447,FALSE,
2001,8,31,2,2001,,TRUE,
2001,8,31,3,2001,,TRUE,
2001,8,31,4,2001,,TRUE,
2001,9,30,2,1991,0.209453309320499,FALSE,
2001,9,30,3,1991,0.0729400511672473,FALSE,
2001,9,30,4,1991,0.904611759093567,FALSE,
2001,9,30,1,1992,1.47250321223268,FALSE,
2001,9,30,2,1992,-0.689952352822853,FALSE,
2001,9,30,3,1992,-0.157023527988061,FALSE,
2001,9,30,4,1992,-0.340074081169575,FALSE,
2001,9,30,1,1993,-0.69161009026808,FALSE,
2001,9,30,2,1993,0.0403109950570893,FALSE,
2001,9,30,3,1993,0.443560485474513,FALSE,
2001,9,30,4,1993,0.352387875529189,FALSE,-0.854229962877096
2001,9,30,1,1994,0.838496333793471,FALSE,
2001,9,30,2,1994,0.574822202052801,FALSE,
2001,9,30,3,1994,0.736266301497822,FALSE,
2001,9,30,4,1994,0.812298706136129,FALSE,2.36713711005461
2001,9,30,1,1995,0.530223549518076,FALSE,
2001,9,30,2,1995,0.616020809548836,FALSE,
2001,9,30,3,1995,0.100803389797546,FALSE,
2001,9,30,4,1995,0.206133075020937,FALSE,2.23731239775924
2001,9,30,1,1996,0.278956802374397,FALSE,
2001,9,30,2,1996,0.593339726405179,FALSE,
2001,9,30,3,1996,0.573550860581306,FALSE,
2001,9,30,4,1996,0.170259383098941,FALSE,1.42312730155909
2001,9,30,1,1997,0.276816367571329,FALSE,
2001,9,30,2,1997,1.16476557613599,FALSE,
2001,9,30,3,1997,0.66373338434964,FALSE,
2001,9,30,4,1997,0.962776285105273,FALSE,2.31594438316227
2001,9,30,1,1998,0.875973196470241,FALSE,
2001,9,30,2,1998,0.377917067429068,FALSE,
2001,9,30,3,1998,0.509694323176957,FALSE,
2001,9,30,4,1998,0.159429353767223,FALSE,2.83438828885305
2001,9,30,1,1999,0.961555356428723,FALSE,
2001,9,30,2,1999,0.500445922958445,FALSE,
2001,9,30,3,1999,1.09680008225714,FALSE,
2001,9,30,4,1999,0.975647113738836,FALSE,2.63635449245252
2001,9,30,1,2000,0.972394434324825,FALSE,
2001,9,30,2,2000,0.768775102622059,FALSE,
2001,9,30,3,2000,0.495236173934272,FALSE,
2001,9,30,4,2000,0.596970943276277,FALSE,3.4051373037326
2001,9,30,1,2001,0.510511605278262,FALSE,
2001,9,30,2,2001,0.0503914922582695,FALSE,
2001,9,30,3,2001,,TRUE,
2001,9,30,4,2001,,TRUE,
2001,10,31,2,1991,0.209453309320499,FALSE,
2001,10,31,3,1991,0.0729400511672473,FALSE,
2001,10,31,4,1991,0.904611759093567,FALSE,
2001,10,31,1,1992,1.47250321223268,FALSE,
2001,10,31,2,1992,-0.689952352822853,FALSE,
2001,10,31,3,1992,-0.157023527988061,FALSE,
2001,10,31,4,1992,-0.340074081169575,FALSE,
2001,10,31,1,1993,-0.69161009026808,FALSE,
2001,10,31,2,1993,0.0403109950570893,FALSE,
2001,10,31,3,1993,0.443560485474513,FALSE,
2001,10,31,4,1993,0.352387875529189,FALSE,-0.854229962877096
2001,10,31,1,1994,0.838496333793471,FALSE,
2001,10,31,2,1994,0.574822202052801,FALSE,
2001,10,31,3,1994,0.736266301497822,FALSE,
2001,10,31,4,1994,0.812298706136129,FALSE,2.36713711005461
2001,10,31,1,1995,0.530223549518076,FALSE,
2001,10,31,2,1995,0.616020809548836,FALSE,
2001,10,31,3,1995,0.100803389797546,FALSE,
2001,10,31,4,1995,0.206133075020937,FALSE,2.23731239775924
2001,10,31,1,1996,0.278956802374397,FALSE,
2001,10,31,2,1996,0.593339726405179,FALSE,
2001,10,31,3,1996,0.573550860581306,FALSE,
2001,10,31,4,1996,0.170259383098941,FALSE,1.42312730155909
2001,10,31,1,1997,0.276816367571329,FALSE,
2001,10,31,2,1997,1.16476557613599,FALSE,
2001,10,31,3,1997,0.66373338434964,FALSE,
2001,10,31,4,1997,0.962776285105273,FALSE,2.31594438316227
2001,10,31,1,1998,0.875973196470241,FALSE,
2001,10,31,2,1998,0.377917067429068,FALSE,
2001,10,31,3,1998,0.509694323176957,FALSE,
2001,10,31,4,1998,0.159429353767223,FALSE,2.83438828885305
2001,10,31,1,1999,0.961555356428723,FALSE,
2001,10,31,2,1999,0.500445922958445,FALSE,
2001,10,31,3,1999,1.09680008225714,FALSE,
2001,10,31,4,1999,0.975647113738836,FALSE,2.63635449245252
2001,10,31,1,2000,0.972394434324825,FALSE,
2001,10,31,2,2000,0.768775102622059,FALSE,
2001,10,31,3,2000,0.495236173934272,FALSE,
2001,10,31,4,2000,0.596970943276277,FALSE,3.4051373037326
2001,10,31,1,2001,0.510511605278262,FALSE,
2001,10,31,2,2001,0.0503914922582695,FALSE,
2001,10,31,3,2001,,TRUE,
2001,10,31,4,2001,,TRUE,
2001,11,30,2,1991,0.205873864680766,FALSE,
2001,11,30,3,1991,0.0574490642401178,FALSE,
2001,11,30,4,1991,0.914540271165618,FALSE,
2001,11,30,1,1992,1.46489074618702,FALSE,
2001,11,30,2,1992,-0.711928409258281,FALSE,
2001,11,30,3,1992,-0.166762434008285,FALSE,
2001,11,30,4,1992,-0.322189459336273,FALSE,
2001,11,30,1,1993,-0.677878326335201,FALSE,
2001,11,30,2,1993,0.0329293409607854,FALSE,
2001,11,30,3,1993,0.459102484059504,FALSE,
2001,11,30,4,1993,0.325738476215874,FALSE,-0.842026132440921
2001,11,30,1,1994,0.886767372158803,FALSE,
2001,11,30,2,1994,0.488453292592478,FALSE,
2001,11,30,3,1994,0.737322978147065,FALSE,
2001,11,30,4,1994,0.855936740329783,FALSE,2.34748603266628
2001,11,30,1,1995,0.48644995610823,FALSE,
2001,11,30,2,1995,0.67260127099329,FALSE,
2001,11,30,3,1995,0.12312187453515,FALSE,
2001,11,30,4,1995,0.143015796007913,FALSE,2.24328939971314
2001,11,30,1,1996,0.280501379905975,FALSE,
2001,11,30,2,1996,0.628111456485001,FALSE,
2001,11,30,3,1996,0.545584351588965,FALSE,
2001,11,30,4,1996,0.20083179633987,FALSE,1.42235443576608
2001,11,30,1,1997,0.303502556172364,FALSE,
2001,11,30,2,1997,1.11610144285165,FALSE,
2001,11,30,3,1997,0.675424827598316,FALSE,
2001,11,30,4,1997,0.989259653418407,FALSE,2.33662989614065
2001,11,30,1,1998,0.871765145485744,FALSE,
2001,11,30,2,1998,0.397897476599901,FALSE,
2001,11,30,3,1998,0.518960603084018,FALSE,
2001,11,30,4,1998,0.160395656230698,FALSE,2.86449901526038
2001,11,30,1,1999,0.89899935300531,FALSE,
2001,11,30,2,1999,0.563059389224161,FALSE,
2001,11,30,3,1999,1.10311375155635,FALSE,
2001,11,30,4,1999,0.964154125092582,FALSE,2.63139381659301
2001,11,30,1,2000,0.904870775825979,FALSE,
2001,11,30,2,2000,0.829059131774582,FALSE,
2001,11,30,3,2000,0.464006694789367,FALSE,
2001,11,30,4,2000,0.6140421871261,FALSE,3.38079139024221
2001,11,30,1,2001,0.494506101268402,FALSE,
2001,11,30,2,2001,0.0858676621979099,FALSE,
2001,11,30,3,2001,,TRUE,
2001,11,30,4,2001,,TRUE,
2001,12,31,2,1991,0.184850471678016,FALSE,
2001,12,31,3,1991,0.0669602465998837,FALSE,
2001,12,31,4,1991,0.937266351754631,FALSE,
2001,12,31,1,1992,1.4353110311021,FALSE,
2001,12,31,2,1992,-0.679480662687237,FALSE,
2001,12,31,3,1992,-0.207481122884403,FALSE,
2001,12,31,4,1992,-0.288307054860786,FALSE,
2001,12,31,1,1993,-0.68071171668889,FALSE,
2001,12,31,2,1993,0.0141349779105219,FALSE,
2001,12,31,3,1993,0.441376980652489,FALSE,
2001,12,31,4,1993,0.38289723355187,FALSE,-0.840323031541246
2001,12,31,1,1994,0.867617501716867,FALSE,
2001,12,31,2,1994,0.470370636952516,FALSE,
2001,12,31,3,1994,0.742414894975417,FALSE,
2001,12,31,4,1994,0.826568699115074,FALSE,2.33895626338585
2001,12,31,1,1995,0.49208010102783,FALSE,
2001,12,31,2,1995,0.679928403506887,FALSE,
2001,12,31,3,1995,0.144614942935849,FALSE,
2001,12,31,4,1995,0.149838905694898,FALSE,2.24301386596704
2001,12,31,1,1996,0.244311480187221,FALSE,
2001,12,31,2,1996,0.669290703318896,FALSE,
2001,12,31,3,1996,0.535641957812648,FALSE,
2001,12,31,4,1996,0.190116153751738,FALSE,1.42715899877435
2001,12,31,1,1997,0.338387304974801,FALSE,
2001,12,31,2,1997,1.09511900285496,FALSE,
2001,12,31,3,1997,0.651309039170079,FALSE,
2001,12,31,4,1997,1.00418348817156,FALSE,2.34475392105351
2001,12,31,1,1998,0.890311843619649,FALSE,
2001,12,31,2,1998,0.405728591740903,FALSE,
2001,12,31,3,1998,0.502073122008542,FALSE,
2001,12,31,4,1998,0.135082738680428,FALSE,2.86821525288536
2001,12,31,1,1999,0.916689423238122,FALSE,
2001,12,31,2,1999,0.591418419580556,FALSE,
2001,12,31,3,1999,1.09686906174639,FALSE,
2001,12,31,4,1999,0.972906923309811,FALSE,2.64442293698333
2001,12,31,1,2000,0.86472450596096,FALSE,
2001,12,31,2,2000,0.872039098234641,FALSE,
2001,12,31,3,2000,0.463217791288628,FALSE,
2001,12,31,4,2000,0.587376104613914,FALSE,3.37615826817732
2001,12,31,1,2001,0.517440281076394,FALSE,
2001,12,31,2,2001,0.0715679198934951,FALSE,
2001,12,31,3,2001,0.0962625495821128,FALSE,
2001,12,31,4,2001,,TRUE,
2002,1,31,2,1991,0.195827277650828,FALSE,
2002,1,31,3,1991,0.0719451395121023,FALSE,
2002,1,31,4,1991,0.906672249848972,FALSE,
2002,1,31,1,1992,1.44999001570021,FALSE,
2002,1,31,2,1992,-0.709407710775183,FALSE,
2002,1,31,3,1992,-0.181592257134191,FALSE,
2002,1,31,4,1992,-0.238141732750475,FALSE,
2002,1,31,1,1993,-0.730546471214114,FALSE,
2002,1,31,2,1993,0.0160870789065367,FALSE,
2002,1,31,3,1993,0.45218928295479,FALSE,
2002,1,31,4,1993,0.382132933521155,FALSE,-0.840322840988661
2002,1,31,1,1994,0.880489151305608,FALSE,
2002,1,31,2,1994,0.456513089960148,FALSE,
2002,1,31,3,1994,0.723939299332939,FALSE,
2002,1,31,4,1994,0.832708985543882,FALSE,2.33895626338587
2002,1,31,1,1995,0.496398653686096,FALSE,
2002,1,31,2,1995,0.670359185136963,FALSE,
2002,1,31,3,1995,0.150858504440603,FALSE,
2002,1,31,4,1995,0.180819318057253,FALSE,2.24302674290566
2002,1,31,1,1996,0.220761547971687,FALSE,
2002,1,31,2,1996,0.669235332407051,FALSE,
2002,1,31,3,1996,0.529779765981025,FALSE,
2002,1,31,4,1996,0.200261183022236,FALSE,1.42711492369727
2002,1,31,1,1997,0.341199997752523,FALSE,
2002,1,31,2,1997,1.09681103496275,FALSE,
2002,1,31,3,1997,0.626568025487335,FALSE,
2002,1,31,4,1997,1.02676503834366,FALSE,2.34679855784861
2002,1,31,1,1998,0.883021421550881,FALSE,
2002,1,31,2,1998,0.410587605652118,FALSE,
2002,1,31,3,1998,0.51652432001173,FALSE,
2002,1,31,4,1998,0.121436247108238,FALSE,2.87356297844765
2002,1,31,1,1999,0.905660798435522,FALSE,
2002,1,31,2,1999,0.623536471972579,FALSE,
2002,1,31,3,1999,1.08097567960179,FALSE,
2002,1,31,4,1999,0.967156986805943,FALSE,2.64633809971848
2002,1,31,1,2000,0.885512815120544,FALSE,
2002,1,31,2,2000,0.874001178618451,FALSE,
2002,1,31,3,2000,0.40938941057014,FALSE,
2002,1,31,4,2000,0.581313933800371,FALSE,3.36523313581993
2002,1,31,1,2001,0.574596741158783,FALSE,
2002,1,31,2,2001,0.0630535036858945,FALSE,
2002,1,31,3,2001,0.123848724087005,FALSE,
2002,1,31,4,2001,,TRUE,
2002,1,31,1,2002,,TRUE,
2002,1,31,2,2002,,TRUE,
2002,1,31,3,2002,,TRUE,
2002,1,31,4,2002,,TRUE,
2002,2,28,2,1991,0.195827277650828,FALSE,
2002,2,28,3,1991,0.0719451395121023,FALSE,
2002,2,28,4,1991,0.906672249848972,FALSE,
2002,2,28,1,1992,1.44999001570021,FALSE,
2002,2,28,2,1992,-0.709407710775183,FALSE,
2002,2,28,3,1992,-0.181592257134191,FALSE,
2002,2,28,4,1992,-0.238141732750475,FALSE,
2002,2,28,1,1993,-0.730546471214114,FALSE,
2002,2,28,2,1993,0.0160870789065367,FALSE,
2002,2,28,3,1993,0.45218928295479,FALSE,
2002,2,28,4,1993,0.382132933521155,FALSE,-0.840322840988661
2002,2,28,1,1994,0.880489151305608,FALSE,
2002,2,28,2,1994,0.456513089960148,FALSE,
2002,2,28,3,1994,0.723939299332939,FALSE,
2002,2,28,4,1994,0.832708985543882,FALSE,2.33895626338587
2002,2,28,1,1995,0.496398653686096,FALSE,
2002,2,28,2,1995,0.670359185136963,FALSE,
2002,2,28,3,1995,0.150858504440603,FALSE,
2002,2,28,4,1995,0.180819318057253,FALSE,2.24302674290566
2002,2,28,1,1996,0.220761547971687,FALSE,
2002,2,28,2,1996,0.669235332407051,FALSE,
2002,2,28,3,1996,0.529779765981025,FALSE,
2002,2,28,4,1996,0.200261183022236,FALSE,1.42711492369727
2002,2,28,1,1997,0.341199997752523,FALSE,
2002,2,28,2,1997,1.09681103496275,FALSE,
2002,2,28,3,1997,0.626568025487335,FALSE,
2002,2,28,4,1997,1.02676503834366,FALSE,2.34679855784861
2002,2,28,1,1998,0.883021421550881,FALSE,
2002,2,28,2,1998,0.410587605652118,FALSE,
2002,2,28,3,1998,0.51652432001173,FALSE,
2002,2,28,4,1998,0.121436247108238,FALSE,2.87356297844765
2002,2,28,1,1999,0.905660798435522,FALSE,
2002,2,28,2,1999,0.623536471972579,FALSE,
2002,2,28,3,1999,1.08097567960179,FALSE,
2002,2,28,4,1999,0.967156986805943,FALSE,2.64633809971848
2002,2,28,1,2000,0.885512815120544,FALSE,
2002,2,28,2,2000,0.874001178618451,FALSE,
2002,2,28,3,2000,0.40938941057014,FALSE,
2002,2,28,4,2000,0.581313933800371,FALSE,3.36523313581993
2002,2,28,1,2001,0.574596741158783,FALSE,
2002,2,28,2,2001,0.0630535036858945,FALSE,
2002,2,28,3,2001,0.123848724087005,FALSE,
2002,2,28,4,2001,,TRUE,
2002,2,28,1,2002,,TRUE,
2002,2,28,2,2002,,TRUE,
2002,2,28,3,2002,,TRUE,
2002,2,28,4,2002,,TRUE,
2002,3,31,2,1991,0.197020131679821,FALSE,
2002,3,31,3,1991,0.0722111018187222,FALSE,
2002,3,31,4,1991,0.905571946836925,FALSE,
2002,3,31,1,1992,1.44953541145565,FALSE,
2002,3,31,2,1992,-0.709376551331807,FALSE,
2002,3,31,3,1992,-0.181239518543876,FALSE,
2002,3,31,4,1992,-0.239317914006,FALSE,
2002,3,31,1,1993,-0.731275281911711,FALSE,
2002,3,31,2,1993,0.0164466842975972,FALSE,
2002,3,31,3,1993,0.4551477531348,FALSE,
2002,3,31,4,1993,0.382363133627749,FALSE,-0.839941622116436
2002,3,31,1,1994,0.879588884463288,FALSE,
2002,3,31,2,1994,0.45571648817712,FALSE,
2002,3,31,3,1994,0.723806685500529,FALSE,
2002,3,31,4,1994,0.83234724189205,FALSE,2.33903673262592
2002,3,31,1,1995,0.49602911198621,FALSE,
2002,3,31,2,1995,0.672186887542139,FALSE,
2002,3,31,3,1995,0.14986058648529,FALSE,
2002,3,31,4,1995,0.182824935098188,FALSE,2.24351085586338
2002,3,31,1,1996,0.220657385407055,FALSE,
2002,3,31,2,1996,0.66822465938894,FALSE,
2002,3,31,3,1996,0.52708954547874,FALSE,
2002,3,31,4,1996,0.20290053489004,FALSE,1.42702033337554
2002,3,31,1,1997,0.340110746242016,FALSE,
2002,3,31,2,1997,1.09607132977228,FALSE,
2002,3,31,3,1997,0.624590647113328,FALSE,
2002,3,31,4,1997,1.03122530697776,FALSE,2.34564517524847
2002,3,31,1,1998,0.881088623886009,FALSE,
2002,3,31,2,1998,0.409549684947906,FALSE,
2002,3,31,3,1998,0.51509877351558,FALSE,
2002,3,31,4,1998,0.126934583002393,FALSE,2.87368619439627
2002,3,31,1,1999,0.900341865913118,FALSE,
2002,3,31,2,1999,0.623618496071388,FALSE,
2002,3,31,3,1999,1.08221114425258,FALSE,
2002,3,31,4,1999,0.976267727284944,FALSE,2.64718620975852
2002,3,31,1,2000,0.889994131057826,FALSE,
2002,3,31,2,2000,0.876326799348856,FALSE,
2002,3,31,3,2000,0.395417738157736,FALSE,
2002,3,31,4,2000,0.586905016902257,FALSE,3.37355274726725
2002,3,31,1,2001,0.551142538523508,FALSE,
2002,3,31,2,2001,0.0685045767122102,FALSE,
2002,3,31,3,2001,0.1434272649536,FALSE,
2002,3,31,4,2001,,TRUE,
2002,3,31,1,2002,,TRUE,
2002,3,31,2,2002,,TRUE,
2002,3,31,3,2002,,TRUE,
2002,3,31,4,2002,,TRUE,
2002,4,30,2,1991,0.193476506232638,FALSE,
2002,4,30,3,1991,0.0563589045890376,FALSE,
2002,4,30,4,1991,0.912062958695683,FALSE,
2002,4,30,1,1992,1.46118776770947,FALSE,
2002,4,30,2,1992,-0.7130588903721,FALSE,
2002,4,30,3,1992,-0.19325344754837,FALSE,
2002,4,30,4,1992,-0.235235994023041,FALSE,
2002,4,30,1,1993,-0.719742883212325,FALSE,
2002,4,30,2,1993,0.00811067799432934,FALSE,
2002,4,30,3,1993,0.45579807260788,FALSE,
2002,4,30,4,1993,0.375561235084755,FALSE,-0.839938931756801
2002,4,30,1,1994,0.884742411981118,FALSE,
2002,4,30,2,1994,0.462101615048112,FALSE,
2002,4,30,3,1994,0.711063428264976,FALSE,
2002,4,30,4,1994,0.845407560177126,FALSE,2.33903395601596
2002,4,30,1,1995,0.494912952575452,FALSE,
2002,4,30,2,1995,0.673238164754698,FALSE,
2002,4,30,3,1995,0.139237685266248,FALSE,
2002,4,30,4,1995,0.185335158430963,FALSE,2.24350063004755
2002,4,30,1,1996,0.194328076535888,FALSE,
2002,4,30,2,1996,0.704945801634327,FALSE,
2002,4,30,3,1996,0.522008344876504,FALSE,
2002,4,30,4,1996,0.220471689167938,FALSE,1.42701899440414
2002,4,30,1,1997,0.307609774402892,FALSE,
2002,4,30,2,1997,1.10639135269094,FALSE,
2002,4,30,3,1997,0.619559934885152,FALSE,
2002,4,30,4,1997,1.06101003853021,FALSE,2.34566077970892
2002,4,30,1,1998,0.869669885816026,FALSE,
2002,4,30,2,1998,0.38968258454086,FALSE,
2002,4,30,3,1998,0.501156199116863,FALSE,
2002,4,30,4,1998,0.160874297920246,FALSE,2.87107685630639
2002,4,30,1,1999,0.900820845566045,FALSE,
2002,4,30,2,1999,0.581673292578059,FALSE,
2002,4,30,3,1999,1.08897383607533,FALSE,
2002,4,30,4,1999,1.02094946552105,FALSE,2.64428047095693
2002,4,30,1,2000,0.853120172350807,FALSE,
2002,4,30,2,2000,0.858082037531268,FALSE,
2002,4,30,3,2000,0.402459818047431,FALSE,
2002,4,30,4,2000,0.641923499270964,FALSE,3.36647849470941
2002,4,30,1,2001,0.50752145009278,FALSE,
2002,4,30,2,2001,0.0720197899722196,FALSE,
2002,4,30,3,2001,0.188681902786534,FALSE,
2002,4,30,4,2001,-0.165626654383443,FALSE,1.52078036134014
2002,4,30,1,2002,,TRUE,
2002,4,30,2,2002,,TRUE,
2002,4,30,3,2002,,TRUE,
2002,4,30,4,2002,,TRUE,
2002,5,31,2,1991,0.192395382451135,FALSE,
2002,5,31,3,1991,0.0572811284131426,FALSE,
2002,5,31,4,1991,0.912409899449195,FALSE,
2002,5,31,1,1992,1.46134031888906,FALSE,
2002,5,31,2,1992,-0.713557915541497,FALSE,
2002,5,31,3,1992,-0.193200438055426,FALSE,
2002,5,31,4,1992,-0.235392793098321,FALSE,
2002,5,31,1,1993,-0.720683682618536,FALSE,
2002,5,31,2,1993,0.00864114610615246,FALSE,
2002,5,31,3,1993,0.455601795426777,FALSE,
2002,5,31,4,1993,0.376207389999645,FALSE,-0.840628493754947
2002,5,31,1,1994,0.885164077002849,FALSE,
2002,5,31,2,1994,0.461658979680245,FALSE,
2002,5,31,3,1994,0.711835194419118,FALSE,
2002,5,31,4,1994,0.844723666786361,FALSE,2.33987567578358
2002,5,31,1,1995,0.49552086126164,FALSE,
2002,5,31,2,1995,0.672551861535528,FALSE,
2002,5,31,3,1995,0.139611308501847,FALSE,
2002,5,31,4,1995,0.184508848703246,FALSE,2.24333159982686
2002,5,31,1,1996,0.194170870228191,FALSE,
2002,5,31,2,1996,0.705609456386067,FALSE,
2002,5,31,3,1996,0.522122360887631,FALSE,
2002,5,31,4,1996,0.221281915355605,FALSE,1.42701880654943
2002,5,31,1,1997,0.306792218070378,FALSE,
2002,5,31,2,1997,1.10562885535228,FALSE,
2002,5,31,3,1997,0.620216255536743,FALSE,
2002,5,31,4,1997,1.06192966796898,FALSE,2.34566041449706
2002,5,31,1,1998,0.868513435381613,FALSE,
2002,5,31,2,1998,0.388673175742368,FALSE,
2002,5,31,3,1998,0.502254323460836,FALSE,
2002,5,31,4,1998,0.163026353887926,FALSE,2.87107758023466
2002,5,31,1,1999,0.901144527534736,FALSE,
2002,5,31,2,1999,0.582555006305784,FALSE,
2002,5,31,3,1999,1.08887483880229,FALSE,
2002,5,31,4,1999,1.02156500227794,FALSE,2.64736129671144
2002,5,31,1,2000,0.847552399787366,FALSE,
2002,5,31,2,2000,0.857369721872718,FALSE,
2002,5,31,3,2000,0.401936272801017,FALSE,
2002,5,31,4,2000,0.648699112026996,FALSE,3.36231308763748
2002,5,31,1,2001,0.504441893743393,FALSE,
2002,5,31,2,2001,0.0752106116654485,FALSE,
2002,5,31,3,2001,0.176093067545584,FALSE,
2002,5,31,4,2001,-0.166034341760805,FALSE,1.51828670821219
2002,5,31,1,2002,,TRUE,
2002,5,31,2,2002,,TRUE,
2002,5,31,3,2002,,TRUE,
2002,5,31,4,2002,,TRUE,
2002,6,30,2,1991,0.166268628257002,FALSE,
2002,6,30,3,1991,0.0764291022979223,FALSE,
2002,6,30,4,1991,0.871933730566379,FALSE,
2002,6,30,1,1992,1.45620322045148,FALSE,
2002,6,30,2,1992,-0.723932977453815,FALSE,
2002,6,30,3,1992,-0.115029425806144,FALSE,
2002,6,30,4,1992,-0.238796546838007,FALSE,
2002,6,30,1,1993,-0.767690672716159,FALSE,
2002,6,30,2,1993,0.0446727931225636,FALSE,
2002,6,30,3,1993,0.472815523943809,FALSE,
2002,6,30,4,1993,0.363400008080328,FALSE,-0.821284507217301
2002,6,30,1,1994,0.848783331149487,FALSE,
2002,6,30,2,1994,0.514020299852098,FALSE,
2002,6,30,3,1994,0.725042001237088,FALSE,
2002,6,30,4,1994,0.846241310934319,FALSE,2.35831047580424
2002,6,30,1,1995,0.459986436830382,FALSE,
2002,6,30,2,1995,0.633249509239976,FALSE,
2002,6,30,3,1995,0.187464319526207,FALSE,
2002,6,30,4,1995,0.245856813142579,FALSE,2.23820354541782
2002,6,30,1,1996,0.133929413726314,FALSE,
2002,6,30,2,1996,0.69685222444913,FALSE,
2002,6,30,3,1996,0.533085442199847,FALSE,
2002,6,30,4,1996,0.207919383012218,FALSE,1.42231217567257
2002,6,30,1,1997,0.324145434940948,FALSE,
2002,6,30,2,1997,1.09294147796279,FALSE,
2002,6,30,3,1997,0.622521934915611,FALSE,
2002,6,30,4,1997,1.05335060511857,FALSE,2.34572536399214
2002,6,30,1,1998,0.813454787232868,FALSE,
2002,6,30,2,1998,0.43378562242448,FALSE,
2002,6,30,3,1998,0.538881611296119,FALSE,
2002,6,30,4,1998,0.208956479832529,FALSE,2.87147331198863
2002,6,30,1,1999,0.81443465535289,FALSE,
2002,6,30,2,1999,0.63653545481625,FALSE,
2002,6,30,3,1999,1.18183854123864,FALSE,
2002,6,30,4,1999,1.01954357491502,FALSE,2.71328988292876
2002,6,30,1,2000,0.909029606414509,FALSE,
2002,6,30,2,2000,0.875452930834645,FALSE,
2002,6,30,3,2000,0.412660688274368,FALSE,
2002,6,30,4,2000,0.686065066506818,FALSE,3.51514329610372
2002,6,30,1,2001,0.50400025623293,FALSE,
2002,6,30,2,2001,0.0308783304625055,FALSE,
2002,6,30,3,2001,0.0981719787559045,FALSE,
2002,6,30,4,2001,-0.290301706162964,FALSE,1.45134526747714
2002,6,30,1,2002,0.216828807067803,FALSE,
2002,6,30,2,2002,,TRUE,
2002,6,30,3,2002,,TRUE,
2002,6,30,4,2002,,TRUE,
2002,7,31,2,1991,0.166268628257002,FALSE,
2002,7,31,3,1991,0.0764291022979223,FALSE,
2002,7,31,4,1991,0.871933730566379,FALSE,
2002,7,31,1,1992,1.45620322045148,FALSE,
2002,7,31,2,1992,-0.723932977453815,FALSE,
2002,7,31,3,1992,-0.115029425806144,FALSE,
2002,7,31,4,1992,-0.238796546838007,FALSE,
2002,7,31,1,1993,-0.767690672716159,FALSE,
2002,7,31,2,1993,0.0446727931225636,FALSE,
2002,7,31,3,1993,0.472815523943809,FALSE,
2002,7,31,4,1993,0.363400008080328,FALSE,-0.821284507217301
2002,7,31,1,1994,0.848783331149487,FALSE,
2002,7,31,2,1994,0.514020299852098,FALSE,
2002,7,31,3,1994,0.725042001237088,FALSE,
2002,7,31,4,1994,0.846241310934319,FALSE,2.35831047580424
2002,7,31,1,1995,0.459986436830382,FALSE,
2002,7,31,2,1995,0.633249509239976,FALSE,
2002,7,31,3,1995,0.187464319526207,FALSE,
2002,7,31,4,1995,0.245856813142579,FALSE,2.23820354541782
2002,7,31,1,1996,0.133929413726314,FALSE,
2002,7,31,2,1996,0.69685222444913,FALSE,
2002,7,31,3,1996,0.533085442199847,FALSE,
2002,7,31,4,1996,0.207919383012218,FALSE,1.42231217567257
2002,7,31,1,1997,0.324145434940948,FALSE,
2002,7,31,2,1997,1.09294147796279,FALSE,
2002,7,31,3,1997,0.622521934915611,FALSE,
2002,7,31,4,1997,1.05335060511857,FALSE,2.34572536399214
2002,7,31,1,1998,0.813454787232868,FALSE,
2002,7,31,2,1998,0.43378562242448,FALSE,
2002,7,31,3,1998,0.538881611296119,FALSE,
2002,7,31,4,1998,0.208956479832529,FALSE,2.87147331198863
2002,7,31,1,1999,0.81443465535289,FALSE,
2002,7,31,2,1999,0.63653545481625,FALSE,
2002,7,31,3,1999,1.18183854123864,FALSE,
2002,7,31,4,1999,1.01954357491502,FALSE,2.71328988292876
2002,7,31,1,2000,0.909029606414509,FALSE,
2002,7,31,2,2000,0.875452930834645,FALSE,
2002,7,31,3,2000,0.412660688274368,FALSE,
2002,7,31,4,2000,0.686065066506818,FALSE,3.51514329610372
2002,7,31,1,2001,0.50400025623293,FALSE,
2002,7,31,2,2001,0.0308783304625055,FALSE,
2002,7,31,3,2001,0.0981719787559045,FALSE,
2002,7,31,4,2001,-0.290301706162964,FALSE,1.45134526747714
2002,7,31,1,2002,0.216828807067803,FALSE,
2002,7,31,2,2002,,TRUE,
2002,7,31,3,2002,,TRUE,
2002,7,31,4,2002,,TRUE,
2002,8,31,2,1991,0.166469120922773,FALSE,
2002,8,31,3,1991,0.0791041496320913,FALSE,
2002,8,31,4,1991,0.8684816690746,FALSE,
2002,8,31,1,1992,1.45391270203573,FALSE,
2002,8,31,2,1992,-0.720136993642232,FALSE,
2002,8,31,3,1992,-0.115005585009403,FALSE,
2002,8,31,4,1992,-0.236236921443787,FALSE,
2002,8,31,1,1993,-0.771210683719691,FALSE,
2002,8,31,2,1993,0.0467247688151283,FALSE,
2002,8,31,3,1993,0.469751223811753,FALSE,
2002,8,31,4,1993,0.365895120215254,FALSE,-0.821284394322874
2002,8,31,1,1994,0.848424002668974,FALSE,
2002,8,31,2,1994,0.513015401086827,FALSE,
2002,8,31,3,1994,0.725001774189373,FALSE,
2002,8,31,4,1994,0.847362121234636,FALSE,2.35831043547681
2002,8,31,1,1995,0.460550897585121,FALSE,
2002,8,31,2,1995,0.630694234028607,FALSE,
2002,8,31,3,1995,0.187072864472474,FALSE,
2002,8,31,4,1995,0.249774885109305,FALSE,2.23820365518685
2002,8,31,1,1996,0.130489690222057,FALSE,
2002,8,31,2,1996,0.705033204794546,FALSE,
2002,8,31,3,1996,0.524399996947366,FALSE,
2002,8,31,4,1996,0.206122966296523,FALSE,1.42231391080085
2002,8,31,1,1997,0.327017262209468,FALSE,
2002,8,31,2,1997,1.09447671865891,FALSE,
2002,8,31,3,1997,0.628765556491823,FALSE,
2002,8,31,4,1997,1.03942323795513,FALSE,2.34573474969
2002,8,31,1,1998,0.823715585905053,FALSE,
2002,8,31,2,1998,0.436028416848855,FALSE,
2002,8,31,3,1998,0.534090191505725,FALSE,
2002,8,31,4,1998,0.198557252494729,FALSE,2.87147654525821
2002,8,31,1,1999,0.830578686500692,FALSE,
2002,8,31,2,1999,0.627751047797582,FALSE,
2002,8,31,3,1999,1.18475667488316,FALSE,
2002,8,31,4,1999,1.01406792788041,FALSE,2.7132866145694
2002,8,31,1,2000,0.903981820511828,FALSE,
2002,8,31,2,2000,0.890364339718112,FALSE,
2002,8,31,3,2000,0.415960857573399,FALSE,
2002,8,31,4,2000,0.674051237591422,FALSE,3.5151370381953
2002,8,31,1,2001,0.437907671544515,FALSE,
2002,8,31,2,2001,0.0489045988869841,FALSE,
2002,8,31,3,2001,0.188987262160558,FALSE,
2002,8,31,4,2001,-0.254462624143649,FALSE,1.44945685463689
2002,8,31,1,2002,0.313737902004165,FALSE,
2002,8,31,2,2002,,TRUE,
2002,8,31,3,2002,,TRUE,
2002,8,31,4,2002,,TRUE,
2002,9,30,2,1991,0.151296462666381,FALSE,
2002,9,30,3,1991,0.0208942115811857,FALSE,
2002,9,30,4,1991,0.888532501329537,FALSE,
2002,9,30,1,1992,1.42826081858444,FALSE,
2002,9,30,2,1992,-0.665444396778078,FALSE,
2002,9,30,3,1992,-0.136991315891311,FALSE,
2002,9,30,4,1992,-0.18210334312029,FALSE,
2002,9,30,1,1993,-0.801928410214902,FALSE,
2002,9,30,2,1993,0.0593221800529884,FALSE,
2002,9,30,3,1993,0.412602970896327,FALSE,
2002,9,30,4,1993,0.391909358105646,FALSE,-0.821284719693594
2002,9,30,1,1994,0.832759863125643,FALSE,
2002,9,30,2,1994,0.542520705346739,FALSE,
2002,9,30,3,1994,0.72248508891643,FALSE,
2002,9,30,4,1994,0.849719557709468,FALSE,2.35831040036913
2002,9,30,1,1995,0.438861516693675,FALSE,
2002,9,30,2,1995,0.633941221963993,FALSE,
2002,9,30,3,1995,0.213122774632294,FALSE,
2002,9,30,4,1995,0.243266746550396,FALSE,2.23820384878159
2002,9,30,1,1996,0.12119906827634,FALSE,
2002,9,30,2,1996,0.694070731243499,FALSE,
2002,9,30,3,1996,0.549723536063107,FALSE,
2002,9,30,4,1996,0.189801677689536,FALSE,1.42231409601203
2002,9,30,1,1997,0.314691626403234,FALSE,
2002,9,30,2,1997,1.1043875671391,FALSE,
2002,9,30,3,1997,0.648299028879178,FALSE,
2002,9,30,4,1997,1.02893871979828,FALSE,2.34573474540634
2002,9,30,1,1998,0.815636511084015,FALSE,
2002,9,30,2,1998,0.389785477004906,FALSE,
2002,9,30,3,1998,0.561097415007836,FALSE,
2002,9,30,4,1998,0.297891371857693,FALSE,2.87147632602067
2002,9,30,1,1999,0.813279421654893,FALSE,
2002,9,30,2,1999,0.538011605368355,FALSE,
2002,9,30,3,1999,1.28241290641214,FALSE,
2002,9,30,4,1999,1.11034694682362,FALSE,2.78027361376754
2002,9,30,1,2000,0.816191766807364,FALSE,
2002,9,30,2,2000,0.84638546754112,FALSE,
2002,9,30,3,2000,0.39769037867481,FALSE,
2002,9,30,4,2000,0.650465965563754,FALSE,3.47580225870752
2002,9,30,1,2001,0.507024211902599,FALSE,
2002,9,30,2,2001,0.0381466025870144,FALSE,
2002,9,30,3,2001,0.162940757216221,FALSE,
2002,9,30,4,2001,-0.290555212796279,FALSE,1.45088365673969
2002,9,30,1,2002,0.35420023734298,FALSE,
2002,9,30,2,2002,0.339136029937408,FALSE,
2002,9,30,3,2002,,TRUE,
2002,9,30,4,2002,,TRUE,
2002,10,31,2,1991,0.151296462666381,FALSE,
2002,10,31,3,1991,0.0208942115811857,FALSE,
2002,10,31,4,1991,0.888532501329537,FALSE,
2002,10,31,1,1992,1.42826081858444,FALSE,
2002,10,31,2,1992,-0.665444396778078,FALSE,
2002,10,31,3,1992,-0.136991315891311,FALSE,
2002,10,31,4,1992,-0.18210334312029,FALSE,
2002,10,31,1,1993,-0.801928410214902,FALSE,
2002,10,31,2,1993,0.0593221800529884,FALSE,
2002,10,31,3,1993,0.412602970896327,FALSE,
2002,10,31,4,1993,0.391909358105646,FALSE,-0.821284719693594
2002,10,31,1,1994,0.832759863125643,FALSE,
2002,10,31,2,1994,0.542520705346739,FALSE,
2002,10,31,3,1994,0.72248508891643,FALSE,
2002,10,31,4,1994,0.849719557709468,FALSE,2.35831040036913
2002,10,31,1,1995,0.438861516693675,FALSE,
2002,10,31,2,1995,0.633941221963993,FALSE,
2002,10,31,3,1995,0.213122774632294,FALSE,
2002,10,31,4,1995,0.243266746550396,FALSE,2.23820384878159
2002,10,31,1,1996,0.12119906827634,FALSE,
2002,10,31,2,1996,0.694070731243499,FALSE,
2002,10,31,3,1996,0.549723536063107,FALSE,
2002,10,31,4,1996,0.189801677689536,FALSE,1.42231409601203
2002,10,31,1,1997,0.314691626403234,FALSE,
2002,10,31,2,1997,1.1043875671391,FALSE,
2002,10,31,3,1997,0.648299028879178,FALSE,
2002,10,31,4,1997,1.02893871979828,FALSE,2.34573474540634
2002,10,31,1,1998,0.815636511084015,FALSE,
2002,10,31,2,1998,0.389785477004906,FALSE,
2002,10,31,3,1998,0.561097415007836,FALSE,
2002,10,31,4,1998,0.297891371857693,FALSE,2.87147632602067
2002,10,31,1,1999,0.813279421654893,FALSE,
2002,10,31,2,1999,0.538011605368355,FALSE,
2002,10,31,3,1999,1.28241290641214,FALSE,
2002,10,31,4,1999,1.11034694682362,FALSE,2.78027361376754
2002,10,31,1,2000,0.816191766807364,FALSE,
2002,10,31,2,2000,0.84638546754112,FALSE,
2002,10,31,3,2000,0.39769037867481,FALSE,
2002,10,31,4,2000,0.650465965563754,FALSE,3.47580225870752
2002,10,31,1,2001,0.507024211902599,FALSE,
2002,10,31,2,2001,0.0381466025870144,FALSE,
2002,10,31,3,2001,0.162940757216221,FALSE,
2002,10,31,4,2001,-0.290555212796279,FALSE,1.45088365673969
2002,10,31,1,2002,0.35420023734298,FALSE,
2002,10,31,2,2002,0.339136029937408,FALSE,
2002,10,31,3,2002,,TRUE,
2002,10,31,4,2002,,TRUE,
2002,11,30,2,1991,0.147792247619512,FALSE,
2002,11,30,3,1991,0.0223185498102352,FALSE,
2002,11,30,4,1991,0.884979608712231,FALSE,
2002,11,30,1,1992,1.42650774318825,FALSE,
2002,11,30,2,1992,-0.66621800140725,FALSE,
2002,11,30,3,1992,-0.137319412361258,FALSE,
2002,11,30,4,1992,-0.176233621658821,FALSE,
2002,11,30,1,1993,-0.806803723664648,FALSE,
2002,11,30,2,1993,0.0616353192618202,FALSE,
2002,11,30,3,1993,0.413849864744023,FALSE,
2002,11,30,4,1993,0.390869137288592,FALSE,-0.820020954086542
2002,11,30,1,1994,0.83484857841543,FALSE,
2002,11,30,2,1994,0.541077166532439,FALSE,
2002,11,30,3,1994,0.716251111962316,FALSE,
2002,11,30,4,1994,0.851514324703241,FALSE,2.35701676292557
2002,11,30,1,1995,0.440087473739305,FALSE,
2002,11,30,2,1995,0.630799875798652,FALSE,
2002,11,30,3,1995,0.215981271528626,FALSE,
2002,11,30,4,1995,0.241519980245459,FALSE,2.23590236209292
2002,11,30,1,1996,0.128732185477261,FALSE,
2002,11,30,2,1996,0.687139786342496,FALSE,
2002,11,30,3,1996,0.550853548510495,FALSE,
2002,11,30,4,1996,0.183046539312056,FALSE,1.42284722191921
2002,11,30,1,1997,0.314670717877949,FALSE,
2002,11,30,2,1997,1.1074908015286,FALSE,
2002,11,30,3,1997,0.646142111911119,FALSE,
2002,11,30,4,1997,1.03527175562276,FALSE,2.342277938821
2002,11,30,1,1998,0.822912590390627,FALSE,
2002,11,30,2,1998,0.397313107189488,FALSE,
2002,11,30,3,1998,0.560632893079714,FALSE,
2002,11,30,4,1998,0.299149275717979,FALSE,2.88941942294467
2002,11,30,1,1999,0.823501464705309,FALSE,
2002,11,30,2,1999,0.534313461056976,FALSE,
2002,11,30,3,1999,1.2904489790611,FALSE,
2002,11,30,4,1999,1.11083283568527,FALSE,2.7948695686127
2002,11,30,1,2000,0.836225137599115,FALSE,
2002,11,30,2,2000,0.834590899269418,FALSE,
2002,11,30,3,2000,0.411012437742368,FALSE,
2002,11,30,4,2000,0.631037533884371,FALSE,3.49275567364593
2002,11,30,1,2001,0.508897876164439,FALSE,
2002,11,30,2,2001,0.00208596440659192,FALSE,
2002,11,30,3,2001,0.20595208207586,FALSE,
2002,11,30,4,2001,-0.277082039984925,FALSE,1.43959910859488
2002,11,30,1,2002,0.359293986514106,FALSE,
2002,11,30,2,2002,0.393692014781785,FALSE,
2002,11,30,3,2002,,TRUE,
2002,11,30,4,2002,,TRUE,
2002,12,31,2,1991,0.170274370699703,FALSE,
2002,12,31,3,1991,0.0186147352591539,FALSE,
2002,12,31,4,1991,0.885658487930331,FALSE,
2002,12,31,1,1992,1.4113328357463,FALSE,
2002,12,31,2,1992,-0.643312406076111,FALSE,
2002,12,31,3,1992,-0.142178276374458,FALSE,
2002,12,31,4,1992,-0.191532534256366,FALSE,
2002,12,31,1,1993,-0.793000004671132,FALSE,
2002,12,31,2,1993,0.0573961305256476,FALSE,
2002,12,31,3,1993,0.419823943235844,FALSE,
2002,12,31,4,1993,0.369174499512472,FALSE,-0.820018453731109
2002,12,31,1,1994,0.852752940250754,FALSE,
2002,12,31,2,1994,0.541036013336402,FALSE,
2002,12,31,3,1994,0.719098465070946,FALSE,
2002,12,31,4,1994,0.831852687509081,FALSE,2.35703137158907
2002,12,31,1,1995,0.454213684049387,FALSE,
2002,12,31,2,1995,0.628066666796856,FALSE,
2002,12,31,3,1995,0.22277608828038,FALSE,
2002,12,31,4,1995,0.217117183779049,FALSE,2.2318800458915
2002,12,31,1,1996,0.162529091071088,FALSE,
2002,12,31,2,1996,0.657731458725193,FALSE,
2002,12,31,3,1996,0.567476964853197,FALSE,
2002,12,31,4,1996,0.179319832213196,FALSE,1.42642500808481
2002,12,31,1,1997,0.321417441460797,FALSE,
2002,12,31,2,1997,1.09874601820927,FALSE,
2002,12,31,3,1997,0.658108382981829,FALSE,
2002,12,31,4,1997,1.02467380874,FALSE,2.34401350612259
2002,12,31,1,1998,0.822580748597096,FALSE,
2002,12,31,2,1998,0.385815369671193,FALSE,
2002,12,31,3,1998,0.570413506971403,FALSE,
2002,12,31,4,1998,0.309643308504143,FALSE,2.88370160984399
2002,12,31,1,1999,0.834780052952474,FALSE,
2002,12,31,2,1999,0.525515880998279,FALSE,
2002,12,31,3,1999,1.30935198796237,FALSE,
2002,12,31,4,1999,1.0783471000467,FALSE,2.8111303348868
2002,12,31,1,2000,0.85859687746874,FALSE,
2002,12,31,2,2000,0.815961693172388,FALSE,
2002,12,31,3,2000,0.390373553291357,FALSE,
2002,12,31,4,2000,0.62064347743069,FALSE,3.47030362858374
2002,12,31,1,2001,0.518843203416635,FALSE,
2002,12,31,2,2001,0.0155636518300787,FALSE,
2002,12,31,3,2001,0.163914291104051,FALSE,
2002,12,31,4,2001,-0.255337177832921,FALSE,1.42115330721257
2002,12,31,1,2002,0.411868175660498,FALSE,
2002,12,31,2,2002,0.288170987018748,FALSE,
2002,12,31,3,2002,0.32952596373018,FALSE,
2002,12,31,4,2002,,TRUE,
2003,1,31,2,1991,0.166252959413159,FALSE,
2003,1,31,3,1991,0.0225164722460781,FALSE,
2003,1,31,4,1991,0.89001965574827,FALSE,
2003,1,31,1,1992,1.41132369476219,FALSE,
2003,1,31,2,1992,-0.642594286962035,FALSE,
2003,1,31,3,1992,-0.147702044635782,FALSE,
2003,1,31,4,1992,-0.19947969493398,FALSE,
2003,1,31,1,1993,-0.779925613202784,FALSE,
2003,1,31,2,1993,0.0563882421720386,FALSE,
2003,1,31,3,1993,0.407537719142819,FALSE,
2003,1,31,4,1993,0.37872447797164,FALSE,-0.820020761860274
2003,1,31,1,1994,0.837009777996939,FALSE,
2003,1,31,2,1994,0.560871004624907,FALSE,
2003,1,31,3,1994,0.723583960630894,FALSE,
2003,1,31,4,1994,0.823031361895066,FALSE,2.35701675835731
2003,1,31,1,1995,0.498162515039679,FALSE,
2003,1,31,2,1995,0.574679015815127,FALSE,
2003,1,31,3,1995,0.222540731416446,FALSE,
2003,1,31,4,1995,0.200179548624898,FALSE,2.23188202487365
2003,1,31,1,1996,0.180539749528287,FALSE,
2003,1,31,2,1996,0.653954882554981,FALSE,
2003,1,31,3,1996,0.568924748474418,FALSE,
2003,1,31,4,1996,0.219608570984024,FALSE,1.42638695162765
2003,1,31,1,1997,0.282487173555231,FALSE,
2003,1,31,2,1997,1.10421022231694,FALSE,
2003,1,31,3,1997,0.663761411426565,FALSE,
2003,1,31,4,1997,1.03352595342296,FALSE,2.34424062360306
2003,1,31,1,1998,0.809773893840977,FALSE,
2003,1,31,2,1998,0.383563819014757,FALSE,
2003,1,31,3,1998,0.574437162492327,FALSE,
2003,1,31,4,1998,0.318356125572615,FALSE,2.88418623223512
2003,1,31,1,1999,0.833231343790095,FALSE,
2003,1,31,2,1999,0.533939665794361,FALSE,
2003,1,31,3,1999,1.29770309992752,FALSE,
2003,1,31,4,1999,1.07250380775996,FALSE,2.81667339814069
2003,1,31,1,2000,0.87538246534421,FALSE,
2003,1,31,2,2000,0.810264527814241,FALSE,
2003,1,31,3,2000,0.378264225907225,FALSE,
2003,1,31,4,2000,0.636475097846791,FALSE,3.47274480397508
2003,1,31,1,2001,0.513860157650676,FALSE,
2003,1,31,2,2001,0.000901014892963873,FALSE,
2003,1,31,3,2001,0.181635904649002,FALSE,
2003,1,31,4,2001,-0.245235591089121,FALSE,1.42096297064529
2003,1,31,1,2002,0.410954390123651,FALSE,
2003,1,31,2,2002,0.334049977148677,FALSE,
2003,1,31,3,2002,0.330523669915194,FALSE,
2003,1,31,4,2002,,TRUE,
2003,1,31,1,2003,,TRUE,
2003,1,31,2,2003,,TRUE,
2003,1,31,3,2003,,TRUE,
2003,1,31,4,2003,,TRUE,
2003,2,28,2,1991,0.166252959413159,FALSE,
2003,2,28,3,1991,0.0225164722460781,FALSE,
2003,2,28,4,1991,0.89001965574827,FALSE,
2003,2,28,1,1992,1.41132369476219,FALSE,
2003,2,28,2,1992,-0.642594286962035,FALSE,
2003,2,28,3,1992,-0.147702044635782,FALSE,
2003,2,28,4,1992,-0.19947969493398,FALSE,
2003,2,28,1,1993,-0.779925613202784,FALSE,
2003,2,28,2,1993,0.0563882421720386,FALSE,
2003,2,28,3,1993,0.407537719142819,FALSE,
2003,2,28,4,1993,0.37872447797164,FALSE,-0.820020761860274
2003,2,28,1,1994,0.837009777996939,FALSE,
2003,2,28,2,1994,0.560871004624907,FALSE,
2003,2,28,3,1994,0.723583960630894,FALSE,
2003,2,28,4,1994,0.823031361895066,FALSE,2.35701675835731
2003,2,28,1,1995,0.498162515039679,FALSE,
2003,2,28,2,1995,0.574679015815127,FALSE,
2003,2,28,3,1995,0.222540731416446,FALSE,
2003,2,28,4,1995,0.200179548624898,FALSE,2.23188202487365
2003,2,28,1,1996,0.180539749528287,FALSE,
2003,2,28,2,1996,0.653954882554981,FALSE,
2003,2,28,3,1996,0.568924748474418,FALSE,
2003,2,28,4,1996,0.219608570984024,FALSE,1.42638695162765
2003,2,28,1,1997,0.282487173555231,FALSE,
2003,2,28,2,1997,1.10421022231694,FALSE,
2003,2,28,3,1997,0.663761411426565,FALSE,
2003,2,28,4,1997,1.03352595342296,FALSE,2.34424062360306
2003,2,28,1,1998,0.809773893840977,FALSE,
2003,2,28,2,1998,0.383563819014757,FALSE,
2003,2,28,3,1998,0.574437162492327,FALSE,
2003,2,28,4,1998,0.318356125572615,FALSE,2.88418623223512
2003,2,28,1,1999,0.833231343790095,FALSE,
2003,2,28,2,1999,0.533939665794361,FALSE,
2003,2,28,3,1999,1.29770309992752,FALSE,
2003,2,28,4,1999,1.07250380775996,FALSE,2.81667339814069
2003,2,28,1,2000,0.87538246534421,FALSE,
2003,2,28,2,2000,0.810264527814241,FALSE,
2003,2,28,3,2000,0.378264225907225,FALSE,
2003,2,28,4,2000,0.636475097846791,FALSE,3.47274480397508
2003,2,28,1,2001,0.513860157650676,FALSE,
2003,2,28,2,2001,0.000901014892963873,FALSE,
2003,2,28,3,2001,0.181635904649002,FALSE,
2003,2,28,4,2001,-0.245235591089121,FALSE,1.42096297064529
2003,2,28,1,2002,0.410954390123651,FALSE,
2003,2,28,2,2002,0.334049977148677,FALSE,
2003,2,28,3,2002,0.330523669915194,FALSE,
2003,2,28,4,2002,,TRUE,
2003,2,28,1,2003,,TRUE,
2003,2,28,2,2003,,TRUE,
2003,2,28,3,2003,,TRUE,
2003,2,28,4,2003,,TRUE,
2003,3,31,2,1991,0.164807844078809,FALSE,
2003,3,31,3,1991,0.0267853265160556,FALSE,
2003,3,31,4,1991,0.88695556839844,FALSE,
2003,3,31,1,1992,1.41202575830096,FALSE,
2003,3,31,2,1992,-0.645846878340648,FALSE,
2003,3,31,3,1992,-0.142799547844793,FALSE,
2003,3,31,4,1992,-0.200233237886464,FALSE,
2003,3,31,1,1993,-0.777853440934128,FALSE,
2003,3,31,2,1993,0.0504115858927356,FALSE,
2003,3,31,3,1993,0.414240028343285,FALSE,
2003,3,31,4,1993,0.370681247635275,FALSE,-0.820021144736538
2003,3,31,1,1994,0.840086088643639,FALSE,
2003,3,31,2,1994,0.564697978745065,FALSE,
2003,3,31,3,1994,0.717564234274665,FALSE,
2003,3,31,4,1994,0.827960573665614,FALSE,2.35701695674118
2003,3,31,1,1995,0.499222321522623,FALSE,
2003,3,31,2,1995,0.575848372051328,FALSE,
2003,3,31,3,1995,0.222283709883513,FALSE,
2003,3,31,4,1995,0.209330935794357,FALSE,2.23775914880009
2003,3,31,1,1996,0.171629467908526,FALSE,
2003,3,31,2,1996,0.652055058552097,FALSE,
2003,3,31,3,1996,0.570841744318712,FALSE,
2003,3,31,4,1996,0.224736234460169,FALSE,1.42530242493177
2003,3,31,1,1997,0.278669242675357,FALSE,
2003,3,31,2,1997,1.10502178752619,FALSE,
2003,3,31,3,1997,0.664852608090285,FALSE,
2003,3,31,4,1997,1.03411267018261,FALSE,2.34609631177467
2003,3,31,1,1998,0.796322633698699,FALSE,
2003,3,31,2,1998,0.38555878082913,FALSE,
2003,3,31,3,1998,0.577421127669494,FALSE,
2003,3,31,4,1998,0.319359717679443,FALSE,2.87490494190681
2003,3,31,1,1999,0.825840622947968,FALSE,
2003,3,31,2,1999,0.536668427646582,FALSE,
2003,3,31,3,1999,1.30559128061758,FALSE,
2003,3,31,4,1999,1.05866008314247,FALSE,2.81447941824302
2003,3,31,1,2000,0.896376975964039,FALSE,
2003,3,31,2,2000,0.80705794135733,FALSE,
2003,3,31,3,2000,0.430285798566713,FALSE,
2003,3,31,4,2000,0.593565831349093,FALSE,3.50189252120019
2003,3,31,1,2001,0.547239267446027,FALSE,
2003,3,31,2,2001,-0.00934939265338258,FALSE,
2003,3,31,3,2001,0.143258819821287,FALSE,
2003,3,31,4,2001,-0.2267883697567,FALSE,1.42510948688599
2003,3,31,1,2002,0.388041919703621,FALSE,
2003,3,31,2,2002,0.325628584137085,FALSE,
2003,3,31,3,2002,0.389242073325958,FALSE,
2003,3,31,4,2002,0.169380716343649,FALSE,0.771952524034036
2003,3,31,1,2003,,TRUE,
2003,3,31,2,2003,,TRUE,
2003,3,31,3,2003,,TRUE,
2003,3,31,4,2003,,TRUE,
2003,4,30,2,1991,0.164807844078809,FALSE,
2003,4,30,3,1991,0.0267853265160556,FALSE,
2003,4,30,4,1991,0.88695556839844,FALSE,
2003,4,30,1,1992,1.41202575830096,FALSE,
2003,4,30,2,1992,-0.645846878340648,FALSE,
2003,4,30,3,1992,-0.142799547844793,FALSE,
2003,4,30,4,1992,-0.200233237886464,FALSE,
2003,4,30,1,1993,-0.777853440934128,FALSE,
2003,4,30,2,1993,0.0504115858927356,FALSE,
2003,4,30,3,1993,0.414240028343285,FALSE,
2003,4,30,4,1993,0.370681247635275,FALSE,-0.820021144736538
2003,4,30,1,1994,0.840086088643639,FALSE,
2003,4,30,2,1994,0.564697978745065,FALSE,
2003,4,30,3,1994,0.717564234274665,FALSE,
2003,4,30,4,1994,0.827960573665614,FALSE,2.35701695674118
2003,4,30,1,1995,0.499222321522623,FALSE,
2003,4,30,2,1995,0.575848372051328,FALSE,
2003,4,30,3,1995,0.222283709883513,FALSE,
2003,4,30,4,1995,0.209330935794357,FALSE,2.23775914880009
2003,4,30,1,1996,0.171629467908526,FALSE,
2003,4,30,2,1996,0.652055058552097,FALSE,
2003,4,30,3,1996,0.570841744318712,FALSE,
2003,4,30,4,1996,0.224736234460169,FALSE,1.42530242493177
2003,4,30,1,1997,0.278669242675357,FALSE,
2003,4,30,2,1997,1.10502178752619,FALSE,
2003,4,30,3,1997,0.664852608090285,FALSE,
2003,4,30,4,1997,1.03411267018261,FALSE,2.34609631177467
2003,4,30,1,1998,0.796322633698699,FALSE,
2003,4,30,2,1998,0.38555878082913,FALSE,
2003,4,30,3,1998,0.577421127669494,FALSE,
2003,4,30,4,1998,0.319359717679443,FALSE,2.87490494190681
2003,4,30,1,1999,0.825840622947968,FALSE,
2003,4,30,2,1999,0.536668427646582,FALSE,
2003,4,30,3,1999,1.30559128061758,FALSE,
2003,4,30,4,1999,1.05866008314247,FALSE,2.81447941824302
2003,4,30,1,2000,0.896376975964039,FALSE,
2003,4,30,2,2000,0.80705794135733,FALSE,
2003,4,30,3,2000,0.430285798566713,FALSE,
2003,4,30,4,2000,0.593565831349093,FALSE,3.50189252120019
2003,4,30,1,2001,0.547239267446027,FALSE,
2003,4,30,2,2001,-0.00934939265338258,FALSE,
2003,4,30,3,2001,0.143258819821287,FALSE,
2003,4,30,4,2001,-0.2267883697567,FALSE,1.42510948688599
2003,4,30,1,2002,0.388041919703621,FALSE,
2003,4,30,2,2002,0.325628584137085,FALSE,
2003,4,30,3,2002,0.389242073325958,FALSE,
2003,4,30,4,2002,0.169380716343649,FALSE,0.771952524034036
2003,4,30,1,2003,,TRUE,
2003,4,30,2,2003,,TRUE,
2003,4,30,3,2003,,TRUE,
2003,4,30,4,2003,,TRUE,
2003,5,31,2,1991,0.163122073788548,FALSE,
2003,5,31,3,1991,0.0189563911278415,FALSE,
2003,5,31,4,1991,0.892301512011557,FALSE,
2003,5,31,1,1992,1.41136309257719,FALSE,
2003,5,31,2,1992,-0.645292507442909,FALSE,
2003,5,31,3,1992,-0.14261374820138,FALSE,
2003,5,31,4,1992,-0.198310267506074,FALSE,
2003,5,31,1,1993,-0.776411402725928,FALSE,
2003,5,31,2,1993,0.0443595416189386,FALSE,
2003,5,31,3,1993,0.418499902999245,FALSE,
2003,5,31,4,1993,0.367850634656982,FALSE,-0.820021146312822
2003,5,31,1,1994,0.839004751801666,FALSE,
2003,5,31,2,1994,0.568792722949173,FALSE,
2003,5,31,3,1994,0.715031777057636,FALSE,
2003,5,31,4,1994,0.831044352241501,FALSE,2.35701715512504
2003,5,31,1,1995,0.497307939713327,FALSE,
2003,5,31,2,1995,0.576896756663693,FALSE,
2003,5,31,3,1995,0.219599479752603,FALSE,
2003,5,31,4,1995,0.211056065162143,FALSE,2.23778035628381
2003,5,31,1,1996,0.1728443210299,FALSE,
2003,5,31,2,1996,0.649181608997724,FALSE,
2003,5,31,3,1996,0.571697477018659,FALSE,
2003,5,31,4,1996,0.225853278370254,FALSE,1.42528157119075
2003,5,31,1,1997,0.276694299152984,FALSE,
2003,5,31,2,1997,1.11171297584129,FALSE,
2003,5,31,3,1997,0.657448166388181,FALSE,
2003,5,31,4,1997,1.0345760283103,FALSE,2.34609594227988
2003,5,31,1,1998,0.802592079985737,FALSE,
2003,5,31,2,1998,0.388809678110722,FALSE,
2003,5,31,3,1998,0.56089716649981,FALSE,
2003,5,31,4,1998,0.324379117548728,FALSE,2.87490530387509
2003,5,31,1,1999,0.836770902846864,FALSE,
2003,5,31,2,1999,0.54247227714938,FALSE,
2003,5,31,3,1999,1.28248670654159,FALSE,
2003,5,31,4,1999,1.06154430654119,FALSE,2.81520089633578
2003,5,31,1,2000,0.920127644883831,FALSE,
2003,5,31,2,2000,0.815113171590116,FALSE,
2003,5,31,3,2000,0.379530509450931,FALSE,
2003,5,31,4,2000,0.603498765088868,FALSE,3.50080556594394
2003,5,31,1,2001,0.548642860623885,FALSE,
2003,5,31,2,2001,-0.00438145849513235,FALSE,
2003,5,31,3,2001,0.145487095963142,FALSE,
2003,5,31,4,2001,-0.187659850150272,FALSE,1.42531638134888
2003,5,31,1,2002,0.416789068075467,FALSE,
2003,5,31,2,2002,0.369121884882072,FALSE,
2003,5,31,3,2002,0.330302399571495,FALSE,
2003,5,31,4,2002,0.136405330011682,FALSE,0.827689315624269
2003,5,31,1,2003,,TRUE,
2003,5,31,2,2003,,TRUE,
2003,5,31,3,2003,,TRUE,
2003,5,31,4,2003,,TRUE,
2003,6,30,2,1991,0.165657118770103,FALSE,
2003,6,30,3,1991,0.0132622455475699,FALSE,
2003,6,30,4,1991,0.892872668246504,FALSE,
2003,6,30,1,1992,1.42762909389194,FALSE,
2003,6,30,2,1992,-0.667476304154214,FALSE,
2003,6,30,3,1992,-0.132405748426777,FALSE,
2003,6,30,4,1992,-0.210179562735826,FALSE,
2003,6,30,1,1993,-0.759615782980599,FALSE,
2003,6,30,2,1993,0.0201626513400472,FALSE,
2003,6,30,3,1993,0.451027130520303,FALSE,
2003,6,30,4,1993,0.345610647251763,FALSE,-0.820040573065106
2003,6,30,1,1994,0.831625286551807,FALSE,
2003,6,30,2,1994,0.591910963947736,FALSE,
2003,6,30,3,1994,0.697999223153438,FALSE,
2003,6,30,4,1994,0.850906503287899,FALSE,2.35700960898941
2003,6,30,1,1995,0.48943426370024,FALSE,
2003,6,30,2,1995,0.569759866202746,FALSE,
2003,6,30,3,1995,0.231773515630342,FALSE,
2003,6,30,4,1995,0.192134099910019,FALSE,2.23801081035766
2003,6,30,1,1996,0.206859496548028,FALSE,
2003,6,30,2,1996,0.611578921095853,FALSE,
2003,6,30,3,1996,0.571511036142726,FALSE,
2003,6,30,4,1996,0.238815465334982,FALSE,1.42429364903007
2003,6,30,1,1997,0.260496939226959,FALSE,
2003,6,30,2,1997,1.149620759516,FALSE,
2003,6,30,3,1997,0.635032680276247,FALSE,
2003,6,30,4,1997,1.03532073189963,FALSE,2.34766945936915
2003,6,30,1,1998,0.806480004581357,FALSE,
2003,6,30,2,1998,0.394451968525738,FALSE,
2003,6,30,3,1998,0.553566684565467,FALSE,
2003,6,30,4,1998,0.304591616398695,FALSE,2.8731118851731
2003,6,30,1,1999,0.865253537848833,FALSE,
2003,6,30,2,1999,0.540724683173675,FALSE,
2003,6,30,3,1999,1.279341302962,FALSE,
2003,6,30,4,1999,1.05811126219537,FALSE,2.82306439318787
2003,6,30,1,2000,0.945676404220522,FALSE,
2003,6,30,2,2000,0.78826296839136,FALSE,
2003,6,30,3,2000,0.372086124266518,FALSE,
2003,6,30,4,2000,0.62517091608055,FALSE,3.50341484560892
2003,6,30,1,2001,0.590402279527745,FALSE,
2003,6,30,2,2001,-0.00130821243336613,FALSE,
2003,6,30,3,2001,0.156337361650208,FALSE,
2003,6,30,4,2001,-0.179127163243263,FALSE,1.48363208081264
2003,6,30,1,2002,0.419526170015338,FALSE,
2003,6,30,2,2002,0.388761745390477,FALSE,
2003,6,30,3,2002,0.321537121936761,FALSE,
2003,6,30,4,2002,0.0671333710011326,FALSE,0.836070260553123
2003,6,30,1,2003,0.00953600485344966,FALSE,
2003,6,30,2,2003,,TRUE,
2003,6,30,3,2003,,TRUE,
2003,6,30,4,2003,,TRUE,
2003,7,31,2,1991,0.165657118770103,FALSE,
2003,7,31,3,1991,0.0132622455475699,FALSE,
2003,7,31,4,1991,0.892872668246504,FALSE,
2003,7,31,1,1992,1.42762909389194,FALSE,
2003,7,31,2,1992,-0.667476304154214,FALSE,
2003,7,31,3,1992,-0.132405748426777,FALSE,
2003,7,31,4,1992,-0.210179562735826,FALSE,
2003,7,31,1,1993,-0.759615782980599,FALSE,
2003,7,31,2,1993,0.0201626513400472,FALSE,
2003,7,31,3,1993,0.451027130520303,FALSE,
2003,7,31,4,1993,0.345610647251763,FALSE,-0.820040573065106
2003,7,31,1,1994,0.831625286551807,FALSE,
2003,7,31,2,1994,0.591910963947736,FALSE,
2003,7,31,3,1994,0.697999223153438,FALSE,
2003,7,31,4,1994,0.850906503287899,FALSE,2.35700960898941
2003,7,31,1,1995,0.48943426370024,FALSE,
2003,7,31,2,1995,0.569759866202746,FALSE,
2003,7,31,3,1995,0.231773515630342,FALSE,
2003,7,31,4,1995,0.192134099910019,FALSE,2.23801081035766
2003,7,31,1,1996,0.206859496548028,FALSE,
2003,7,31,2,1996,0.611578921095853,FALSE,
2003,7,31,3,1996,0.571511036142726,FALSE,
2003,7,31,4,1996,0.238815465334982,FALSE,1.42429364903007
2003,7,31,1,1997,0.260496939226959,FALSE,
2003,7,31,2,1997,1.149620759516,FALSE,
2003,7,31,3,1997,0.635032680276247,FALSE,
2003,7,31,4,1997,1.03532073189963,FALSE,2.34766945936915
2003,7,31,1,1998,0.806480004581357,FALSE,
2003,7,31,2,1998,0.394451968525738,FALSE,
2003,7,31,3,1998,0.553566684565467,FALSE,
2003,7,31,4,1998,0.304591616398695,FALSE,2.8731118851731
2003,7,31,1,1999,0.865253537848833,FALSE,
2003,7,31,2,1999,0.540724683173675,FALSE,
2003,7,31,3,1999,1.279341302962,FALSE,
2003,7,31,4,1999,1.05811126219537,FALSE,2.82306439318787
2003,7,31,1,2000,0.945676404220522,FALSE,
2003,7,31,2,2000,0.78826296839136,FALSE,
2003,7,31,3,2000,0.372086124266518,FALSE,
2003,7,31,4,2000,0.62517091608055,FALSE,3.50341484560892
2003,7,31,1,2001,0.590402279527745,FALSE,
2003,7,31,2,2001,-0.00130821243336613,FALSE,
2003,7,31,3,2001,0.156337361650208,FALSE,
2003,7,31,4,2001,-0.179127163243263,FALSE,1.48363208081264
2003,7,31,1,2002,0.419526170015338,FALSE,
2003,7,31,2,2002,0.388761745390477,FALSE,
2003,7,31,3,2002,0.321537121936761,FALSE,
2003,7,31,4,2002,0.0671333710011326,FALSE,0.836070260553123
2003,7,31,1,2003,0.00953600485344966,FALSE,
2003,7,31,2,2003,,TRUE,
2003,7,31,3,2003,,TRUE,
2003,7,31,4,2003,,TRUE,
2003,8,31,2,1991,0.183690470580733,FALSE,
2003,8,31,3,1991,-0.00831000487327585,FALSE,
2003,8,31,4,1991,0.891334198172288,FALSE,
2003,8,31,1,1992,1.48495339284313,FALSE,
2003,8,31,2,1992,-0.682281321270005,FALSE,
2003,8,31,3,1992,-0.192767944822543,FALSE,
2003,8,31,4,1992,-0.245286833487633,FALSE,
2003,8,31,1,1993,-0.656963490076147,FALSE,
2003,8,31,2,1993,0.0190682019893714,FALSE,
2003,8,31,3,1993,0.391112558029618,FALSE,
2003,8,31,4,1993,0.300145948532034,FALSE,-0.820040573065106
2003,8,31,1,1994,0.904581393133574,FALSE,
2003,8,31,2,1994,0.597291396847583,FALSE,
2003,8,31,3,1994,0.707926840843086,FALSE,
2003,8,31,4,1994,0.780428811455819,FALSE,2.35700960898941
2003,8,31,1,1995,0.570423931508042,FALSE,
2003,8,31,2,1995,0.534944759954606,FALSE,
2003,8,31,3,1995,0.229829708039615,FALSE,
2003,8,31,4,1995,0.162438693839023,FALSE,2.23801062100464
2003,8,31,1,1996,0.297356054701178,FALSE,
2003,8,31,2,1996,0.581807499479653,FALSE,
2003,8,31,3,1996,0.546378223261635,FALSE,
2003,8,31,4,1996,0.144882157496631,FALSE,1.42429420729213
2003,8,31,1,1997,0.261486139869806,FALSE,
2003,8,31,2,1997,1.24364053140774,FALSE,
2003,8,31,3,1997,0.686700400777371,FALSE,
2003,8,31,4,1997,1.00491866313452,FALSE,2.34766890297355
2003,8,31,1,1998,0.759935680209229,FALSE,
2003,8,31,2,1998,0.418212092572924,FALSE,
2003,8,31,3,1998,0.568988558041522,FALSE,
2003,8,31,4,1998,0.28420024009547,FALSE,2.87311206871776
2003,8,31,1,1999,0.840690081337925,FALSE,
2003,8,31,2,1999,0.580585079954413,FALSE,
2003,8,31,3,1999,1.29083731598656,FALSE,
2003,8,31,4,1999,1.02036176976662,FALSE,2.82306439318787
2003,8,31,1,2000,0.948207194731447,FALSE,
2003,8,31,2,2000,0.818606816497593,FALSE,
2003,8,31,3,2000,0.36736084955109,FALSE,
2003,8,31,4,2000,0.584148484164365,FALSE,3.50341484560892
2003,8,31,1,2001,0.628276330351241,FALSE,
2003,8,31,2,2001,-0.0314834153830418,FALSE,
2003,8,31,3,2001,0.162701981359687,FALSE,
2003,8,31,4,2001,-0.150747307200392,FALSE,1.48363208081264
2003,8,31,1,2002,0.397601866469219,FALSE,
2003,8,31,2,2002,0.394880378503454,FALSE,
2003,8,31,3,2002,0.319777083168517,FALSE,
2003,8,31,4,2002,0.0722483474069932,FALSE,0.836070099971131
2003,8,31,1,2003,0.0592478367270515,FALSE,
2003,8,31,2,2003,,TRUE,
2003,8,31,3,2003,,TRUE,
2003,8,31,4,2003,,TRUE,
2003,9,30,2,1991,0.177874449586368,FALSE,
2003,9,30,3,1991,-0.0132531742079802,FALSE,
2003,9,30,4,1991,0.894335086168097,FALSE,
2003,9,30,1,1992,1.48227145946078,FALSE,
2003,9,30,2,1992,-0.689222280888125,FALSE,
2003,9,30,3,1992,-0.193041526788609,FALSE,
2003,9,30,4,1992,-0.247743609877934,FALSE,
2003,9,30,1,1993,-0.654844196258659,FALSE,
2003,9,30,2,1993,0.0164146347194526,FALSE,
2003,9,30,3,1993,0.392212151873022,FALSE,
2003,9,30,4,1993,0.30533789252899,FALSE,-0.821773682235538
2003,9,30,1,1994,0.910456283692358,FALSE,
2003,9,30,2,1994,0.601544782463439,FALSE,
2003,9,30,3,1994,0.693964192206954,FALSE,
2003,9,30,4,1994,0.75681616959741,FALSE,2.35686024333317
2003,9,30,1,1995,0.585188529588771,FALSE,
2003,9,30,2,1995,0.529703716047048,FALSE,
2003,9,30,3,1995,0.231844668582561,FALSE,
2003,9,30,4,1995,0.161108973278975,FALSE,2.22571967074248
2003,9,30,1,1996,0.299905496176149,FALSE,
2003,9,30,2,1996,0.578892926772833,FALSE,
2003,9,30,3,1996,0.545801795850051,FALSE,
2003,9,30,4,1996,0.146252560108069,FALSE,1.42340014755902
2003,9,30,1,1997,0.260811694838905,FALSE,
2003,9,30,2,1997,1.24209229541919,FALSE,
2003,9,30,3,1997,0.684312355793932,FALSE,
2003,9,30,4,1997,1.00751962762326,FALSE,2.34524222316648
2003,9,30,1,1998,0.762371671004207,FALSE,
2003,9,30,2,1998,0.418238077698641,FALSE,
2003,9,30,3,1998,0.567424710134048,FALSE,
2003,9,30,4,1998,0.286957394326063,FALSE,2.87593144344176
2003,9,30,1,1999,0.840226358525268,FALSE,
2003,9,30,2,1999,0.580305320562468,FALSE,
2003,9,30,3,1999,1.28890191501583,FALSE,
2003,9,30,4,1999,1.01932259772192,FALSE,2.82242246380193
2003,9,30,1,2000,0.947239886770017,FALSE,
2003,9,30,2,2000,0.814496694770609,FALSE,
2003,9,30,3,2000,0.363358549546909,FALSE,
2003,9,30,4,2000,0.583513118542118,FALSE,3.49510031374434
2003,9,30,1,2001,0.644399667566925,FALSE,
2003,9,30,2,2001,-0.0328138054861522,FALSE,
2003,9,30,3,2001,0.161539422462597,FALSE,
2003,9,30,4,2001,-0.150801416664983,FALSE,1.49484347883702
2003,9,30,1,2002,0.40836712628003,FALSE,
2003,9,30,2,2002,0.397920528391194,FALSE,
2003,9,30,3,2002,0.319046349642078,FALSE,
2003,9,30,4,2002,0.0693434173024002,FALSE,0.847162582940464
2003,9,30,1,2003,0.0610179156295251,FALSE,
2003,9,30,2,2003,-0.0453620562112216,FALSE,
2003,9,30,3,2003,,TRUE,
2003,9,30,4,2003,,TRUE,
2003,10,31,2,1991,0.250268715123262,FALSE,
2003,10,31,3,1991,-0.0419963203446965,FALSE,
2003,10,31,4,1991,0.948039560278789,FALSE,
2003,10,31,1,1992,1.49752887146127,FALSE,
2003,10,31,2,1992,-0.741289535451032,FALSE,
2003,10,31,3,1992,-0.238799015023779,FALSE,
2003,10,31,4,1992,-0.237202899347964,FALSE,
2003,10,31,1,1993,-0.634700807204371,FALSE,
2003,10,31,2,1993,0.0207089779966431,FALSE,
2003,10,31,3,1993,0.392950592966701,FALSE,
2003,10,31,4,1993,0.322907879766655,FALSE,-0.821773682235538
2003,10,31,1,1994,0.910014274909379,FALSE,
2003,10,31,2,1994,0.586597619350512,FALSE,
2003,10,31,3,1994,0.659135406026733,FALSE,
2003,10,31,4,1994,0.81469320332107,FALSE,2.35686024333315
2003,10,31,1,1995,0.512393695489658,FALSE,
2003,10,31,2,1995,0.580660435749885,FALSE,
2003,10,31,3,1995,0.224109665940151,FALSE,
2003,10,31,4,1995,0.225359817060123,FALSE,2.22571948141264
2003,10,31,1,1996,0.205707897809659,FALSE,
2003,10,31,2,1996,0.641440014701307,FALSE,
2003,10,31,3,1996,0.521471044172234,FALSE,
2003,10,31,4,1996,0.156023384039461,FALSE,1.42340052061058
2003,10,31,1,1997,0.256431535836065,FALSE,
2003,10,31,2,1997,1.24889753504898,FALSE,
2003,10,31,3,1997,0.665809440511265,FALSE,
2003,10,31,4,1997,0.999084505236216,FALSE,2.34524185366707
2003,10,31,1,1998,0.791622903826402,FALSE,
2003,10,31,2,1998,0.417801517950428,FALSE,
2003,10,31,3,1998,0.53925293109499,FALSE,
2003,10,31,4,1998,0.283045946195302,FALSE,2.87593180542096
2003,10,31,1,1999,0.858374522404963,FALSE,
2003,10,31,2,1999,0.603276483705115,FALSE,
2003,10,31,3,1999,1.24535148238775,FALSE,
2003,10,31,4,1999,1.03352758788815,FALSE,2.82242228547081
2003,10,31,1,2000,0.945343654900363,FALSE,
2003,10,31,2,2000,0.84514235141853,FALSE,
2003,10,31,3,2000,0.32569222380299,FALSE,
2003,10,31,4,2000,0.595639396258001,FALSE,3.49510014506902
2003,10,31,1,2001,0.675110157725108,FALSE,
2003,10,31,2,2001,0.0280694187312935,FALSE,
2003,10,31,3,2001,0.169686421529293,FALSE,
2003,10,31,4,2001,-0.1024394644487,FALSE,1.58670758824504
2003,10,31,1,2002,0.344121786311688,FALSE,
2003,10,31,2,2002,0.473584344067712,FALSE,
2003,10,31,3,2002,0.226117851838906,FALSE,
2003,10,31,4,2002,0.0600715121872434,FALSE,0.846396501452817
2003,10,31,1,2003,0.0246623330789048,FALSE,
2003,10,31,2,2003,-0.0781163581291971,FALSE,
2003,10,31,3,2003,,TRUE,
2003,10,31,4,2003,,TRUE,
2003,11,30,2,1991,0.305803714121143,FALSE,
2003,11,30,3,1991,-0.0485537279292955,FALSE,
2003,11,30,4,1991,0.965679398858446,FALSE,
2003,11,30,1,1992,1.4686200515684,FALSE,
2003,11,30,2,1992,-0.750454319998641,FALSE,
2003,11,30,3,1992,-0.240941451997886,FALSE,
2003,11,30,4,1992,-0.234076306896499,FALSE,
2003,11,30,1,1993,-0.628886514659095,FALSE,
2003,11,30,2,1993,0.017767669193411,FALSE,
2003,11,30,3,1993,0.376621108923523,FALSE,
2003,11,30,4,1993,0.290087204626274,FALSE,-0.835514560166284
2003,11,30,1,1994,0.955609040087466,FALSE,
2003,11,30,2,1994,0.597160170770053,FALSE,
2003,11,30,3,1994,0.654298245350688,FALSE,
2003,11,30,4,1994,0.807499430579765,FALSE,2.37306801356627
2003,11,30,1,1995,0.539123737857562,FALSE,
2003,11,30,2,1995,0.567911717825979,FALSE,
2003,11,30,3,1995,0.203792540339155,FALSE,
2003,11,30,4,1995,0.228894662252886,FALSE,2.22846353807555
2003,11,30,1,1996,0.156425097550323,FALSE,
2003,11,30,2,1996,0.711066742194726,FALSE,
2003,11,30,3,1996,0.532561436338484,FALSE,
2003,11,30,4,1996,0.163892842540412,FALSE,1.42337966994104
2003,11,30,1,1997,0.242398324601035,FALSE,
2003,11,30,2,1997,1.22346820023169,FALSE,
2003,11,30,3,1997,0.678658220560919,FALSE,
2003,11,30,4,1997,0.997810460390578,FALSE,2.34691418151103
2003,11,30,1,1998,0.812518717651921,FALSE,
2003,11,30,2,1998,0.396387204105028,FALSE,
2003,11,30,3,1998,0.534726608660971,FALSE,
2003,11,30,4,1998,0.268463702357283,FALSE,2.8738900662248
2003,11,30,1,1999,0.903115734140671,FALSE,
2003,11,30,2,1999,0.564686156674964,FALSE,
2003,11,30,3,1999,1.22984713750595,FALSE,
2003,11,30,4,1999,1.04946200902851,FALSE,2.81563346687352
2003,11,30,1,2000,0.96396858955851,FALSE,
2003,11,30,2,2000,0.85164792062849,FALSE,
2003,11,30,3,2000,0.311303924274521,FALSE,
2003,11,30,4,2000,0.600879331688535,FALSE,3.50783513080253
2003,11,30,1,2001,0.671062117804453,FALSE,
2003,11,30,2,2001,0.0308181782401208,FALSE,
2003,11,30,3,2001,0.183524912668007,FALSE,
2003,11,30,4,2001,-0.0931736025334172,FALSE,1.59242589889643
2003,11,30,1,2002,0.363276844598652,FALSE,
2003,11,30,2,2002,0.462316101062123,FALSE,
2003,11,30,3,2002,0.22672983568764,FALSE,
2003,11,30,4,2002,0.0384139269000941,FALSE,0.866686970067288
2003,11,30,1,2003,-0.00622859179551213,FALSE,
2003,11,30,2,2003,-0.0560957430017787,FALSE,
2003,11,30,3,2003,,TRUE,
2003,11,30,4,2003,,TRUE,
2003,12,31,2,1991,0.304296824275645,FALSE,
2003,12,31,3,1991,-0.0436635447353827,FALSE,
2003,12,31,4,1991,0.965401236327974,FALSE,
2003,12,31,1,1992,1.46409217923766,FALSE,
2003,12,31,2,1992,-0.74817727637558,FALSE,
2003,12,31,3,1992,-0.23913754097597,FALSE,
2003,12,31,4,1992,-0.232235279992441,FALSE,
2003,12,31,1,1993,-0.631235402255938,FALSE,
2003,12,31,2,1993,0.0171318607037674,FALSE,
2003,12,31,3,1993,0.377856962576032,FALSE,
2003,12,31,4,1993,0.290140011505921,FALSE,-0.83485176839192
2003,12,31,1,1994,0.960343003352507,FALSE,
2003,12,31,2,1994,0.593855626478947,FALSE,
2003,12,31,3,1994,0.652129459441187,FALSE,
2003,12,31,4,1994,0.800639226509138,FALSE,2.37298561699055
2003,12,31,1,1995,0.544640084351921,FALSE,
2003,12,31,2,1995,0.570339297878455,FALSE,
2003,12,31,3,1995,0.20119462274094,FALSE,
2003,12,31,4,1995,0.233197644392165,FALSE,2.22856185946776
2003,12,31,1,1996,0.155702961718152,FALSE,
2003,12,31,2,1996,0.708281963112284,FALSE,
2003,12,31,3,1996,0.533000215705437,FALSE,
2003,12,31,4,1996,0.159418770936641,FALSE,1.42217285443054
2003,12,31,1,1997,0.245635567153638,FALSE,
2003,12,31,2,1997,1.21440566694895,FALSE,
2003,12,31,3,1997,0.68146378068623,FALSE,
2003,12,31,4,1997,1.00120974576658,FALSE,2.34165589171387
2003,12,31,1,1998,0.807006186730505,FALSE,
2003,12,31,2,1998,0.397875967005634,FALSE,
2003,12,31,3,1998,0.539245459774779,FALSE,
2003,12,31,4,1998,0.270975483640793,FALSE,2.8740992188087
2003,12,31,1,1999,0.906638694077919,FALSE,
2003,12,31,2,1999,0.554838148593044,FALSE,
2003,12,31,3,1999,1.2342244776738,FALSE,
2003,12,31,4,1999,1.04902154142295,FALSE,2.81841351440335
2003,12,31,1,2000,0.959793792345843,FALSE,
2003,12,31,2,2000,0.856719055096939,FALSE,
2003,12,31,3,2000,0.320988572793836,FALSE,
2003,12,31,4,2000,0.61279432135685,FALSE,3.51499736325549
2003,12,31,1,2001,0.673298322957397,FALSE,
2003,12,31,2,2001,0.0315448650408591,FALSE,
2003,12,31,3,2001,0.181044989172366,FALSE,
2003,12,31,4,2001,-0.121444825083896,FALSE,1.6020326796867
2003,12,31,1,2002,0.379504858778697,FALSE,
2003,12,31,2,2002,0.476961111480994,FALSE,
2003,12,31,3,2002,0.234789232598828,FALSE,
2003,12,31,4,2002,0.01779241152602,FALSE,0.87056067773057
2003,12,31,1,2003,-0.0177968535203865,FALSE,
2003,12,31,2,2003,-0.104529053281781,FALSE,
2003,12,31,3,2003,0.382599290192412,FALSE,
2003,12,31,4,2003,,TRUE,
2004,1,31,2,1991,0.304312045259161,FALSE,
2004,1,31,3,1991,-0.0441112001519666,FALSE,
2004,1,31,4,1991,0.962647374118496,FALSE,
2004,1,31,1,1992,1.4701391843019,FALSE,
2004,1,31,2,1992,-0.749369218144869,FALSE,
2004,1,31,3,1992,-0.240159547352661,FALSE,
2004,1,31,4,1992,-0.241749049129452,FALSE,
2004,1,31,1,1993,-0.624538052891251,FALSE,
2004,1,31,2,1993,0.018925341434923,FALSE,
2004,1,31,3,1993,0.381436384863761,FALSE,
2004,1,31,4,1993,0.282656937701469,FALSE,-0.834851960601723
2004,1,31,1,1994,0.967764293151715,FALSE,
2004,1,31,2,1994,0.588135328808947,FALSE,
2004,1,31,3,1994,0.65531026883025,FALSE,
2004,1,31,4,1994,0.795313349363872,FALSE,2.37298562159005
2004,1,31,1,1995,0.545642269803961,FALSE,
2004,1,31,2,1995,0.56839317851446,FALSE,
2004,1,31,3,1995,0.208074671922071,FALSE,
2004,1,31,4,1995,0.236407680211465,FALSE,2.22854084749222
2004,1,31,1,1996,0.140975689293893,FALSE,
2004,1,31,2,1996,0.716176874483345,FALSE,
2004,1,31,3,1996,0.537309218100708,FALSE,
2004,1,31,4,1996,0.16457039250701,FALSE,1.42219389269362
2004,1,31,1,1997,0.233884060482434,FALSE,
2004,1,31,2,1997,1.21518162730404,FALSE,
2004,1,31,3,1997,0.686375011385331,FALSE,
2004,1,31,4,1997,1.00409499390297,FALSE,2.34165589171387
2004,1,31,1,1998,0.803799349678411,FALSE,
2004,1,31,2,1998,0.396093560935063,FALSE,
2004,1,31,3,1998,0.539873972523509,FALSE,
2004,1,31,4,1998,0.268797211994513,FALSE,2.87409921880872
2004,1,31,1,1999,0.895313315966464,FALSE,
2004,1,31,2,1999,0.568585478139651,FALSE,
2004,1,31,3,1999,1.23631204763429,FALSE,
2004,1,31,4,1999,1.05550107153173,FALSE,2.8183814266588
2004,1,31,1,2000,0.944920235061413,FALSE,
2004,1,31,2,2000,0.863421772106892,FALSE,
2004,1,31,3,2000,0.32090257930171,FALSE,
2004,1,31,4,2000,0.615234521813449,FALSE,3.51499862891505
2004,1,31,1,2001,0.672123500147875,FALSE,
2004,1,31,2,2001,0.0229352488431177,FALSE,
2004,1,31,3,2001,0.193455139286209,FALSE,
2004,1,31,4,2001,-0.129517438545734,FALSE,1.60203185634691
2004,1,31,1,2002,0.380234765748918,FALSE,
2004,1,31,2,2002,0.490027540598174,FALSE,
2004,1,31,3,2002,0.221912914117937,FALSE,
2004,1,31,4,2002,0.00952075034739692,FALSE,0.870575541778917
2004,1,31,1,2003,-0.0165178486930455,FALSE,
2004,1,31,2,2003,-0.103128478761243,FALSE,
2004,1,31,3,2003,0.383083718856143,FALSE,
2004,1,31,4,2003,,TRUE,
2004,1,31,1,2004,,TRUE,
2004,1,31,2,2004,,TRUE,
2004,1,31,3,2004,,TRUE,
2004,1,31,4,2004,,TRUE,
2004,2,28,2,1991,0.304312045259161,FALSE,
2004,2,28,3,1991,-0.0441112001519666,FALSE,
2004,2,28,4,1991,0.962647374118496,FALSE,
2004,2,28,1,1992,1.4701391843019,FALSE,
2004,2,28,2,1992,-0.749369218144869,FALSE,
2004,2,28,3,1992,-0.240159547352661,FALSE,
2004,2,28,4,1992,-0.241749049129452,FALSE,
2004,2,28,1,1993,-0.624538052891251,FALSE,
2004,2,28,2,1993,0.018925341434923,FALSE,
2004,2,28,3,1993,0.381436384863761,FALSE,
2004,2,28,4,1993,0.282656937701469,FALSE,-0.834851960601723
2004,2,28,1,1994,0.967764293151715,FALSE,
2004,2,28,2,1994,0.588135328808947,FALSE,
2004,2,28,3,1994,0.65531026883025,FALSE,
2004,2,28,4,1994,0.795313349363872,FALSE,2.37298562159005
2004,2,28,1,1995,0.545642269803961,FALSE,
2004,2,28,2,1995,0.56839317851446,FALSE,
2004,2,28,3,1995,0.208074671922071,FALSE,
2004,2,28,4,1995,0.236407680211465,FALSE,2.22854084749222
2004,2,28,1,1996,0.140975689293893,FALSE,
2004,2,28,2,1996,0.716176874483345,FALSE,
2004,2,28,3,1996,0.537309218100708,FALSE,
2004,2,28,4,1996,0.16457039250701,FALSE,1.42219389269362
2004,2,28,1,1997,0.233884060482434,FALSE,
2004,2,28,2,1997,1.21518162730404,FALSE,
2004,2,28,3,1997,0.686375011385331,FALSE,
2004,2,28,4,1997,1.00409499390297,FALSE,2.34165589171387
2004,2,28,1,1998,0.803799349678411,FALSE,
2004,2,28,2,1998,0.396093560935063,FALSE,
2004,2,28,3,1998,0.539873972523509,FALSE,
2004,2,28,4,1998,0.268797211994513,FALSE,2.87409921880872
2004,2,28,1,1999,0.895313315966464,FALSE,
2004,2,28,2,1999,0.568585478139651,FALSE,
2004,2,28,3,1999,1.23631204763429,FALSE,
2004,2,28,4,1999,1.05550107153173,FALSE,2.8183814266588
2004,2,28,1,2000,0.944920235061413,FALSE,
2004,2,28,2,2000,0.863421772106892,FALSE,
2004,2,28,3,2000,0.32090257930171,FALSE,
2004,2,28,4,2000,0.615234521813449,FALSE,3.51499862891505
2004,2,28,1,2001,0.672123500147875,FALSE,
2004,2,28,2,2001,0.0229352488431177,FALSE,
2004,2,28,3,2001,0.193455139286209,FALSE,
2004,2,28,4,2001,-0.129517438545734,FALSE,1.60203185634691
2004,2,28,1,2002,0.380234765748918,FALSE,
2004,2,28,2,2002,0.490027540598174,FALSE,
2004,2,28,3,2002,0.221912914117937,FALSE,
2004,2,28,4,2002,0.00952075034739692,FALSE,0.870575541778917
2004,2,28,1,2003,-0.0165178486930455,FALSE,
2004,2,28,2,2003,-0.103128478761243,FALSE,
2004,2,28,3,2003,0.383083718856143,FALSE,
2004,2,28,4,2003,,TRUE,
2004,2,28,1,2004,,TRUE,
2004,2,28,2,2004,,TRUE,
2004,2,28,3,2004,,TRUE,
2004,2,28,4,2004,,TRUE,
2004,3,31,2,1991,0.303891594385691,FALSE,
2004,3,31,3,1991,-0.044085134798456,FALSE,
2004,3,31,4,1991,0.959831685870058,FALSE,
2004,3,31,1,1992,1.47017507704839,FALSE,
2004,3,31,2,1992,-0.745647846968576,FALSE,
2004,3,31,3,1992,-0.241025963506363,FALSE,
2004,3,31,4,1992,-0.242514575579755,FALSE,
2004,3,31,1,1993,-0.624836273661437,FALSE,
2004,3,31,2,1993,0.0192806418188752,FALSE,
2004,3,31,3,1993,0.380783666286723,FALSE,
2004,3,31,4,1993,0.284376110123888,FALSE,-0.83485176839192
2004,3,31,1,1994,0.965628233561166,FALSE,
2004,3,31,2,1994,0.588316549539911,FALSE,
2004,3,31,3,1994,0.657938479767306,FALSE,
2004,3,31,4,1994,0.793833338749024,FALSE,2.37298561699055
2004,3,31,1,1995,0.544607323892792,FALSE,
2004,3,31,2,1995,0.570796981286078,FALSE,
2004,3,31,3,1995,0.206031923641771,FALSE,
2004,3,31,4,1995,0.236456645724028,FALSE,2.22854425130441
2004,3,31,1,1996,0.142461339274238,FALSE,
2004,3,31,2,1996,0.714707638789569,FALSE,
2004,3,31,3,1996,0.537103834391549,FALSE,
2004,3,31,4,1996,0.165113145813037,FALSE,1.42222403149523
2004,3,31,1,1997,0.234137731921392,FALSE,
2004,3,31,2,1997,1.21516600278798,FALSE,
2004,3,31,3,1997,0.685418049617646,FALSE,
2004,3,31,4,1997,1.00514484244192,FALSE,2.34162023485163
2004,3,31,1,1998,0.802517090808224,FALSE,
2004,3,31,2,1998,0.396400646848224,FALSE,
2004,3,31,3,1998,0.539486076837999,FALSE,
2004,3,31,4,1998,0.272543837032224,FALSE,2.87410069242215
2004,3,31,1,1999,0.893623213049707,FALSE,
2004,3,31,2,1999,0.567057699489255,FALSE,
2004,3,31,3,1999,1.23699204996043,FALSE,
2004,3,31,4,1999,1.0547593325462,FALSE,2.81838351291441
2004,3,31,1,2000,0.924542636999946,FALSE,
2004,3,31,2,2000,0.875465231947225,FALSE,
2004,3,31,3,2000,0.304525341980287,FALSE,
2004,3,31,4,2000,0.610373961386036,FALSE,3.49288293019912
2004,3,31,1,2001,0.67263324900863,FALSE,
2004,3,31,2,2001,0.0351819081812716,FALSE,
2004,3,31,3,2001,0.177371320315701,FALSE,
2004,3,31,4,2001,-0.132426999210588,FALSE,1.59402973735703
2004,3,31,1,2002,0.377390355360545,FALSE,
2004,3,31,2,2002,0.499861110474631,FALSE,
2004,3,31,3,2002,0.229864116012508,FALSE,
2004,3,31,4,2002,0.0011405743439282,FALSE,0.869837332574619
2004,3,31,1,2003,-0.0142546230292121,FALSE,
2004,3,31,2,2003,-0.0877592075209007,FALSE,
2004,3,31,3,2003,0.385497511006139,FALSE,
2004,3,31,4,2003,0.308399182621147,FALSE,0.431382535518932
2004,3,31,1,2004,,TRUE,
2004,3,31,2,2004,,TRUE,
2004,3,31,3,2004,,TRUE,
2004,3,31,4,2004,,TRUE,
2004,4,30,2,1991,0.303891594385691,FALSE,
2004,4,30,3,1991,-0.044085134798456,FALSE,
2004,4,30,4,1991,0.959831685870058,FALSE,
2004,4,30,1,1992,1.47017507704839,FALSE,
2004,4,30,2,1992,-0.745647846968576,FALSE,
2004,4,30,3,1992,-0.241025963506363,FALSE,
2004,4,30,4,1992,-0.242514575579755,FALSE,
2004,4,30,1,1993,-0.624836273661437,FALSE,
2004,4,30,2,1993,0.0192806418188752,FALSE,
2004,4,30,3,1993,0.380783666286723,FALSE,
2004,4,30,4,1993,0.284376110123888,FALSE,-0.83485176839192
2004,4,30,1,1994,0.965628233561166,FALSE,
2004,4,30,2,1994,0.588316549539911,FALSE,
2004,4,30,3,1994,0.657938479767306,FALSE,
2004,4,30,4,1994,0.793833338749024,FALSE,2.37298561699055
2004,4,30,1,1995,0.544607323892792,FALSE,
2004,4,30,2,1995,0.570796981286078,FALSE,
2004,4,30,3,1995,0.206031923641771,FALSE,
2004,4,30,4,1995,0.236456645724028,FALSE,2.22854425130441
2004,4,30,1,1996,0.142461339274238,FALSE,
2004,4,30,2,1996,0.714707638789569,FALSE,
2004,4,30,3,1996,0.537103834391549,FALSE,
2004,4,30,4,1996,0.165113145813037,FALSE,1.42222403149523
2004,4,30,1,1997,0.234137731921392,FALSE,
2004,4,30,2,1997,1.21516600278798,FALSE,
2004,4,30,3,1997,0.685418049617646,FALSE,
2004,4,30,4,1997,1.00514484244192,FALSE,2.34162023485163
2004,4,30,1,1998,0.802517090808224,FALSE,
2004,4,30,2,1998,0.396400646848224,FALSE,
2004,4,30,3,1998,0.539486076837999,FALSE,
2004,4,30,4,1998,0.272543837032224,FALSE,2.87410069242215
2004,4,30,1,1999,0.893623213049707,FALSE,
2004,4,30,2,1999,0.567057699489255,FALSE,
2004,4,30,3,1999,1.23699204996043,FALSE,
2004,4,30,4,1999,1.0547593325462,FALSE,2.81838351291441
2004,4,30,1,2000,0.924542636999946,FALSE,
2004,4,30,2,2000,0.875465231947225,FALSE,
2004,4,30,3,2000,0.304525341980287,FALSE,
2004,4,30,4,2000,0.610373961386036,FALSE,3.49288293019912
2004,4,30,1,2001,0.67263324900863,FALSE,
2004,4,30,2,2001,0.0351819081812716,FALSE,
2004,4,30,3,2001,0.177371320315701,FALSE,
2004,4,30,4,2001,-0.132426999210588,FALSE,1.59402973735703
2004,4,30,1,2002,0.377390355360545,FALSE,
2004,4,30,2,2002,0.499861110474631,FALSE,
2004,4,30,3,2002,0.229864116012508,FALSE,
2004,4,30,4,2002,0.0011405743439282,FALSE,0.869837332574619
2004,4,30,1,2003,-0.0142546230292121,FALSE,
2004,4,30,2,2003,-0.0877592075209007,FALSE,
2004,4,30,3,2003,0.385497511006139,FALSE,
2004,4,30,4,2003,0.308399182621147,FALSE,0.431382535518932
2004,4,30,1,2004,,TRUE,
2004,4,30,2,2004,,TRUE,
2004,4,30,3,2004,,TRUE,
2004,4,30,4,2004,,TRUE,
2004,5,31,2,1991,0.30730445603132,FALSE,
2004,5,31,3,1991,-0.0442608660825328,FALSE,
2004,5,31,4,1991,0.961693814792676,FALSE,
2004,5,31,1,1992,1.46666737957572,FALSE,
2004,5,31,2,1992,-0.745361179920557,FALSE,
2004,5,31,3,1992,-0.239961822518344,FALSE,
2004,5,31,4,1992,-0.240070830390309,FALSE,
2004,5,31,1,1993,-0.628974133252043,FALSE,
2004,5,31,2,1993,0.0201352407704154,FALSE,
2004,5,31,3,1993,0.382166765509258,FALSE,
2004,5,31,4,1993,0.285812306511622,FALSE,-0.834852157625554
2004,5,31,1,1994,0.962053223193833,FALSE,
2004,5,31,2,1994,0.590253162151842,FALSE,
2004,5,31,3,1994,0.658305577789725,FALSE,
2004,5,31,4,1994,0.793655419295552,FALSE,2.37298602764406
2004,5,31,1,1995,0.543148289318271,FALSE,
2004,5,31,2,1995,0.571890782537805,FALSE,
2004,5,31,3,1995,0.206067081885961,FALSE,
2004,5,31,4,1995,0.236824292711771,FALSE,2.2285459679785
2004,5,31,1,1996,0.142937884376377,FALSE,
2004,5,31,2,1996,0.713435609433346,FALSE,
2004,5,31,3,1996,0.537142166889626,FALSE,
2004,5,31,4,1996,0.164700924951445,FALSE,1.42222420089848
2004,5,31,1,1997,0.235336174821078,FALSE,
2004,5,31,2,1997,1.21541580361774,FALSE,
2004,5,31,3,1997,0.684164558605867,FALSE,
2004,5,31,4,1997,1.00454784435791,FALSE,2.34161837881408
2004,5,31,1,1998,0.805646843455956,FALSE,
2004,5,31,2,1998,0.395229460777585,FALSE,
2004,5,31,3,1998,0.53705026277462,FALSE,
2004,5,31,4,1998,0.272466472225467,FALSE,2.874102313698
2004,5,31,1,1999,0.890667039088366,FALSE,
2004,5,31,2,1999,0.561572834926128,FALSE,
2004,5,31,3,1999,1.23604860530382,FALSE,
2004,5,31,4,1999,1.09069411685202,FALSE,2.81838244290036
2004,5,31,1,2000,0.904356321899009,FALSE,
2004,5,31,2,2000,0.869157464893102,FALSE,
2004,5,31,3,2000,0.308887525565844,FALSE,
2004,5,31,4,2000,0.601449755652615,FALSE,3.49288360497051
2004,5,31,1,2001,0.678287750263857,FALSE,
2004,5,31,2,2001,0.0383949251415505,FALSE,
2004,5,31,3,2001,0.168700841029292,FALSE,
2004,5,31,4,2001,-0.123358603501233,FALSE,1.59395572520251
2004,5,31,1,2002,0.379081497638522,FALSE,
2004,5,31,2,2002,0.498878054054654,FALSE,
2004,5,31,3,2002,0.228074826116768,FALSE,
2004,5,31,4,2002,-0.00535447626313136,FALSE,0.871551803085113
2004,5,31,1,2003,-0.0171386633527212,FALSE,
2004,5,31,2,2003,-0.09835890793125,FALSE,
2004,5,31,3,2003,0.372573239162641,FALSE,
2004,5,31,4,2003,0.303314602209233,FALSE,0.406681936027731
2004,5,31,1,2004,,TRUE,
2004,5,31,2,2004,,TRUE,
2004,5,31,3,2004,,TRUE,
2004,5,31,4,2004,,TRUE,
2004,6,30,2,1991,0.296597961389419,FALSE,
2004,6,30,3,1991,-0.027630669283507,FALSE,
2004,6,30,4,1991,0.946507629456015,FALSE,
2004,6,30,1,1992,1.49827309799978,FALSE,
2004,6,30,2,1992,-0.766253509373937,FALSE,
2004,6,30,3,1992,-0.280421544314655,FALSE,
2004,6,30,4,1992,-0.200158751146143,FALSE,
2004,6,30,1,1993,-0.683685517846459,FALSE,
2004,6,30,2,1993,0.0741493788070426,FALSE,
2004,6,30,3,1993,0.413754431619452,FALSE,
2004,6,30,4,1993,0.261515901487657,FALSE,-0.834859156708867
2004,6,30,1,1994,0.922349229154237,FALSE,
2004,6,30,2,1994,0.620895776995087,FALSE,
2004,6,30,3,1994,0.671171640723306,FALSE,
2004,6,30,4,1994,0.790297049657789,FALSE,2.37298280875553
2004,6,30,1,1995,0.541720191344422,FALSE,
2004,6,30,2,1995,0.559332078737729,FALSE,
2004,6,30,3,1995,0.194505474213736,FALSE,
2004,6,30,4,1995,0.257485256540266,FALSE,2.22853402137686
2004,6,30,1,1996,0.166996966719026,FALSE,
2004,6,30,2,1996,0.699046177362281,FALSE,
2004,6,30,3,1996,0.491701446786396,FALSE,
2004,6,30,4,1996,0.176606319652843,FALSE,1.42221491763346
2004,6,30,1,1997,0.220977065166318,FALSE,
2004,6,30,2,1997,1.23832189432989,FALSE,
2004,6,30,3,1997,0.707903062143743,FALSE,
2004,6,30,4,1997,1.01392666096315,FALSE,2.34161277221749
2004,6,30,1,1998,0.75380626369723,FALSE,
2004,6,30,2,1998,0.426200522270308,FALSE,
2004,6,30,3,1998,0.546288618407022,FALSE,
2004,6,30,4,1998,0.270461768414625,FALSE,2.87407715474108
2004,6,30,1,1999,0.852337195443153,FALSE,
2004,6,30,2,1999,0.611399641531242,FALSE,
2004,6,30,3,1999,1.22625026350639,FALSE,
2004,6,30,4,1999,1.07106606480148,FALSE,2.81844592009175
2004,6,30,1,2000,0.900988900532601,FALSE,
2004,6,30,2,2000,0.856004793934866,FALSE,
2004,6,30,3,2000,0.34939679664365,FALSE,
2004,6,30,4,2000,0.60058656906909,FALSE,3.49255318314448
2004,6,30,1,2001,0.654229523130516,FALSE,
2004,6,30,2,2001,0.03567034452543,FALSE,
2004,6,30,3,2001,0.227253666455221,FALSE,
2004,6,30,4,2001,-0.199612297391045,FALSE,1.5943398468433
2004,6,30,1,2002,0.417486994629493,FALSE,
2004,6,30,2,2002,0.488881240817802,FALSE,
2004,6,30,3,2002,0.197340032910183,FALSE,
2004,6,30,4,2002,0.0331322857804406,FALSE,0.868042260600688
2004,6,30,1,2003,-0.00900469475763943,FALSE,
2004,6,30,2,2003,-0.0801411253568733,FALSE,
2004,6,30,3,2003,0.409734232399161,FALSE,
2004,6,30,4,2003,0.370210715669446,FALSE,0.475236767803988
2004,6,30,1,2004,0.571370294731248,FALSE,
2004,6,30,2,2004,,TRUE,
2004,6,30,3,2004,,TRUE,
2004,6,30,4,2004,,TRUE,
2004,7,31,2,1991,0.296597961389419,FALSE,
2004,7,31,3,1991,-0.027630669283507,FALSE,
2004,7,31,4,1991,0.946507629456015,FALSE,
2004,7,31,1,1992,1.49827309799978,FALSE,
2004,7,31,2,1992,-0.766253509373937,FALSE,
2004,7,31,3,1992,-0.280421544314655,FALSE,
2004,7,31,4,1992,-0.200158751146143,FALSE,
2004,7,31,1,1993,-0.683685517846459,FALSE,
2004,7,31,2,1993,0.0741493788070426,FALSE,
2004,7,31,3,1993,0.413754431619452,FALSE,
2004,7,31,4,1993,0.261515901487657,FALSE,-0.834859156708867
2004,7,31,1,1994,0.922349229154237,FALSE,
2004,7,31,2,1994,0.620895776995087,FALSE,
2004,7,31,3,1994,0.671171640723306,FALSE,
2004,7,31,4,1994,0.790297049657789,FALSE,2.37298280875553
2004,7,31,1,1995,0.541720191344422,FALSE,
2004,7,31,2,1995,0.559332078737729,FALSE,
2004,7,31,3,1995,0.194505474213736,FALSE,
2004,7,31,4,1995,0.257485256540266,FALSE,2.22853402137686
2004,7,31,1,1996,0.166996966719026,FALSE,
2004,7,31,2,1996,0.699046177362281,FALSE,
2004,7,31,3,1996,0.491701446786396,FALSE,
2004,7,31,4,1996,0.176606319652843,FALSE,1.42221491763346
2004,7,31,1,1997,0.220977065166318,FALSE,
2004,7,31,2,1997,1.23832189432989,FALSE,
2004,7,31,3,1997,0.707903062143743,FALSE,
2004,7,31,4,1997,1.01392666096315,FALSE,2.34161277221749
2004,7,31,1,1998,0.75380626369723,FALSE,
2004,7,31,2,1998,0.426200522270308,FALSE,
2004,7,31,3,1998,0.546288618407022,FALSE,
2004,7,31,4,1998,0.270461768414625,FALSE,2.87407715474108
2004,7,31,1,1999,0.852337195443153,FALSE,
2004,7,31,2,1999,0.611399641531242,FALSE,
2004,7,31,3,1999,1.22625026350639,FALSE,
2004,7,31,4,1999,1.07106606480148,FALSE,2.81844592009175
2004,7,31,1,2000,0.900988900532601,FALSE,
2004,7,31,2,2000,0.856004793934866,FALSE,
2004,7,31,3,2000,0.34939679664365,FALSE,
2004,7,31,4,2000,0.60058656906909,FALSE,3.49255318314448
2004,7,31,1,2001,0.654229523130516,FALSE,
2004,7,31,2,2001,0.03567034452543,FALSE,
2004,7,31,3,2001,0.227253666455221,FALSE,
2004,7,31,4,2001,-0.199612297391045,FALSE,1.5943398468433
2004,7,31,1,2002,0.417486994629493,FALSE,
2004,7,31,2,2002,0.488881240817802,FALSE,
2004,7,31,3,2002,0.197340032910183,FALSE,
2004,7,31,4,2002,0.0331322857804406,FALSE,0.868042260600688
2004,7,31,1,2003,-0.00900469475763943,FALSE,
2004,7,31,2,2003,-0.0801411253568733,FALSE,
2004,7,31,3,2003,0.409734232399161,FALSE,
2004,7,31,4,2003,0.370210715669446,FALSE,0.475236767803988
2004,7,31,1,2004,0.571370294731248,FALSE,
2004,7,31,2,2004,,TRUE,
2004,7,31,3,2004,,TRUE,
2004,7,31,4,2004,,TRUE,
2004,8,31,2,1991,0.299404905544596,FALSE,
2004,8,31,3,1991,-0.0180223352437919,FALSE,
2004,8,31,4,1991,0.956445856430563,FALSE,
2004,8,31,1,1992,1.47195002156158,FALSE,
2004,8,31,2,1992,-0.747172080068545,FALSE,
2004,8,31,3,1992,-0.282962943600873,FALSE,
2004,8,31,4,1992,-0.198583451600019,FALSE,
2004,8,31,1,1993,-0.686211476740924,FALSE,
2004,8,31,2,1993,0.0715353251680838,FALSE,
2004,8,31,3,1993,0.411202471652334,FALSE,
2004,8,31,4,1993,0.265715968349274,FALSE,-0.834858583289022
2004,8,31,1,1994,0.924385775631495,FALSE,
2004,8,31,2,1994,0.610560599320517,FALSE,
2004,8,31,3,1994,0.674704158436592,FALSE,
2004,8,31,4,1994,0.801138709220687,FALSE,2.3729826103281
2004,8,31,1,1995,0.527589947207297,FALSE,
2004,8,31,2,1995,0.565953438583732,FALSE,
2004,8,31,3,1995,0.197464075849354,FALSE,
2004,8,31,4,1995,0.25897484212656,FALSE,2.22853496805209
2004,8,31,1,1996,0.157772772395751,FALSE,
2004,8,31,2,1996,0.711202723769178,FALSE,
2004,8,31,3,1996,0.486216720786996,FALSE,
2004,8,31,4,1996,0.171034522707305,FALSE,1.42221323759457
2004,8,31,1,1997,0.239472640146535,FALSE,
2004,8,31,2,1997,1.22129443254894,FALSE,
2004,8,31,3,1997,0.706563783128222,FALSE,
2004,8,31,4,1997,1.00960080619912,FALSE,2.34161388498471
2004,8,31,1,1998,0.766842644015803,FALSE,
2004,8,31,2,1998,0.424283810787673,FALSE,
2004,8,31,3,1998,0.546767276197495,FALSE,
2004,8,31,4,1998,0.255538227148299,FALSE,2.87407625232294
2004,8,31,1,1999,0.849098840520862,FALSE,
2004,8,31,2,1999,0.607570236455297,FALSE,
2004,8,31,3,1999,1.25326937678805,FALSE,
2004,8,31,4,1999,1.08634995591304,FALSE,2.81844576131001
2004,8,31,1,2000,0.866100880945938,FALSE,
2004,8,31,2,2000,0.87254002040122,FALSE,
2004,8,31,3,2000,0.356262865992795,FALSE,
2004,8,31,4,2000,0.581423369338511,FALSE,3.49255388148237
2004,8,31,1,2001,0.654486013402271,FALSE,
2004,8,31,2,2001,0.047133339181762,FALSE,
2004,8,31,3,2001,0.224408362396918,FALSE,
2004,8,31,4,2001,-0.198282625911558,FALSE,1.59529584145766
2004,8,31,1,2002,0.430914086541752,FALSE,
2004,8,31,2,2002,0.456619819326539,FALSE,
2004,8,31,3,2002,0.214720214296911,FALSE,
2004,8,31,4,2002,0.0387940464726275,FALSE,0.869818831864477
2004,8,31,1,2003,0.00925703281868245,FALSE,
2004,8,31,2,2003,-0.126038891842278,FALSE,
2004,8,31,3,2003,0.431243677299774,FALSE,
2004,8,31,4,2003,0.375864058018918,FALSE,0.476143115854177
2004,8,31,1,2004,0.627311184318588,FALSE,
2004,8,31,2,2004,,TRUE,
2004,8,31,3,2004,,TRUE,
2004,8,31,4,2004,,TRUE,
2004,9,30,2,1991,0.299404905544596,FALSE,
2004,9,30,3,1991,-0.0180223352437919,FALSE,
2004,9,30,4,1991,0.956445856430563,FALSE,
2004,9,30,1,1992,1.47195002156158,FALSE,
2004,9,30,2,1992,-0.747172080068545,FALSE,
2004,9,30,3,1992,-0.282962943600873,FALSE,
2004,9,30,4,1992,-0.198583451600019,FALSE,
2004,9,30,1,1993,-0.686211476740924,FALSE,
2004,9,30,2,1993,0.0715353251680838,FALSE,
2004,9,30,3,1993,0.411202471652334,FALSE,
2004,9,30,4,1993,0.265715968349274,FALSE,-0.834858583289022
2004,9,30,1,1994,0.924385775631495,FALSE,
2004,9,30,2,1994,0.610560599320517,FALSE,
2004,9,30,3,1994,0.674704158436592,FALSE,
2004,9,30,4,1994,0.801138709220687,FALSE,2.3729826103281
2004,9,30,1,1995,0.527589947207297,FALSE,
2004,9,30,2,1995,0.565953438583732,FALSE,
2004,9,30,3,1995,0.197464075849354,FALSE,
2004,9,30,4,1995,0.25897484212656,FALSE,2.22853496805209
2004,9,30,1,1996,0.157772772395751,FALSE,
2004,9,30,2,1996,0.711202723769178,FALSE,
2004,9,30,3,1996,0.486216720786996,FALSE,
2004,9,30,4,1996,0.171034522707305,FALSE,1.42221323759457
2004,9,30,1,1997,0.239472640146535,FALSE,
2004,9,30,2,1997,1.22129443254894,FALSE,
2004,9,30,3,1997,0.706563783128222,FALSE,
2004,9,30,4,1997,1.00960080619912,FALSE,2.34161388498471
2004,9,30,1,1998,0.766842644015803,FALSE,
2004,9,30,2,1998,0.424283810787673,FALSE,
2004,9,30,3,1998,0.546767276197495,FALSE,
2004,9,30,4,1998,0.255538227148299,FALSE,2.87407625232294
2004,9,30,1,1999,0.849098840520862,FALSE,
2004,9,30,2,1999,0.607570236455297,FALSE,
2004,9,30,3,1999,1.25326937678805,FALSE,
2004,9,30,4,1999,1.08634995591304,FALSE,2.81844576131001
2004,9,30,1,2000,0.866100880945938,FALSE,
2004,9,30,2,2000,0.87254002040122,FALSE,
2004,9,30,3,2000,0.356262865992795,FALSE,
2004,9,30,4,2000,0.581423369338511,FALSE,3.49255388148237
2004,9,30,1,2001,0.654486013402271,FALSE,
2004,9,30,2,2001,0.047133339181762,FALSE,
2004,9,30,3,2001,0.224408362396918,FALSE,
2004,9,30,4,2001,-0.198282625911558,FALSE,1.59529584145766
2004,9,30,1,2002,0.430914086541752,FALSE,
2004,9,30,2,2002,0.456619819326539,FALSE,
2004,9,30,3,2002,0.214720214296911,FALSE,
2004,9,30,4,2002,0.0387940464726275,FALSE,0.869818831864477
2004,9,30,1,2003,0.00925703281868245,FALSE,
2004,9,30,2,2003,-0.126038891842278,FALSE,
2004,9,30,3,2003,0.431243677299774,FALSE,
2004,9,30,4,2003,0.375864058018918,FALSE,0.476143115854177
2004,9,30,1,2004,0.627311184318588,FALSE,
2004,9,30,2,2004,0.508998836873039,FALSE,
2004,9,30,3,2004,,TRUE,
2004,9,30,4,2004,,TRUE,
2004,10,31,2,1991,0.31487622713023,FALSE,
2004,10,31,3,1991,0.00873201203145021,FALSE,
2004,10,31,4,1991,0.951032045242001,FALSE,
2004,10,31,1,1992,1.47489013786164,FALSE,
2004,10,31,2,1992,-0.767628388301524,FALSE,
2004,10,31,3,1992,-0.27367335637291,FALSE,
2004,10,31,4,1992,-0.220286802173303,FALSE,
2004,10,31,1,1993,-0.681699056542313,FALSE,
2004,10,31,2,1993,0.0774582688456415,FALSE,
2004,10,31,3,1993,0.425525278756005,FALSE,
2004,10,31,4,1993,0.268313369176711,FALSE,-0.834858777103453
2004,10,31,1,1994,0.911584229048636,FALSE,
2004,10,31,2,1994,0.614707910857974,FALSE,
2004,10,31,3,1994,0.695679499027568,FALSE,
2004,10,31,4,1994,0.755867349773939,FALSE,2.37298300718296
2004,10,31,1,1995,0.593203616791819,FALSE,
2004,10,31,2,1995,0.536851449444015,FALSE,
2004,10,31,3,1995,0.155233808662959,FALSE,
2004,10,31,4,1995,0.258255854592527,FALSE,2.22853477871705
2004,10,31,1,1996,0.184362932328235,FALSE,
2004,10,31,2,1996,0.705098486046633,FALSE,
2004,10,31,3,1996,0.502213406134266,FALSE,
2004,10,31,4,1996,0.166227109972476,FALSE,1.42221324022862
2004,10,31,1,1997,0.227047430836423,FALSE,
2004,10,31,2,1997,1.23428040433085,FALSE,
2004,10,31,3,1997,0.705017123008189,FALSE,
2004,10,31,4,1997,1.01184313282794,FALSE,2.34161425448174
2004,10,31,1,1998,0.756552274358656,FALSE,
2004,10,31,2,1998,0.439388911182585,FALSE,
2004,10,31,3,1998,0.538757204070424,FALSE,
2004,10,31,4,1998,0.250983549498349,FALSE,2.87407624719467
2004,10,31,1,1999,0.84972819307519,FALSE,
2004,10,31,2,1999,0.615980721060692,FALSE,
2004,10,31,3,1999,1.25353250329271,FALSE,
2004,10,31,4,1999,1.07275266025016,FALSE,2.81844540952689
2004,10,31,1,2000,0.891575932916861,FALSE,
2004,10,31,2,2000,0.877209548379543,FALSE,
2004,10,31,3,2000,0.32769106013311,FALSE,
2004,10,31,4,2000,0.55489171120364,FALSE,3.49255405606685
2004,10,31,1,2001,0.731447909491992,FALSE,
2004,10,31,2,2001,-0.0222560208722284,FALSE,
2004,10,31,3,2001,0.219400680704814,FALSE,
2004,10,31,4,2001,-0.169684819932437,FALSE,1.59189321783026
2004,10,31,1,2002,0.418662125754417,FALSE,
2004,10,31,2,2002,0.388613655755381,FALSE,
2004,10,31,3,2002,0.273536249914744,FALSE,
2004,10,31,4,2002,0.0416646064933539,FALSE,0.838027710274658
2004,10,31,1,2003,0.0109910156364994,FALSE,
2004,10,31,2,2003,-0.17769266005651,FALSE,
2004,10,31,3,2003,0.466907808051896,FALSE,
2004,10,31,4,2003,0.368459751053301,FALSE,0.469666079711639
2004,10,31,1,2004,0.642097647111014,FALSE,
2004,10,31,2,2004,0.51002757289986,FALSE,
2004,10,31,3,2004,,TRUE,
2004,10,31,4,2004,,TRUE,
2004,11,30,2,1991,0.315823688407367,FALSE,
2004,11,30,3,1991,0.00901815787398634,FALSE,
2004,11,30,4,1991,0.950480634389089,FALSE,
2004,11,30,1,1992,1.48096932256725,FALSE,
2004,11,30,2,1992,-0.772316671961604,FALSE,
2004,11,30,3,1992,-0.27213211498105,FALSE,
2004,11,30,4,1992,-0.224467226066975,FALSE,
2004,11,30,1,1993,-0.680936402578564,FALSE,
2004,11,30,2,1993,0.077675356877519,FALSE,
2004,11,30,3,1993,0.428610675772368,FALSE,
2004,11,30,4,1993,0.264049908890878,FALSE,-0.836986372633575
2004,11,30,1,1994,0.91371657009269,FALSE,
2004,11,30,2,1994,0.61508115021282,FALSE,
2004,11,30,3,1994,0.698206994388166,FALSE,
2004,11,30,4,1994,0.755360852652867,FALSE,2.3749863518411
2004,11,30,1,1995,0.595758946115295,FALSE,
2004,11,30,2,1995,0.541122946015131,FALSE,
2004,11,30,3,1995,0.156477072927588,FALSE,
2004,11,30,4,1995,0.263746777607629,FALSE,2.23746520334096
2004,11,30,1,1996,0.192273737076512,FALSE,
2004,11,30,2,1996,0.713260145038017,FALSE,
2004,11,30,3,1996,0.503921644968406,FALSE,
2004,11,30,4,1996,0.168706455935879,FALSE,1.44384361503154
