fredbec/spf-europe/data/processed/revdatfull.csv
origin_year,origin_month,origin_day,target_quarter,target_year,rgdp_growth,imputed,rgdp_growth_ann
2001,1,31,2,1991,1.22035149289275,FALSE,
2001,1,31,3,1991,0.242686548220705,FALSE,
2001,1,31,4,1991,3.9019132783761,FALSE,
2001,1,31,1,1992,5.67949033371342,FALSE,
2001,1,31,2,1992,-2.15845385305231,FALSE,
2001,1,31,3,1992,-1.28747712943088,FALSE,
2001,1,31,4,1992,-0.889854327095996,FALSE,
2001,1,31,1,1993,-2.76785324946042,FALSE,
2001,1,31,2,1993,0.30894852636647,FALSE,
2001,1,31,3,1993,1.22447410419595,FALSE,
2001,1,31,4,1993,1.4903550775744,FALSE,-0.861918066094114
2001,1,31,1,1994,4.05992642595303,FALSE,
2001,1,31,2,1994,2.07549720979923,FALSE,
2001,1,31,3,1994,2.73678377932585,FALSE,
2001,1,31,4,1994,3.37393012264526,FALSE,2.40465436766857
2001,1,31,1,1995,2.43561441206268,FALSE,
2001,1,31,2,1995,2.10065976966085,FALSE,
2001,1,31,3,1995,0.40745099421633,FALSE,
2001,1,31,4,1995,0.923318769291126,FALSE,2.20941193682196
2001,1,31,1,1996,0.975795507589483,FALSE,
2001,1,31,2,1996,2.58868091543496,FALSE,
2001,1,31,3,1996,2.27653823417493,FALSE,
2001,1,31,4,1996,0.847520542300018,FALSE,1.42018457782167
2001,1,31,1,1997,0.707462962374184,FALSE,
2001,1,31,2,1997,4.9673476350411,FALSE,
2001,1,31,3,1997,2.90482768543348,FALSE,
2001,1,31,4,1997,3.39029458423401,FALSE,2.28011947138138
2001,1,31,1,1998,3.44358337696575,FALSE,
2001,1,31,2,1998,1.3529405317863,FALSE,
2001,1,31,3,1998,2.1617340502966,FALSE,
2001,1,31,4,1998,1.08394753321359,FALSE,2.75222517396627
2001,1,31,1,1999,3.07501228384053,FALSE,
2001,1,31,2,1999,2.31828188277918,FALSE,
2001,1,31,3,1999,3.89934161643468,FALSE,
2001,1,31,4,1999,3.92760695631864,FALSE,2.49338410153377
2001,1,31,1,2000,3.71508896273649,FALSE,
2001,1,31,2,2000,3.33240467802769,FALSE,
2001,1,31,3,2000,2.73217648097268,FALSE,
2001,1,31,4,2000,,TRUE,
2001,1,31,1,2001,,TRUE,
2001,1,31,2,2001,,TRUE,
2001,1,31,3,2001,,TRUE,
2001,1,31,4,2001,,TRUE,
2001,2,28,2,1991,1.12384132543095,FALSE,
2001,2,28,3,1991,0.134704883392822,FALSE,
2001,2,28,4,1991,3.38051563436741,FALSE,
2001,2,28,1,1992,6.45892265514567,FALSE,
2001,2,28,2,1992,-2.39835653912331,FALSE,
2001,2,28,3,1992,-1.4058829426451,FALSE,
2001,2,28,4,1992,-1.03930645228429,FALSE,
2001,2,28,1,1993,-2.48722497551369,FALSE,
2001,2,28,2,1993,0.261585554797206,FALSE,
2001,2,28,3,1993,1.07745753590149,FALSE,
2001,2,28,4,1993,1.71488962413158,FALSE,-0.861917685005098
2001,2,28,1,1994,4.03510399010705,FALSE,
2001,2,28,2,1994,1.96530724927766,FALSE,
2001,2,28,3,1994,2.64558865235922,FALSE,
2001,2,28,4,1994,3.65476389547685,FALSE,2.40465417379643
2001,2,28,1,1995,2.53235273036725,FALSE,
2001,2,28,2,1995,1.82873469737295,FALSE,
2001,2,28,3,1995,0.314341194141732,FALSE,
2001,2,28,4,1995,1.00606940099812,FALSE,2.20941231964413
2001,2,28,1,1996,1.04061681177248,FALSE,
2001,2,28,2,1996,2.59022703151404,FALSE,
2001,2,28,3,1996,2.35233068526104,FALSE,
2001,2,28,4,1996,0.642050914407721,FALSE,1.42018476041832
2001,2,28,1,1997,0.626060319585409,FALSE,
2001,2,28,2,1997,5.16869805980198,FALSE,
2001,2,28,3,1997,3.07695105613279,FALSE,
2001,2,28,4,1997,3.25790249169673,FALSE,2.28011891515236
2001,2,28,1,1998,3.10510116834875,FALSE,
2001,2,28,2,1998,1.74210094258378,FALSE,
2001,2,28,3,1998,2.22492370023901,FALSE,
2001,2,28,4,1998,0.937577295332837,FALSE,2.74945693114894
2001,2,28,1,1999,2.95530720786368,FALSE,
2001,2,28,2,1999,2.38759912588513,FALSE,
2001,2,28,3,1999,4.07044578157292,FALSE,
2001,2,28,4,1999,3.83010038943159,FALSE,2.49633435771097
2001,2,28,1,2000,3.63961695105834,FALSE,
2001,2,28,2,2000,3.56902267910186,FALSE,
2001,2,28,3,2000,2.64981588182456,FALSE,
2001,2,28,4,2000,,TRUE,
2001,2,28,1,2001,,TRUE,
2001,2,28,2,2001,,TRUE,
2001,2,28,3,2001,,TRUE,
2001,2,28,4,2001,,TRUE,
2001,3,31,2,1991,1.1450144592428,FALSE,
2001,3,31,3,1991,0.144476387390524,FALSE,
2001,3,31,4,1991,3.35460368274103,FALSE,
2001,3,31,1,1992,6.46223013878078,FALSE,
2001,3,31,2,1992,-2.39511450987036,FALSE,
2001,3,31,3,1992,-1.39624048576191,FALSE,
2001,3,31,4,1992,-1.04570304255245,FALSE,
2001,3,31,1,1993,-2.47364717688081,FALSE,
2001,3,31,2,1993,0.247452526997649,FALSE,
2001,3,31,3,1993,1.07831265507614,FALSE,
2001,3,31,4,1993,1.69484280297774,FALSE,-0.861991479807911
2001,3,31,1,1994,4.04820288338041,FALSE,
2001,3,31,2,1994,1.96600624989458,FALSE,
2001,3,31,3,1994,2.67686654786623,FALSE,
2001,3,31,4,1994,3.61151150126071,FALSE,2.40466402104598
2001,3,31,1,1995,2.4718840660575,FALSE,
2001,3,31,2,1995,1.87564324462359,FALSE,
2001,3,31,3,1995,0.183191846613706,FALSE,
2001,3,31,4,1995,1.20251243351166,FALSE,2.19482528394166
2001,3,31,1,1996,0.948039432270642,FALSE,
2001,3,31,2,1996,2.57913091639148,FALSE,
2001,3,31,3,1996,2.46706477164138,FALSE,
2001,3,31,4,1996,0.44913323226432,FALSE,1.42018457782169
2001,3,31,1,1997,0.7383131966892,FALSE,
2001,3,31,2,1997,5.11811808396407,FALSE,
2001,3,31,3,1997,3.04867262818087,FALSE,
2001,3,31,4,1997,3.37697620804052,FALSE,2.28011965401485
2001,3,31,1,1998,2.98718309270585,FALSE,
2001,3,31,2,1998,1.83437229422911,FALSE,
2001,3,31,3,1998,2.1915584913315,FALSE,
2001,3,31,4,1998,0.94587369165493,FALSE,2.74945656420587
2001,3,31,1,1999,2.89837688208081,FALSE,
2001,3,31,2,1999,2.42167057545639,FALSE,
2001,3,31,3,1999,4.14408635224228,FALSE,
2001,3,31,4,1999,3.757040057663,FALSE,2.49633435771095
2001,3,31,1,2000,3.62161851635121,FALSE,
2001,3,31,2,2000,3.47702661674512,FALSE,
2001,3,31,3,2000,2.53258756694363,FALSE,
2001,3,31,4,2000,,TRUE,
2001,3,31,1,2001,,TRUE,
2001,3,31,2,2001,,TRUE,
2001,3,31,3,2001,,TRUE,
2001,3,31,4,2001,,TRUE,
2001,4,30,2,1991,1.03380705413862,FALSE,
2001,4,30,3,1991,0.221951484942906,FALSE,
2001,4,30,4,1991,3.86633767332045,FALSE,
2001,4,30,1,1992,5.86906539211933,FALSE,
2001,4,30,2,1992,-2.35096919690088,FALSE,
2001,4,30,3,1992,-1.08865822184565,FALSE,
2001,4,30,4,1992,-1.08937515191143,FALSE,
2001,4,30,1,1993,-2.74514395996807,FALSE,
2001,4,30,2,1993,0.155283009133944,FALSE,
2001,4,30,3,1993,1.5729998786215,FALSE,
2001,4,30,4,1993,1.56781798588088,FALSE,-0.861969934349549
2001,4,30,1,1994,3.61303084986029,FALSE,
2001,4,30,2,1994,2.32065514073023,FALSE,
2001,4,30,3,1994,2.95413091159094,FALSE,
2001,4,30,4,1994,3.18283271645303,FALSE,2.40466231220418
2001,4,30,1,1995,2.35210954829024,FALSE,
2001,4,30,2,1995,2.0844020883876,FALSE,
2001,4,30,3,1995,0.377715613502794,FALSE,
2001,4,30,4,1995,1.02426197502647,FALSE,2.1947946182902
2001,4,30,1,1996,1.14641432399198,FALSE,
2001,4,30,2,1996,2.213971591817,FALSE,
2001,4,30,3,1996,2.4763225923129,FALSE,
2001,4,30,4,1996,0.690128817546776,FALSE,1.42236359719079
2001,4,30,1,1997,1.16309018329293,FALSE,
2001,4,30,2,1997,4.70743652207279,FALSE,
2001,4,30,3,1997,2.76266170244552,FALSE,
2001,4,30,4,1997,3.59973205362374,FALSE,2.31477722000311
2001,4,30,1,1998,3.56629010829461,FALSE,
2001,4,30,2,1998,1.2979694127919,FALSE,
2001,4,30,3,1998,2.32838326100828,FALSE,
2001,4,30,4,1998,1.031845155816,FALSE,2.79543343272097
2001,4,30,1,1999,3.14396944211055,FALSE,
2001,4,30,2,1999,2.19943459981997,FALSE,
2001,4,30,3,1999,4.07845750807045,FALSE,
2001,4,30,4,1999,4.02089109551278,FALSE,2.5236384761715
2001,4,30,1,2000,3.7440865434178,FALSE,
2001,4,30,2,2000,3.06382008204198,FALSE,
2001,4,30,3,2000,2.23845215236032,FALSE,
2001,4,30,4,2000,2.84977351479012,FALSE,3.36534227141199
2001,4,30,1,2001,,TRUE,
2001,4,30,2,2001,,TRUE,
2001,4,30,3,2001,,TRUE,
2001,4,30,4,2001,,TRUE,
2001,5,31,2,1991,1.12498016162488,FALSE,
2001,5,31,3,1991,0.148815841229366,FALSE,
2001,5,31,4,1991,3.87301470725134,FALSE,
2001,5,31,1,1992,5.95594093058895,FALSE,
2001,5,31,2,1992,-2.45561850958964,FALSE,
2001,5,31,3,1992,-1.05851591465951,FALSE,
2001,5,31,4,1992,-1.12472806440553,FALSE,
2001,5,31,1,1993,-2.72660949136438,FALSE,
2001,5,31,2,1993,0.162038884735183,FALSE,
2001,5,31,3,1993,1.57649647215792,FALSE,
2001,5,31,4,1993,1.62923287945829,FALSE,-0.861354265450365
2001,5,31,1,1994,3.59586130502141,FALSE,
2001,5,31,2,1994,2.2504675990455,FALSE,
2001,5,31,3,1994,2.98757229601374,FALSE,
2001,5,31,4,1994,3.18368938526112,FALSE,2.40389789432036
2001,5,31,1,1995,2.28350917833167,FALSE,
2001,5,31,2,1995,2.17301888543981,FALSE,
2001,5,31,3,1995,0.382008238114961,FALSE,
2001,5,31,4,1995,1.02750689639974,FALSE,2.19501135830089
2001,5,31,1,1996,1.16946291942803,FALSE,
2001,5,31,2,1996,2.15011642939214,FALSE,
2001,5,31,3,1996,2.50193949805644,FALSE,
2001,5,31,4,1996,0.632818857244355,FALSE,1.42240525699282
2001,5,31,1,1997,1.13490336842408,FALSE,
2001,5,31,2,1997,4.75635876569991,FALSE,
2001,5,31,3,1997,2.84976929426788,FALSE,
2001,5,31,4,1997,3.58184983691825,FALSE,2.31477763728785
2001,5,31,1,1998,3.8009913844905,FALSE,
2001,5,31,2,1998,1.3395867391635,FALSE,
2001,5,31,3,1998,2.33251961747425,FALSE,
2001,5,31,4,1998,0.944886278737345,FALSE,2.86696214263329
2001,5,31,1,1999,3.25148316482584,FALSE,
2001,5,31,2,1999,2.11810759070918,FALSE,
2001,5,31,3,1999,4.12102083953767,FALSE,
2001,5,31,4,1999,4.03884030982378,FALSE,2.52799670277242
2001,5,31,1,2000,3.77528860696574,FALSE,
2001,5,31,2,2000,3.1226687751984,FALSE,
2001,5,31,3,2000,2.27915682084887,FALSE,
2001,5,31,4,2000,2.68168566946252,FALSE,3.38220156568767
2001,5,31,1,2001,,TRUE,
2001,5,31,2,2001,,TRUE,
2001,5,31,3,2001,,TRUE,
2001,5,31,4,2001,,TRUE,
2001,6,30,2,1991,1.12498016162488,FALSE,
2001,6,30,3,1991,0.148815841229366,FALSE,
2001,6,30,4,1991,3.87301470725134,FALSE,
2001,6,30,1,1992,5.95594093058895,FALSE,
2001,6,30,2,1992,-2.45561850958964,FALSE,
2001,6,30,3,1992,-1.05851591465951,FALSE,
2001,6,30,4,1992,-1.12472806440553,FALSE,
2001,6,30,1,1993,-2.72660949136438,FALSE,
2001,6,30,2,1993,0.162038884735183,FALSE,
2001,6,30,3,1993,1.57649647215792,FALSE,
2001,6,30,4,1993,1.62923287945829,FALSE,-0.861354265450365
2001,6,30,1,1994,3.59586130502141,FALSE,
2001,6,30,2,1994,2.2504675990455,FALSE,
2001,6,30,3,1994,2.98757229601374,FALSE,
2001,6,30,4,1994,3.18368938526112,FALSE,2.40389789432036
2001,6,30,1,1995,2.28350917833167,FALSE,
2001,6,30,2,1995,2.17301888543981,FALSE,
2001,6,30,3,1995,0.382008238114961,FALSE,
2001,6,30,4,1995,1.02750689639974,FALSE,2.19501135830089
2001,6,30,1,1996,1.16946291942803,FALSE,
2001,6,30,2,1996,2.15011642939214,FALSE,
2001,6,30,3,1996,2.50193949805644,FALSE,
2001,6,30,4,1996,0.632818857244355,FALSE,1.42240525699282
2001,6,30,1,1997,1.13490336842408,FALSE,
2001,6,30,2,1997,4.75635876569991,FALSE,
2001,6,30,3,1997,2.84976929426788,FALSE,
2001,6,30,4,1997,3.58184983691825,FALSE,2.31477763728785
2001,6,30,1,1998,3.8009913844905,FALSE,
2001,6,30,2,1998,1.3395867391635,FALSE,
2001,6,30,3,1998,2.33251961747425,FALSE,
2001,6,30,4,1998,0.944886278737345,FALSE,2.86696214263329
2001,6,30,1,1999,3.25148316482584,FALSE,
2001,6,30,2,1999,2.11810759070918,FALSE,
2001,6,30,3,1999,4.12102083953767,FALSE,
2001,6,30,4,1999,4.03884030982378,FALSE,2.52799670277242
2001,6,30,1,2000,3.77528860696574,FALSE,
2001,6,30,2,2000,3.1226687751984,FALSE,
2001,6,30,3,2000,2.27915682084887,FALSE,
2001,6,30,4,2000,2.68168566946252,FALSE,3.38220156568767
2001,6,30,1,2001,,TRUE,
2001,6,30,2,2001,,TRUE,
2001,6,30,3,2001,,TRUE,
2001,6,30,4,2001,,TRUE,
2001,7,31,2,1991,1.05121673845479,FALSE,
2001,7,31,3,1991,-0.00996940672730595,FALSE,
2001,7,31,4,1991,3.9205399913538,FALSE,
2001,7,31,1,1992,5.99421609034667,FALSE,
2001,7,31,2,1992,-2.49120673522403,FALSE,
2001,7,31,3,1992,-0.937605519471374,FALSE,
2001,7,31,4,1992,-1.15104916961237,FALSE,
2001,7,31,1,1993,-2.88262496431672,FALSE,
2001,7,31,2,1993,0.314659308714549,FALSE,
2001,7,31,3,1993,1.60944996498464,FALSE,
2001,7,31,4,1993,1.62043889784009,FALSE,-0.861355029208777
2001,7,31,1,1994,3.51688399695422,FALSE,
2001,7,31,2,1994,2.32002058474339,FALSE,
2001,7,31,3,1994,2.83021061053559,FALSE,
2001,7,31,4,1994,3.40629517199069,FALSE,2.40389906208551
2001,7,31,1,1995,2.21391989285327,FALSE,
2001,7,31,2,1995,2.15905713703166,FALSE,
2001,7,31,3,1995,0.379495896299087,FALSE,
2001,7,31,4,1995,0.93747579658503,FALSE,2.19500963382258
2001,7,31,1,1996,1.32324665575336,FALSE,
2001,7,31,2,1996,2.05471436340903,FALSE,
2001,7,31,3,1996,2.49460789548872,FALSE,
2001,7,31,4,1996,0.606355068013964,FALSE,1.42240600846943
2001,7,31,1,1997,1.15901880189271,FALSE,
2001,7,31,2,1997,4.82842628678435,FALSE,
2001,7,31,3,1997,2.82310645558797,FALSE,
2001,7,31,4,1997,3.51580695634033,FALSE,2.31477891574361
2001,7,31,1,1998,3.91281199136773,FALSE,
2001,7,31,2,1998,1.33558559800491,FALSE,
2001,7,31,3,1998,2.2249500460034,FALSE,
2001,7,31,4,1998,0.911296120925131,FALSE,2.86696032176415
2001,7,31,1,1999,3.29251087836839,FALSE,
2001,7,31,2,1999,2.1866755556742,FALSE,
2001,7,31,3,1999,4.11598662193462,FALSE,
2001,7,31,4,1999,4.00286635529183,FALSE,2.52820096018607
2001,7,31,1,2000,3.84502351856724,FALSE,
2001,7,31,2,2000,3.02277283784982,FALSE,
2001,7,31,3,2000,2.39410547984213,FALSE,
2001,7,31,4,2000,2.43192810853234,FALSE,3.37643084908619
2001,7,31,1,2001,2.20515515349451,FALSE,
2001,7,31,2,2001,,TRUE,
2001,7,31,3,2001,,TRUE,
2001,7,31,4,2001,,TRUE,
2001,8,31,2,1991,1.08135113756724,FALSE,
2001,8,31,3,1991,-0.0169395832674168,FALSE,
2001,8,31,4,1991,3.86028875985958,FALSE,
2001,8,31,1,1992,6.01759821926522,FALSE,
2001,8,31,2,1992,-2.48899087981659,FALSE,
2001,8,31,3,1992,-0.908697812907111,FALSE,
2001,8,31,4,1992,-1.14652181647289,FALSE,
2001,8,31,1,1993,-2.86109101661087,FALSE,
2001,8,31,2,1993,0.301059793002567,FALSE,
2001,8,31,3,1993,1.54294792637655,FALSE,
2001,8,31,4,1993,1.62932190995664,FALSE,-0.861355029208777
2001,8,31,1,1994,3.61471200474433,FALSE,
2001,8,31,2,1994,2.22191706702244,FALSE,
2001,8,31,3,1994,2.85778965287489,FALSE,
2001,8,31,4,1994,3.38045585698541,FALSE,2.4038992559364
2001,8,31,1,1995,2.21457864675907,FALSE,
2001,8,31,2,1995,2.18009776647807,FALSE,
2001,8,31,3,1995,0.413072824375704,FALSE,
2001,8,31,4,1995,0.922298218968831,FALSE,2.19500962966739
2001,8,31,1,1996,1.32240040106226,FALSE,
2001,8,31,2,1996,2.01469288041298,FALSE,
2001,8,31,3,1996,2.53722220976198,FALSE,
2001,8,31,4,1996,0.601959944668584,FALSE,1.42240600583465
2001,8,31,1,1997,1.15716726294,FALSE,
2001,8,31,2,1997,4.832350331747,FALSE,
2001,8,31,3,1997,2.75135947650118,FALSE,
2001,8,31,4,1997,3.62429539138061,FALSE,2.31477854624291
2001,8,31,1,1998,3.83512185520549,FALSE,
2001,8,31,2,1998,1.373338851907,FALSE,
2001,8,31,3,1998,2.24435213020706,FALSE,
2001,8,31,4,1998,0.882114399433442,FALSE,2.86696032688185
2001,8,31,1,1999,3.41209063640835,FALSE,
2001,8,31,2,1999,2.07100897825991,FALSE,
2001,8,31,3,1999,4.01443095623535,FALSE,
2001,8,31,4,1999,4.0920859996628,FALSE,2.52820113810275
2001,8,31,1,2000,3.75637945658089,FALSE,
2001,8,31,2,2000,3.17804551457606,FALSE,
2001,8,31,3,2000,2.36536613610974,FALSE,
2001,8,31,4,2000,2.42528734565577,FALSE,3.37638802870124
2001,8,31,1,2001,2.35745927445967,FALSE,
2001,8,31,2,2001,,TRUE,
2001,8,31,3,2001,,TRUE,
2001,8,31,4,2001,,TRUE,
2001,9,30,2,1991,0.841332714400411,FALSE,
2001,9,30,3,1991,0.292186238986236,FALSE,
2001,9,30,4,1991,3.68470964114307,FALSE,
2001,9,30,1,1992,6.06693048044398,FALSE,
2001,9,30,2,1992,-2.72207460449393,FALSE,
2001,9,30,3,1992,-0.626125724150328,FALSE,
2001,9,30,4,1992,-1.35108610362086,FALSE,
2001,9,30,1,1993,-2.72852484101649,FALSE,
2001,9,30,2,1993,0.161374048233709,FALSE,
2001,9,30,3,1993,1.79007511522771,FALSE,
2001,9,30,4,1993,1.41953252002818,FALSE,-0.854229962877096
2001,9,30,1,1994,3.41086556010453,FALSE,
2001,9,30,2,1994,2.32592621854888,FALSE,
2001,9,30,3,1994,2.98886113363803,FALSE,
2001,9,30,4,1994,3.30255754421043,FALSE,2.36713711005461
2001,9,30,1,1995,2.14354500889271,FALSE,
2001,9,30,2,1995,2.49469266604576,FALSE,
2001,9,30,3,1995,0.404027558746245,FALSE,
2001,9,30,4,1995,0.827940929629678,FALSE,2.23731239775924
2001,9,30,1,1996,1.12207578076406,FALSE,
2001,9,30,2,1996,2.40174720864823,FALSE,
2001,9,30,3,1996,2.32072270311448,FALSE,
2001,9,30,4,1996,0.683361866531751,FALSE,1.42312730155909
2001,9,30,1,1997,1.11341834296861,FALSE,
2001,9,30,2,1997,4.76930198987045,FALSE,
2001,9,30,3,1997,2.69049087496911,FALSE,
2001,9,30,4,1997,3.92622136013234,FALSE,2.31594438316227
2001,9,30,1,1998,3.56600240421159,FALSE,
2001,9,30,2,1998,1.52315176565991,FALSE,
2001,9,30,3,1998,2.05970231992401,FALSE,
2001,9,30,4,1998,0.639755161962263,FALSE,2.83438828885305
2001,9,30,1,1999,3.92114602390967,FALSE,
2001,9,30,2,1999,2.02195374370384,FALSE,
2001,9,30,3,1999,4.48486091449987,FALSE,
2001,9,30,4,1999,3.97973979890973,FALSE,2.63635449245252
2001,9,30,1,2000,3.96621216858499,FALSE,
2001,9,30,2,2000,3.122870020304,FALSE,
2001,9,30,3,2000,2.0006956078134,FALSE,
2001,9,30,4,2000,2.41662200697821,FALSE,3.4051373037326
2001,9,30,1,2001,2.06303883718004,FALSE,
2001,9,30,2,2001,0.201769249791095,FALSE,
2001,9,30,3,2001,,TRUE,
2001,9,30,4,2001,,TRUE,
2001,10,31,2,1991,0.841332714400411,FALSE,
2001,10,31,3,1991,0.292186238986236,FALSE,
2001,10,31,4,1991,3.68470964114307,FALSE,
2001,10,31,1,1992,6.06693048044398,FALSE,
2001,10,31,2,1992,-2.72207460449393,FALSE,
2001,10,31,3,1992,-0.626125724150328,FALSE,
2001,10,31,4,1992,-1.35108610362086,FALSE,
2001,10,31,1,1993,-2.72852484101649,FALSE,
2001,10,31,2,1993,0.161374048233709,FALSE,
2001,10,31,3,1993,1.79007511522771,FALSE,
2001,10,31,4,1993,1.41953252002818,FALSE,-0.854229962877096
2001,10,31,1,1994,3.41086556010453,FALSE,
2001,10,31,2,1994,2.32592621854888,FALSE,
2001,10,31,3,1994,2.98886113363803,FALSE,
2001,10,31,4,1994,3.30255754421043,FALSE,2.36713711005461
2001,10,31,1,1995,2.14354500889271,FALSE,
2001,10,31,2,1995,2.49469266604576,FALSE,
2001,10,31,3,1995,0.404027558746245,FALSE,
2001,10,31,4,1995,0.827940929629678,FALSE,2.23731239775924
2001,10,31,1,1996,1.12207578076406,FALSE,
2001,10,31,2,1996,2.40174720864823,FALSE,
2001,10,31,3,1996,2.32072270311448,FALSE,
2001,10,31,4,1996,0.683361866531751,FALSE,1.42312730155909
2001,10,31,1,1997,1.11341834296861,FALSE,
2001,10,31,2,1997,4.76930198987045,FALSE,
2001,10,31,3,1997,2.69049087496911,FALSE,
2001,10,31,4,1997,3.92622136013234,FALSE,2.31594438316227
2001,10,31,1,1998,3.56600240421159,FALSE,
2001,10,31,2,1998,1.52315176565991,FALSE,
2001,10,31,3,1998,2.05970231992401,FALSE,
2001,10,31,4,1998,0.639755161962263,FALSE,2.83438828885305
2001,10,31,1,1999,3.92114602390967,FALSE,
2001,10,31,2,1999,2.02195374370384,FALSE,
2001,10,31,3,1999,4.48486091449987,FALSE,
2001,10,31,4,1999,3.97973979890973,FALSE,2.63635449245252
2001,10,31,1,2000,3.96621216858499,FALSE,
2001,10,31,2,2000,3.122870020304,FALSE,
2001,10,31,3,2000,2.0006956078134,FALSE,
2001,10,31,4,2000,2.41662200697821,FALSE,3.4051373037326
2001,10,31,1,2001,2.06303883718004,FALSE,
2001,10,31,2,2001,0.201769249791095,FALSE,
2001,10,31,3,2001,,TRUE,
2001,10,31,4,2001,,TRUE,
2001,11,30,2,1991,0.826895509254677,FALSE,
2001,11,30,3,1991,0.230060490920181,FALSE,
2001,11,30,4,1991,3.72589521448536,FALSE,
2001,11,30,1,1992,6.03463816090324,FALSE,
2001,11,30,2,1992,-2.80754843857051,FALSE,
2001,11,30,3,1992,-0.664829897832187,FALSE,
2001,11,30,4,1992,-1.28048891377872,FALSE,
2001,11,30,1,1993,-2.67508180764632,FALSE,
2001,11,30,2,1993,0.13180414926246,FALSE,
2001,11,30,3,1993,1.85337563765786,FALSE,
2001,11,30,4,1993,1.31147933649682,FALSE,-0.842026132440921
2001,11,30,1,1994,3.61072844414394,FALSE,
2001,11,30,2,1994,1.97302501710628,FALSE,
2001,11,30,3,1994,2.99321426262205,FALSE,
2001,11,30,4,1994,3.48303183078535,FALSE,2.34748603266628
2001,11,30,1,1995,1.96485389324383,FALSE,
2001,11,30,2,1995,2.72692324144741,FALSE,
2001,11,30,3,1995,0.49370221110423,FALSE,
2001,11,30,4,1995,0.57370259011964,FALSE,2.24328939971314
2001,11,30,1,1996,1.12832360921509,FALSE,
2001,11,30,2,1996,2.54427374009882,FALSE,
2001,11,30,3,1996,2.20632456491232,FALSE,
2001,11,30,4,1996,0.806562515820142,FALSE,1.42235443576608
2001,11,30,1,1997,1.22140924010326,FALSE,
2001,11,30,2,1997,4.56556006164524,FALSE,
2001,11,30,3,1997,2.73852610796739,FALSE,
2001,11,30,4,1997,4.03637234912262,FALSE,2.33662989614065
2001,11,30,1,1998,3.54857143052616,FALSE,
2001,11,30,2,1998,1.60432316259735,FALSE,
2001,11,30,3,1998,2.09753788214615,FALSE,
2001,11,30,4,1998,0.64364517487383,FALSE,2.86449901526038
2001,11,30,1,1999,3.6614354259018,FALSE,
2001,11,30,2,1999,2.277791914628,FALSE,
2001,11,30,3,1999,4.51125156113943,FALSE,
2001,11,30,4,1999,3.93194926611447,FALSE,2.63139381659301
2001,11,30,1,2000,3.68578388969572,FALSE,
2001,11,30,2,2000,3.37183655789,FALSE,
2001,11,30,3,2000,1.8733580142565,FALSE,
2001,11,30,4,2000,2.48658105516149,FALSE,3.38079139024221
2001,11,30,1,2001,1.99771693451605,FALSE,
2001,11,30,2,2001,0.344061185137323,FALSE,
2001,11,30,3,2001,,TRUE,
2001,11,30,4,2001,,TRUE,
2001,12,31,2,1991,0.742142212305152,FALSE,
2001,12,31,3,1991,0.268200000827212,FALSE,
2001,12,31,4,1991,3.82022940707094,FALSE,
2001,12,31,1,1992,5.90925337701715,FALSE,
2001,12,31,2,1992,-2.68131949792176,FALSE,
2001,12,31,3,1992,-0.826490125677681,FALSE,
2001,12,31,4,1992,-1.14660403126766,FALSE,
2001,12,31,1,1993,-2.68611156197771,FALSE,
2001,12,31,2,1993,0.0565558984629622,FALSE,
2001,12,31,3,1993,1.78118513866556,FALSE,
2001,12,31,4,1993,1.54337786662402,FALSE,-0.840323031541246
2001,12,31,1,1994,3.53139355203718,FALSE,
2001,12,31,2,1994,1.89929396154855,FALSE,
2001,12,31,3,1994,3.01419371429839,FALSE,
2001,12,31,4,1994,3.36153944687025,FALSE,2.33895626338585
2001,12,31,1,1995,1.98781955531187,FALSE,
2001,12,31,2,1995,2.75703540512031,FALSE,
2001,12,31,3,1995,0.580136080980509,FALSE,
2001,12,31,4,1995,0.601155352389338,FALSE,2.24301386596704
2001,12,31,1,1996,0.982036561426947,FALSE,
2001,12,31,2,1996,2.71332076485076,FALSE,
2001,12,31,3,1996,2.16568562540456,FALSE,
2001,12,31,4,1996,0.763363490809454,FALSE,1.42715899877435
2001,12,31,1,1997,1.36275116811306,FALSE,
2001,12,31,2,1997,4.47783525681538,FALSE,
2001,12,31,3,1997,2.63946907005797,FALSE,
2001,12,31,4,1997,4.09849575483685,FALSE,2.34475392105351
2001,12,31,1,1998,3.62541929634577,FALSE,
2001,12,31,2,1998,1.63615515407727,FALSE,
2001,12,31,3,1998,2.02859436086245,FALSE,
2001,12,31,4,1998,0.54179337520861,FALSE,2.86821525288536
2001,12,31,1,1999,3.73481250667911,FALSE,
2001,12,31,2,1999,2.39387770401616,FALSE,
2001,12,31,3,1999,4.4851492073912,FALSE,
2001,12,31,4,1999,3.96834345197199,FALSE,2.64442293698333
2001,12,31,1,2000,3.51941360992301,FALSE,
2001,12,31,2,2000,3.54970613337475,FALSE,
2001,12,31,3,2000,1.87014333502742,FALSE,
2001,12,31,4,2000,2.37732271028879,FALSE,3.37615826817732
2001,12,31,1,2001,2.09132922558055,FALSE,
2001,12,31,2,2001,0.286681828233037,FALSE,
2001,12,31,3,2001,0.385792469003743,FALSE,
2001,12,31,4,2001,,TRUE,
2002,1,31,2,1991,0.786385002418832,FALSE,
2002,1,31,3,1991,0.288195043804129,FALSE,
2002,1,31,4,1991,3.69325564874532,FALSE,
2002,1,31,1,1992,5.97145724898835,FALSE,
2002,1,31,2,1992,-2.79774822990261,FALSE,
2002,1,31,3,1992,-0.723737344476427,FALSE,
2002,1,31,4,1992,-0.948044383700275,FALSE,
2002,1,31,1,1993,-2.87990289662321,FALSE,
2002,1,31,2,1993,0.0643690235962779,FALSE,
2002,1,31,3,1993,1.82521421678954,FALSE,
2002,1,31,4,1993,1.54027352980426,FALSE,-0.840322840988661
2002,1,31,1,1994,3.58471206957427,FALSE,
2002,1,31,2,1994,1.84282664278237,FALSE,
2002,1,31,3,1994,2.93809189475087,FALSE,
2002,1,31,4,1994,3.38692934308438,FALSE,2.33895626338587
2002,1,31,1,1995,2.00543866781941,FALSE,
2002,1,31,2,1995,2.71771075129093,FALSE,
2002,1,31,3,1995,0.605258348529514,FALSE,
2002,1,31,4,1995,0.725899239844985,FALSE,2.24302674290566
2002,1,31,1,1996,0.88695654637565,FALSE,
2002,1,31,2,1996,2.71309327189351,FALSE,
2002,1,31,3,1996,2.14173184003821,FALSE,
2002,1,31,4,1996,0.804261679394935,FALSE,1.42711492369727
2002,1,31,1,1997,1.37415590078684,FALSE,
2002,1,31,2,1997,4.48490669018675,FALSE,
2002,1,31,3,1997,2.53794313508893,FALSE,
2002,1,31,4,1997,4.19256644987249,FALSE,2.34679855784861
2002,1,31,1,1998,3.59520478034243,FALSE,
2002,1,31,2,1998,1.6559111335777,FALSE,
2002,1,31,3,1998,2.08758882679774,FALSE,
2002,1,31,4,1998,0.486926641901331,FALSE,2.87356297844765
2002,1,31,1,1999,3.68906050600992,FALSE,
2002,1,31,2,1999,2.52550991846712,FALSE,
2002,1,31,3,1999,4.41874542105116,FALSE,
2002,1,31,4,1999,3.94443374673268,FALSE,2.64633809971848
2002,1,31,1,2000,3.60552915185686,FALSE,
2002,1,31,2,2000,3.55783336618241,FALSE,
2002,1,31,3,2000,1.65103910582047,FALSE,
2002,1,31,4,2000,2.35250056722371,FALSE,3.36523313581993
2002,1,31,1,2001,2.32500340291779,FALSE,
2002,1,31,2,2001,0.252532341855338,FALSE,
2002,1,31,3,2001,0.496624005674784,FALSE,
2002,1,31,4,2001,,TRUE,
2002,1,31,1,2002,,TRUE,
2002,1,31,2,2002,,TRUE,
2002,1,31,3,2002,,TRUE,
2002,1,31,4,2002,,TRUE,
2002,2,28,2,1991,0.786385002418832,FALSE,
2002,2,28,3,1991,0.288195043804129,FALSE,
2002,2,28,4,1991,3.69325564874532,FALSE,
2002,2,28,1,1992,5.97145724898835,FALSE,
2002,2,28,2,1992,-2.79774822990261,FALSE,
2002,2,28,3,1992,-0.723737344476427,FALSE,
2002,2,28,4,1992,-0.948044383700275,FALSE,
2002,2,28,1,1993,-2.87990289662321,FALSE,
2002,2,28,2,1993,0.0643690235962779,FALSE,
2002,2,28,3,1993,1.82521421678954,FALSE,
2002,2,28,4,1993,1.54027352980426,FALSE,-0.840322840988661
2002,2,28,1,1994,3.58471206957427,FALSE,
2002,2,28,2,1994,1.84282664278237,FALSE,
2002,2,28,3,1994,2.93809189475087,FALSE,
2002,2,28,4,1994,3.38692934308438,FALSE,2.33895626338587
2002,2,28,1,1995,2.00543866781941,FALSE,
2002,2,28,2,1995,2.71771075129093,FALSE,
2002,2,28,3,1995,0.605258348529514,FALSE,
2002,2,28,4,1995,0.725899239844985,FALSE,2.24302674290566
2002,2,28,1,1996,0.88695654637565,FALSE,
2002,2,28,2,1996,2.71309327189351,FALSE,
2002,2,28,3,1996,2.14173184003821,FALSE,
2002,2,28,4,1996,0.804261679394935,FALSE,1.42711492369727
2002,2,28,1,1997,1.37415590078684,FALSE,
2002,2,28,2,1997,4.48490669018675,FALSE,
2002,2,28,3,1997,2.53794313508893,FALSE,
2002,2,28,4,1997,4.19256644987249,FALSE,2.34679855784861
2002,2,28,1,1998,3.59520478034243,FALSE,
2002,2,28,2,1998,1.6559111335777,FALSE,
2002,2,28,3,1998,2.08758882679774,FALSE,
2002,2,28,4,1998,0.486926641901331,FALSE,2.87356297844765
2002,2,28,1,1999,3.68906050600992,FALSE,
2002,2,28,2,1999,2.52550991846712,FALSE,
2002,2,28,3,1999,4.41874542105116,FALSE,
2002,2,28,4,1999,3.94443374673268,FALSE,2.64633809971848
2002,2,28,1,2000,3.60552915185686,FALSE,
2002,2,28,2,2000,3.55783336618241,FALSE,
2002,2,28,3,2000,1.65103910582047,FALSE,
2002,2,28,4,2000,2.35250056722371,FALSE,3.36523313581993
2002,2,28,1,2001,2.32500340291779,FALSE,
2002,2,28,2,2001,0.252532341855338,FALSE,
2002,2,28,3,2001,0.496624005674784,FALSE,
2002,2,28,4,2001,,TRUE,
2002,2,28,1,2002,,TRUE,
2002,2,28,2,2002,,TRUE,
2002,2,28,3,2002,,TRUE,
2002,2,28,4,2002,,TRUE,
2002,3,31,2,1991,0.791194054964572,FALSE,
2002,3,31,3,1991,0.289261964666565,FALSE,
2002,3,31,4,1991,3.68869198911346,FALSE,
2002,3,31,1,1992,5.96953026353801,FALSE,
2002,3,31,2,1992,-2.79762707910471,FALSE,
2002,3,31,3,1992,-0.722336591836825,FALSE,
2002,3,31,4,1992,-0.952704396219783,FALSE,
2002,3,31,1,1993,-2.88273414198299,FALSE,
2002,3,31,2,1993,0.0658083814104149,FALSE,
2002,3,31,3,1993,1.8372648041949,FALSE,
2002,3,31,4,1993,1.54120851738055,FALSE,-0.839941622116436
2002,3,31,1,1994,3.58098198147026,FALSE,
2002,3,31,2,1994,1.83958156739161,FALSE,
2002,3,31,3,1994,2.93754585560444,FALSE,
2002,3,31,4,1994,3.38543337129269,FALSE,2.33903673262592
2002,3,31,1,1995,2.00393086843522,FALSE,
2002,3,31,2,1995,2.72522052207989,FALSE,
2002,3,31,3,1995,0.601242596929663,FALSE,
2002,3,31,4,1995,0.733980267188739,FALSE,2.24351085586338
2002,3,31,1,1996,0.886536201486066,FALSE,
2002,3,31,2,1996,2.70894098174717,FALSE,
2002,3,31,3,1996,2.13074108015476,FALSE,
2002,3,31,4,1996,0.81490455784492,FALSE,1.42702033337554
2002,3,31,1,1997,1.36973911890961,FALSE,
2002,3,31,2,1997,4.48181521481041,FALSE,
2002,3,31,3,1997,2.52983320337041,FALSE,
2002,3,31,4,1997,4.21115718165805,FALSE,2.34564517524847
2002,3,31,1,1998,3.58719594713985,FALSE,
2002,3,31,2,1998,1.6516907901911,FALSE,
2002,3,31,3,1998,2.081767768581,FALSE,
2002,3,31,4,1998,0.509029507417758,FALSE,2.87368619439627
2002,3,31,1,1999,3.66700224797512,FALSE,
2002,3,31,2,1999,2.5258463015212,FALSE,
2002,3,31,3,1999,4.42390577531273,FALSE,
2002,3,31,4,1999,3.98232108035077,FALSE,2.64718620975852
2002,3,31,1,2000,3.62410238081641,FALSE,
2002,3,31,2,2000,3.56746726403421,FALSE,
2002,3,31,3,2000,1.59424557655972,FALSE,
2002,3,31,4,2000,2.37539358051737,FALSE,3.37355274726725
2002,3,31,1,2001,2.22905036541663,FALSE,
2002,3,31,2,2001,0.274394080162121,FALSE,
2002,3,31,3,2001,0.575357921956687,FALSE,
2002,3,31,4,2001,,TRUE,
2002,3,31,1,2002,,TRUE,
2002,3,31,2,2002,,TRUE,
2002,3,31,3,2002,,TRUE,
2002,3,31,4,2002,,TRUE,
2002,4,30,2,1991,0.776908417843236,FALSE,
2002,4,30,3,1991,0.225689915502469,FALSE,
2002,4,30,4,1991,3.71561726558081,FALSE,
2002,4,30,1,1992,6.01893356468819,FALSE,
2002,4,30,2,1992,-2.81194330843926,FALSE,
2002,4,30,3,1992,-0.770033722316832,FALSE,
2002,4,30,4,1992,-0.936530950474157,FALSE,
2002,4,30,1,1993,-2.83792400619181,FALSE,
2002,4,30,2,1993,0.032447975194283,FALSE,
2002,4,30,3,1993,1.83991390890552,FALSE,
2002,4,30,4,1993,1.51358535541912,FALSE,-0.839938931756801
2002,4,30,1,1994,3.60233648005317,FALSE,
2002,4,30,2,1994,1.86559523521346,FALSE,
2002,4,30,3,1994,2.88508884116343,FALSE,
2002,4,30,4,1994,3.43945734810545,FALSE,2.33903395601596
2002,4,30,1,1995,1.99937686420095,FALSE,
2002,4,30,2,1995,2.72954032024495,FALSE,
2002,4,30,3,1995,0.558504595099341,FALSE,
2002,4,30,4,1995,0.744095366510211,FALSE,2.24350063004755
2002,4,30,1,1996,0.780341221206848,FALSE,
2002,4,30,2,1996,2.85991541894535,FALSE,
2002,4,30,3,1996,2.10998531818669,FALSE,
2002,4,30,4,1996,0.885786834255153,FALSE,1.42701899440414
2002,4,30,1,1997,1.23804014289481,FALSE,
2002,4,30,2,1997,4.52495430723028,FALSE,
2002,4,30,3,1997,2.5092033556706,FALSE,
2002,4,30,4,1997,4.33538722378974,FALSE,2.34566077970892
2002,4,30,1,1998,3.53989334836493,FALSE,
2002,4,30,2,1998,1.57094190546569,FALSE,
2002,4,30,3,1998,2.02485233533483,FALSE,
2002,4,30,4,1998,0.645572083094481,FALSE,2.87107685630639
2002,4,30,1,1999,3.66898844239227,FALSE,
2002,4,30,2,1999,2.35397182857779,FALSE,
2002,4,30,3,1999,4.45215706398308,FALSE,
2002,4,30,4,1999,4.16833169045137,FALSE,2.64428047095693
2002,4,30,1,2000,3.47137380775711,FALSE,
2002,4,30,2,2000,3.49191228614774,FALSE,
2002,4,30,3,2000,1.62286699920469,FALSE,
2002,4,30,4,2000,2.6009432289396,FALSE,3.36647849470941
2002,4,30,1,2001,2.05083219419673,FALSE,
2002,4,30,2,2001,0.288494506647408,FALSE,
2002,4,30,3,2001,0.757582858574812,FALSE,
2002,4,30,4,2001,-0.660316880827816,FALSE,1.52078036134014
2002,4,30,1,2002,,TRUE,
2002,4,30,2,2002,,TRUE,
2002,4,30,3,2002,,TRUE,
2002,4,30,4,2002,,TRUE,
2002,5,31,2,1991,0.772550419581952,FALSE,
2002,5,31,3,1991,0.229387204457709,FALSE,
2002,5,31,4,1991,3.71705660254427,FALSE,
2002,5,31,1,1992,6.01958049919698,FALSE,
2002,5,31,2,1992,-2.81388326053564,FALSE,
2002,5,31,3,1992,-0.769823316885876,FALSE,
2002,5,31,4,1992,-0.937152270939345,FALSE,
2002,5,31,1,1993,-2.84158033832992,FALSE,
2002,5,31,2,1993,0.0345705586654033,FALSE,
2002,5,31,3,1993,1.83911435799518,FALSE,
2002,5,31,4,1993,1.51620912941048,FALSE,-0.840628493754947
2002,5,31,1,1994,3.6040839140483,FALSE,
2002,5,31,2,1994,1.86379167857105,FALSE,
2002,5,31,3,1994,2.88826501936186,FALSE,
2002,5,31,4,1994,3.43662772435986,FALSE,2.33987567578358
2002,5,31,1,1995,2.00185714664378,FALSE,
2002,5,31,2,1995,2.72672021438505,FALSE,
2002,5,31,3,1995,0.560007446083466,FALSE,
2002,5,31,4,1995,0.740765588498604,FALSE,2.24333159982686
2002,5,31,1,1996,0.779707490986104,FALSE,
2002,5,31,2,1996,2.86264599405364,FALSE,
2002,5,31,3,1996,2.11045100617748,FALSE,
2002,5,31,4,1996,0.889056499496488,FALSE,1.42701880654943
2002,5,31,1,1997,1.2347294849957,FALSE,
2002,5,31,2,1997,4.52176635586732,FALSE,
2002,5,31,3,1997,2.51189454728176,FALSE,
2002,5,31,4,1997,4.33922529012518,FALSE,2.34566041449706
2002,5,31,1,1998,3.53510390895511,FALSE,
2002,5,31,2,1998,1.56684092416035,FALSE,
2002,5,31,3,1998,2.0293338727214,FALSE,
2002,5,31,4,1998,0.654236252165563,FALSE,2.87107758023466
2002,5,31,1,1999,3.67033068237228,FALSE,
2002,5,31,2,1999,2.35758176831802,FALSE,
2002,5,31,3,1999,4.45174344565353,FALSE,
2002,5,31,4,1999,4.1708964995083,FALSE,2.64736129671144
2002,5,31,1,2000,3.44833217061671,FALSE,
2002,5,31,2,2000,3.48896357177004,FALSE,
2002,5,31,3,2000,1.6207388547306,FALSE,
2002,5,31,4,2000,2.62875436790844,FALSE,3.36231308763748
2002,5,31,1,2001,2.03826211688809,FALSE,
2002,5,31,2,2001,0.301295431693549,FALSE,
2002,5,31,3,2001,0.706858806386035,FALSE,
2002,5,31,4,2001,-0.661936849014122,FALSE,1.51828670821219
2002,5,31,1,2002,,TRUE,
2002,5,31,2,2002,,TRUE,
2002,5,31,3,2002,,TRUE,
2002,5,31,4,2002,,TRUE,
2002,6,30,2,1991,0.667291044705221,FALSE,
2002,6,30,3,1991,0.306184198387238,FALSE,
2002,6,30,4,1991,3.54926970265108,FALSE,
2002,6,30,1,1992,5.99779741645703,FALSE,
2002,6,30,2,1992,-2.85420737178148,FALSE,
2002,6,30,3,1992,-0.45906078336696,FALSE,
2002,6,30,4,1992,-0.950638774360657,FALSE,
2002,6,30,1,1993,-3.0240936913276,FALSE,
2002,6,30,2,1993,0.178850920303453,FALSE,
2002,6,30,3,1993,1.90925973917375,FALSE,
2002,6,30,4,1993,1.46421617396748,FALSE,-0.821284507217301
2002,6,30,1,1994,3.45342580787114,FALSE,
2002,6,30,2,1994,2.07736416364273,FALSE,
2002,6,30,3,1994,2.94263239608419,FALSE,
2002,6,30,4,1994,3.44290711466555,FALSE,2.35831047580424
2002,6,30,1,1995,1.85697704427168,FALSE,
2002,6,30,2,1995,2.56535102147619,FALSE,
2002,6,30,3,1995,0.752675748222509,FALSE,
2002,6,30,4,1995,0.988278789111274,FALSE,2.23820354541782
2002,6,30,1,1996,0.537155187826954,FALSE,
2002,6,30,2,1996,2.82662062212806,FALSE,
2002,6,30,3,1996,2.15523863275591,FALSE,
2002,6,30,4,1996,0.835145577286078,FALSE,1.42231217567257
2002,6,30,1,1997,1.30502380744921,FALSE,
2002,6,30,2,1997,4.46873552964069,FALSE,
2002,6,30,3,1997,2.52134936572452,FALSE,
2002,6,30,4,1997,4.30342612208166,FALSE,2.34572536399214
2002,6,30,1,1998,3.30733470002604,FALSE,
2002,6,30,2,1998,1.75028353311579,FALSE,
2002,6,30,3,1998,2.1789257400268,FALSE,
2002,6,30,4,1998,0.839328696405639,FALSE,2.87147331198863
2002,6,30,1,1999,3.31138388193228,FALSE,
2002,6,30,2,1999,2.57883287392817,FALSE,
2002,6,30,3,1999,4.84087533194024,FALSE,
2002,6,30,4,1999,4.16247388400284,FALSE,2.71328988292876
2002,6,30,1,2000,3.70303378882957,FALSE,
2002,6,30,2,2000,3.56384715335505,FALSE,
2002,6,30,3,2000,1.66434112720715,FALSE,
2002,6,30,4,2000,2.78226191301132,FALSE,3.51514329610372
2002,6,30,1,2001,2.03645957584742,FALSE,
2002,6,30,2,2001,0.123589630967458,FALSE,
2002,6,30,3,2001,0.393459944241004,FALSE,
2002,6,30,4,2001,-1.15449083883461,FALSE,1.45134526747714
2002,6,30,1,2002,0.871087304173601,FALSE,
2002,6,30,2,2002,,TRUE,
2002,6,30,3,2002,,TRUE,
2002,6,30,4,2002,,TRUE,
2002,7,31,2,1991,0.667291044705221,FALSE,
2002,7,31,3,1991,0.306184198387238,FALSE,
2002,7,31,4,1991,3.54926970265108,FALSE,
2002,7,31,1,1992,5.99779741645703,FALSE,
2002,7,31,2,1992,-2.85420737178148,FALSE,
2002,7,31,3,1992,-0.45906078336696,FALSE,
2002,7,31,4,1992,-0.950638774360657,FALSE,
2002,7,31,1,1993,-3.0240936913276,FALSE,
2002,7,31,2,1993,0.178850920303453,FALSE,
2002,7,31,3,1993,1.90925973917375,FALSE,
2002,7,31,4,1993,1.46421617396748,FALSE,-0.821284507217301
2002,7,31,1,1994,3.45342580787114,FALSE,
2002,7,31,2,1994,2.07736416364273,FALSE,
2002,7,31,3,1994,2.94263239608419,FALSE,
2002,7,31,4,1994,3.44290711466555,FALSE,2.35831047580424
2002,7,31,1,1995,1.85697704427168,FALSE,
2002,7,31,2,1995,2.56535102147619,FALSE,
2002,7,31,3,1995,0.752675748222509,FALSE,
2002,7,31,4,1995,0.988278789111274,FALSE,2.23820354541782
2002,7,31,1,1996,0.537155187826954,FALSE,
2002,7,31,2,1996,2.82662062212806,FALSE,
2002,7,31,3,1996,2.15523863275591,FALSE,
2002,7,31,4,1996,0.835145577286078,FALSE,1.42231217567257
2002,7,31,1,1997,1.30502380744921,FALSE,
2002,7,31,2,1997,4.46873552964069,FALSE,
2002,7,31,3,1997,2.52134936572452,FALSE,
2002,7,31,4,1997,4.30342612208166,FALSE,2.34572536399214
2002,7,31,1,1998,3.30733470002604,FALSE,
2002,7,31,2,1998,1.75028353311579,FALSE,
2002,7,31,3,1998,2.1789257400268,FALSE,
2002,7,31,4,1998,0.839328696405639,FALSE,2.87147331198863
2002,7,31,1,1999,3.31138388193228,FALSE,
2002,7,31,2,1999,2.57883287392817,FALSE,
2002,7,31,3,1999,4.84087533194024,FALSE,
2002,7,31,4,1999,4.16247388400284,FALSE,2.71328988292876
2002,7,31,1,2000,3.70303378882957,FALSE,
2002,7,31,2,2000,3.56384715335505,FALSE,
2002,7,31,3,2000,1.66434112720715,FALSE,
2002,7,31,4,2000,2.78226191301132,FALSE,3.51514329610372
2002,7,31,1,2001,2.03645957584742,FALSE,
2002,7,31,2,2001,0.123589630967458,FALSE,
2002,7,31,3,2001,0.393459944241004,FALSE,
2002,7,31,4,2001,-1.15449083883461,FALSE,1.45134526747714
2002,7,31,1,2002,0.871087304173601,FALSE,
2002,7,31,2,2002,,TRUE,
2002,7,31,3,2002,,TRUE,
2002,7,31,4,2002,,TRUE,
2002,8,31,2,1991,0.668098370083969,FALSE,
2002,8,31,3,1991,0.316917724256416,FALSE,
2002,8,31,4,1991,3.53497235192279,FALSE,
2002,8,31,1,1992,5.98808626505478,FALSE,
2002,8,31,2,1992,-2.83945569762029,FALSE,
2002,8,31,3,1992,-0.458965857909721,FALSE,
2002,8,31,4,1992,-0.940497084780012,FALSE,
2002,8,31,1,1993,-3.03774698040185,FALSE,
2002,8,31,2,1993,0.187073840443386,FALSE,
2002,8,31,3,1993,1.89676928235649,FALSE,
2002,8,31,4,1993,1.47434326320501,FALSE,-0.821284394322874
2002,8,31,1,1994,3.45193886806519,FALSE,
2002,8,31,2,1994,2.07326114941715,FALSE,
2002,8,31,3,1994,2.94246675309005,FALSE,
2002,8,31,4,1994,3.44754481365595,FALSE,2.35831043547681
2002,8,31,1,1995,1.85927684087999,FALSE,
2002,8,31,2,1995,2.55486824925226,FALSE,
2002,8,31,3,1995,0.751098154809737,FALSE,
2002,8,31,4,1995,1.00410720317983,FALSE,2.23820365518685
2002,8,31,1,1996,0.523323338773452,FALSE,
2002,8,31,2,1996,2.86027503084068,FALSE,
2002,8,31,3,1996,2.11975424777053,FALSE,
2002,8,31,4,1996,0.827900159963213,FALSE,1.42231391080085
2002,8,31,1,1997,1.31666169706892,FALSE,
2002,8,31,2,1997,4.47515111279826,FALSE,
2002,8,31,3,1997,2.54695674360386,FALSE,
2002,8,31,4,1997,4.24533542011445,FALSE,2.34573474969
2002,8,31,1,1998,3.34974403301194,FALSE,
2002,8,31,2,1998,1.75941214132498,FALSE,
2002,8,31,3,1998,2.15934433146363,FALSE,
2002,8,31,4,1998,0.79739137517687,FALSE,2.87147654525821
2002,8,31,1,1999,3.3781199153577,FALSE,
2002,8,31,2,1999,2.54279543687068,FALSE,
2002,8,31,3,1999,4.85311363361143,FALSE,
2002,8,31,4,1999,4.13966210462946,FALSE,2.7132866145694
2002,8,31,1,2000,3.68209707410077,FALSE,
2002,8,31,2,2000,3.62563689378281,FALSE,
2002,8,31,3,2000,1.6777623945325,FALSE,
2002,8,31,4,2000,2.73288143852664,FALSE,3.5151370381953
2002,8,31,1,2001,1.76706170295464,FALSE,
2002,8,31,2,2001,0.195809853153062,FALSE,
2002,8,31,3,2001,0.758813556988103,FALSE,
2002,8,31,4,2001,-1.01268792899454,FALSE,1.44945685463689
2002,8,31,1,2002,1.26285916977775,FALSE,
2002,8,31,2,2002,,TRUE,
2002,8,31,3,2002,,TRUE,
2002,8,31,4,2002,,TRUE,
2002,9,30,2,1991,0.60702079998507,FALSE,
2002,9,30,3,1991,0.0836117815028459,FALSE,
2002,9,30,4,1991,3.61804415517151,FALSE,
2002,9,30,1,1992,5.8793902782831,FALSE,
2002,9,30,2,1992,-2.62666452122354,FALSE,
2002,9,30,3,1992,-0.546466672417323,FALSE,
2002,9,30,4,1992,-0.725766871994915,FALSE,
2002,9,30,1,1993,-3.15681221590003,FALSE,
2002,9,30,2,1993,0.237570472707205,FALSE,
2002,9,30,3,1993,1.66410641550967,FALSE,
2002,9,30,4,1993,1.57998932792636,FALSE,-0.821284719693594
2002,9,30,1,1994,3.3871397463765,FALSE,
2002,9,30,2,1994,2.19380037143457,FALSE,
2002,9,30,3,1994,2.93210432307678,FALSE,
2002,9,30,4,1994,3.45730011421375,FALSE,2.35831040036913
2002,9,30,1,1995,1.77094457775338,FALSE,
2002,9,30,2,1995,2.56818889106962,FALSE,
2002,9,30,3,1995,0.856135151610049,FALSE,
2002,9,30,4,1995,0.977816676388255,FALSE,2.23820384878159
2002,9,30,1,1996,0.485973311548271,FALSE,
2002,9,30,2,1996,2.81518079667107,FALSE,
2002,9,30,3,1996,2.22324799912992,FALSE,
2002,9,30,4,1996,0.762095992150824,FALSE,1.42231409601203
2002,9,30,1,1997,1.26672231784526,FALSE,
2002,9,30,2,1997,4.51657681923865,FALSE,
2002,9,30,3,1997,2.62711197964616,FALSE,
2002,9,30,4,1997,4.20162610169879,FALSE,2.34573474540634
2002,9,30,1,1998,3.31635061646964,FALSE,
2002,9,30,2,1998,1.57135994170547,FALSE,
2002,9,30,3,1998,2.26976557395602,FALSE,
2002,9,30,4,1998,1.19869291015544,FALSE,2.87147632602067
2002,9,30,1,1999,3.30661004054929,FALSE,
2002,9,30,2,1999,2.17536995105485,FALSE,
2002,9,30,3,1999,5.2634970393816,FALSE,
2002,9,30,4,1999,4.54149394751691,FALSE,2.78027361376754
2002,9,30,1,2000,3.31864532175232,FALSE,
2002,9,30,2,2000,3.44350359552477,FALSE,
2002,9,30,3,2000,1.60348148430327,FALSE,
2002,9,30,4,2000,2.6360078233264,FALSE,3.47580225870752
2002,9,30,1,2001,2.04880247153765,FALSE,
2002,9,30,2,2001,0.152702882643929,FALSE,
2002,9,30,3,2001,0.653891626050895,FALSE,
2002,9,30,4,2001,-1.15549315344257,FALSE,1.45088365673969
2002,9,30,1,2002,1.42688514205365,FALSE,
2002,9,30,2,2002,1.36578692645493,FALSE,
2002,9,30,3,2002,,TRUE,
2002,9,30,4,2002,,TRUE,
2002,10,31,2,1991,0.60702079998507,FALSE,
2002,10,31,3,1991,0.0836117815028459,FALSE,
2002,10,31,4,1991,3.61804415517151,FALSE,
2002,10,31,1,1992,5.8793902782831,FALSE,
2002,10,31,2,1992,-2.62666452122354,FALSE,
2002,10,31,3,1992,-0.546466672417323,FALSE,
2002,10,31,4,1992,-0.725766871994915,FALSE,
2002,10,31,1,1993,-3.15681221590003,FALSE,
2002,10,31,2,1993,0.237570472707205,FALSE,
2002,10,31,3,1993,1.66410641550967,FALSE,
2002,10,31,4,1993,1.57998932792636,FALSE,-0.821284719693594
2002,10,31,1,1994,3.3871397463765,FALSE,
2002,10,31,2,1994,2.19380037143457,FALSE,
2002,10,31,3,1994,2.93210432307678,FALSE,
2002,10,31,4,1994,3.45730011421375,FALSE,2.35831040036913
2002,10,31,1,1995,1.77094457775338,FALSE,
2002,10,31,2,1995,2.56818889106962,FALSE,
2002,10,31,3,1995,0.856135151610049,FALSE,
2002,10,31,4,1995,0.977816676388255,FALSE,2.23820384878159
2002,10,31,1,1996,0.485973311548271,FALSE,
2002,10,31,2,1996,2.81518079667107,FALSE,
2002,10,31,3,1996,2.22324799912992,FALSE,
2002,10,31,4,1996,0.762095992150824,FALSE,1.42231409601203
2002,10,31,1,1997,1.26672231784526,FALSE,
2002,10,31,2,1997,4.51657681923865,FALSE,
2002,10,31,3,1997,2.62711197964616,FALSE,
2002,10,31,4,1997,4.20162610169879,FALSE,2.34573474540634
2002,10,31,1,1998,3.31635061646964,FALSE,
2002,10,31,2,1998,1.57135994170547,FALSE,
2002,10,31,3,1998,2.26976557395602,FALSE,
2002,10,31,4,1998,1.19869291015544,FALSE,2.87147632602067
2002,10,31,1,1999,3.30661004054929,FALSE,
2002,10,31,2,1999,2.17536995105485,FALSE,
2002,10,31,3,1999,5.2634970393816,FALSE,
2002,10,31,4,1999,4.54149394751691,FALSE,2.78027361376754
2002,10,31,1,2000,3.31864532175232,FALSE,
2002,10,31,2,2000,3.44350359552477,FALSE,
2002,10,31,3,2000,1.60348148430327,FALSE,
2002,10,31,4,2000,2.6360078233264,FALSE,3.47580225870752
2002,10,31,1,2001,2.04880247153765,FALSE,
2002,10,31,2,2001,0.152702882643929,FALSE,
2002,10,31,3,2001,0.653891626050895,FALSE,
2002,10,31,4,2001,-1.15549315344257,FALSE,1.45088365673969
2002,10,31,1,2002,1.42688514205365,FALSE,
2002,10,31,2,2002,1.36578692645493,FALSE,
2002,10,31,3,2002,,TRUE,
2002,10,31,4,2002,,TRUE,
2002,11,30,2,1991,0.592919842819573,FALSE,
2002,11,30,3,1991,0.0893140605152443,FALSE,
2002,11,30,4,1991,3.60331945013825,FALSE,
2002,11,30,1,1992,5.87196595643165,FALSE,
2002,11,30,2,1992,-2.62967761312783,FALSE,
2002,11,30,3,1992,-0.547771877980985,FALSE,
2002,11,30,4,1992,-0.70245565162409,FALSE,
2002,11,30,1,1993,-3.17569601038864,FALSE,
2002,11,30,2,1993,0.246845439964738,FALSE,
2002,11,30,3,1993,1.66917711591397,FALSE,
2002,11,30,4,1993,1.57576279107778,FALSE,-0.820020954086542
2002,11,30,1,1994,3.39577795920905,FALSE,
2002,11,30,2,1994,2.18789971309612,FALSE,
2002,11,30,3,1994,2.9064404683198,FALSE,
2002,11,30,4,1994,3.4647276507249,FALSE,2.35701676292557
2002,11,30,1,1995,1.77593537238419,FALSE,
2002,11,30,2,1995,2.55530161328024,FALSE,
2002,11,30,3,1995,0.867667688884222,FALSE,
2002,11,30,4,1995,0.970761536956055,FALSE,2.23590236209292
2002,11,30,1,1996,0.516256778457414,FALSE,
2002,11,30,2,1996,2.78668049341071,FALSE,
2002,11,30,3,1996,2.22786864526294,FALSE,
2002,11,30,4,1996,0.734873194126529,FALSE,1.42284722191921
2002,11,30,1,1997,1.26663762436769,FALSE,
2002,11,30,2,1997,4.52955120189134,FALSE,
2002,11,30,3,1997,2.61825803522764,FALSE,
2002,11,30,4,1997,4.22802595062424,FALSE,2.342277938821
2002,11,30,1,1998,3.34642451108842,FALSE,
2002,11,30,2,1998,1.60194821201756,FALSE,
2002,11,30,3,1998,2.26786532966246,FALSE,
2002,11,30,4,1998,1.20378496731943,FALSE,2.88941942294467
2002,11,30,1,1999,3.3488588619552,FALSE,
2002,11,30,2,1999,2.16025669837632,FALSE,
2002,11,30,3,1999,5.29733868254798,FALSE,
2002,11,30,4,1999,4.54352578916142,FALSE,2.7948695686127
2002,11,30,1,2000,3.40147133226107,FALSE,
2002,11,30,2,2000,3.39471224727066,FALSE,
2002,11,30,3,2000,1.65763861598398,FALSE,
2002,11,30,4,2000,2.55627654178068,FALSE,3.49275567364593
2002,11,30,1,2001,2.05645096591445,FALSE,
2002,11,30,2,2001,0.00834420573585515,FALSE,
2002,11,30,3,2001,0.827210966433056,FALSE,
2002,11,30,4,2001,-1.10220883166686,FALSE,1.43959910859488
2002,11,30,1,2002,1.44755297200188,FALSE,
2002,11,30,2,2002,1.58723287602398,FALSE,
2002,11,30,3,2002,,TRUE,
2002,11,30,4,2002,,TRUE,
2002,12,31,2,1991,0.683422226631092,FALSE,
2002,12,31,3,1991,0.0744866685875811,FALSE,
2002,12,31,4,1991,3.60613285395734,FALSE,
2002,12,31,1,1992,5.80772156509459,FALSE,
2002,12,31,2,1992,-2.54042372302762,FALSE,
2002,12,31,3,1992,-0.567098993853776,FALSE,
2002,12,31,4,1992,-0.763202840495125,FALSE,
2002,12,31,1,1993,-3.12221982898301,FALSE,
2002,12,31,2,1993,0.22984826916872,FALSE,
2002,12,31,3,1993,1.6934752047437,FALSE,
2002,12,31,4,1993,1.48765505069377,FALSE,-0.820018453731109
2002,12,31,1,1994,3.46985389852437,FALSE,
2002,12,31,2,1994,2.18773149888778,FALSE,
2002,12,31,3,1994,2.91816157471634,FALSE,
2002,12,31,4,1994,3.38338820275335,FALSE,2.35703137158907
2002,12,31,1,1995,1.83345995364335,FALSE,
2002,12,31,2,1995,2.54409002322173,FALSE,
2002,12,31,3,1995,0.895086507557297,FALSE,
2002,12,31,4,1995,0.872250865781132,FALSE,2.2318800458915
2002,12,31,1,1996,0.652234207714653,FALSE,
2002,12,31,2,1996,2.66584020657428,FALSE,
2002,12,31,3,1996,2.29586630671899,FALSE,
2002,12,31,4,1996,0.719857938622104,FALSE,1.42642500808481
2002,12,31,1,1997,1.29397003277454,FALSE,
2002,12,31,2,1997,4.49299406491981,FALSE,
2002,12,31,3,1997,2.66738810806315,FALSE,
2002,12,31,4,1997,4.18385119121205,FALSE,2.34401350612259
2002,12,31,1,1998,3.34505273367811,FALSE,
2002,12,31,2,1998,1.55523125435177,FALSE,
2002,12,31,3,1998,2.30788285724444,FALSE,
2002,12,31,4,1998,1.24627531809944,FALSE,2.88370160984399
2002,12,31,1,1999,3.39549454985537,FALSE,
2002,12,31,2,1999,2.12431250170135,FALSE,
2002,12,31,3,1999,5.37698625154328,FALSE,
2002,12,31,4,1999,4.40776707903494,FALSE,2.8111303348868
2002,12,31,1,2000,3.49404357887917,FALSE,
2002,12,31,2,2000,3.31769449027597,FALSE,
2002,12,31,3,2000,1.57374923813369,FALSE,
2002,12,31,4,2000,2.51364637527973,FALSE,3.47030362858374
2002,12,31,1,2001,2.09705843459236,FALSE,
2002,12,31,2,2001,0.0622739895228763,FALSE,
2002,12,31,3,2001,0.657811301346722,FALSE,
2002,12,31,4,2001,-1.01615065718587,FALSE,1.42115330721257
2002,12,31,1,2002,1.66111836738001,FALSE,
2002,12,31,2,2002,1.15935294903087,FALSE,
2002,12,31,3,2002,1.32682913773279,FALSE,
2002,12,31,4,2002,,TRUE,
2003,1,31,2,1991,0.66722795112244,FALSE,
2003,1,31,3,1991,0.0901064604855506,FALSE,
2003,1,31,4,1991,3.62420817979585,FALSE,
2003,1,31,1,1992,5.80768287763365,FALSE,
2003,1,31,2,1992,-2.53762417943673,FALSE,
2003,1,31,3,1992,-0.589066339022293,FALSE,
2003,1,31,4,1992,-0.794743857885194,FALSE,
2003,1,31,1,1993,-3.0715418575637,FALSE,
2003,1,31,2,1993,0.225807530751365,FALSE,
2003,1,31,3,1993,1.64351033033565,FALSE,
2003,1,31,4,1993,1.52643065312983,FALSE,-0.820020761860274
2003,1,31,1,1994,3.40471670205385,FALSE,
2003,1,31,2,1994,2.26883938067859,FALSE,
2003,1,31,3,1994,2.93662878963026,FALSE,
2003,1,31,4,1994,3.34691549666741,FALSE,2.35701675835731
2003,1,31,1,1995,2.01263585975826,FALSE,
2003,1,31,2,1995,2.32534015365153,FALSE,
2003,1,31,3,1995,0.894136657982503,FALSE,
2003,1,31,4,1995,0.803932516126293,FALSE,2.23188202487365
2003,1,31,1,1996,0.724772854483868,FALSE,
2003,1,31,2,1996,2.65033236331005,FALSE,
2003,1,31,3,1996,2.30179056944864,FALSE,
2003,1,31,4,1996,0.8823038400956,FALSE,1.42638695162765
2003,1,31,1,1997,1.13635672756449,FALSE,
2003,1,31,2,1997,4.51583540291922,FALSE,
2003,1,31,3,1997,2.69060599960511,FALSE,
2003,1,31,4,1997,4.22074774407393,FALSE,2.34424062360306
2003,1,31,1,1998,3.29212528831273,FALSE,
2003,1,31,2,1998,1.54608539630139,FALSE,
2003,1,31,3,1998,2.32435024949886,FALSE,
2003,1,31,4,1998,1.28156707858373,FALSE,2.88418623223512
2003,1,31,1,1999,3.38908956625623,FALSE,
2003,1,31,2,1999,2.15872922899629,FALSE,
2003,1,31,3,1999,5.32789670063329,FALSE,
2003,1,31,4,1999,4.38336652673523,FALSE,2.81667339814069
2003,1,31,1,2000,3.5635552466752,FALSE,
2003,1,31,2,2000,3.29415245323805,FALSE,
2003,1,31,3,2000,1.52456156036294,FALSE,
2003,1,31,4,2000,2.57858522032781,FALSE,3.47274480397508
2003,1,31,1,2001,2.07671028998448,FALSE,
2003,1,31,2,2001,0.00360412451885228,FALSE,
2003,1,31,3,2001,0.729189350328352,FALSE,
2003,1,31,4,2001,-0.976146818070256,FALSE,1.42096297064529
2003,1,31,1,2002,1.65740257690419,FALSE,
2003,1,31,2,2002,1.34516695428022,FALSE,
2003,1,31,3,2002,1.33087299458941,FALSE,
2003,1,31,4,2002,,TRUE,
2003,1,31,1,2003,,TRUE,
2003,1,31,2,2003,,TRUE,
2003,1,31,3,2003,,TRUE,
2003,1,31,4,2003,,TRUE,
2003,2,28,2,1991,0.66722795112244,FALSE,
2003,2,28,3,1991,0.0901064604855506,FALSE,
2003,2,28,4,1991,3.62420817979585,FALSE,
2003,2,28,1,1992,5.80768287763365,FALSE,
2003,2,28,2,1992,-2.53762417943673,FALSE,
2003,2,28,3,1992,-0.589066339022293,FALSE,
2003,2,28,4,1992,-0.794743857885194,FALSE,
2003,2,28,1,1993,-3.0715418575637,FALSE,
2003,2,28,2,1993,0.225807530751365,FALSE,
2003,2,28,3,1993,1.64351033033565,FALSE,
2003,2,28,4,1993,1.52643065312983,FALSE,-0.820020761860274
2003,2,28,1,1994,3.40471670205385,FALSE,
2003,2,28,2,1994,2.26883938067859,FALSE,
2003,2,28,3,1994,2.93662878963026,FALSE,
2003,2,28,4,1994,3.34691549666741,FALSE,2.35701675835731
2003,2,28,1,1995,2.01263585975826,FALSE,
2003,2,28,2,1995,2.32534015365153,FALSE,
2003,2,28,3,1995,0.894136657982503,FALSE,
2003,2,28,4,1995,0.803932516126293,FALSE,2.23188202487365
2003,2,28,1,1996,0.724772854483868,FALSE,
2003,2,28,2,1996,2.65033236331005,FALSE,
2003,2,28,3,1996,2.30179056944864,FALSE,
2003,2,28,4,1996,0.8823038400956,FALSE,1.42638695162765
2003,2,28,1,1997,1.13635672756449,FALSE,
2003,2,28,2,1997,4.51583540291922,FALSE,
2003,2,28,3,1997,2.69060599960511,FALSE,
2003,2,28,4,1997,4.22074774407393,FALSE,2.34424062360306
2003,2,28,1,1998,3.29212528831273,FALSE,
2003,2,28,2,1998,1.54608539630139,FALSE,
2003,2,28,3,1998,2.32435024949886,FALSE,
2003,2,28,4,1998,1.28156707858373,FALSE,2.88418623223512
2003,2,28,1,1999,3.38908956625623,FALSE,
2003,2,28,2,1999,2.15872922899629,FALSE,
2003,2,28,3,1999,5.32789670063329,FALSE,
2003,2,28,4,1999,4.38336652673523,FALSE,2.81667339814069
2003,2,28,1,2000,3.5635552466752,FALSE,
2003,2,28,2,2000,3.29415245323805,FALSE,
2003,2,28,3,2000,1.52456156036294,FALSE,
2003,2,28,4,2000,2.57858522032781,FALSE,3.47274480397508
2003,2,28,1,2001,2.07671028998448,FALSE,
2003,2,28,2,2001,0.00360412451885228,FALSE,
2003,2,28,3,2001,0.729189350328352,FALSE,
2003,2,28,4,2001,-0.976146818070256,FALSE,1.42096297064529
2003,2,28,1,2002,1.65740257690419,FALSE,
2003,2,28,2,2002,1.34516695428022,FALSE,
2003,2,28,3,2002,1.33087299458941,FALSE,
2003,2,28,4,2002,,TRUE,
2003,2,28,1,2003,,TRUE,
2003,2,28,2,2003,,TRUE,
2003,2,28,3,2003,,TRUE,
2003,2,28,4,2003,,TRUE,
2003,3,31,2,1991,0.661409089111453,FALSE,
2003,3,31,3,1991,0.10719872286542,FALSE,
2003,3,31,4,1991,3.61150841305884,FALSE,
2003,3,31,1,1992,5.81065426800631,FALSE,
2003,3,31,2,1992,-2.5503035659349,FALSE,
2003,3,31,3,1992,-0.569569956135196,FALSE,
2003,3,31,4,1992,-0.797734029685127,FALSE,
2003,3,31,1,1993,-3.06350742607352,FALSE,
2003,3,31,2,1993,0.201849786532438,FALSE,
2003,3,31,3,1993,1.67076383277862,FALSE,
2003,3,31,4,1993,1.49377188837201,FALSE,-0.820021144736538
2003,3,31,1,1994,3.41744168619424,FALSE,
2003,3,31,2,1994,2.28449578704559,FALSE,
2003,3,31,3,1994,2.91184575999728,FALSE,
2003,3,31,4,1994,3.36729425891873,FALSE,2.35701695674118
2003,3,31,1,1995,2.01696049753626,FALSE,
2003,3,31,2,1995,2.33012645657373,FALSE,
2003,3,31,3,1995,0.893099384687845,FALSE,
2003,3,31,4,1995,0.840839103229918,FALSE,2.23775914880009
2003,3,31,1,1996,0.68887980751815,FALSE,
2003,3,31,2,1996,2.64253195708866,FALSE,
2003,3,31,3,1996,2.30963535450863,FALSE,
2003,3,31,4,1996,0.902997582425602,FALSE,1.42530242493177
2003,3,31,1,1997,1.12091264210641,FALSE,
2003,3,31,2,1997,4.51922831462348,FALSE,
2003,3,31,3,1997,2.69508832329282,FALSE,
2003,3,31,4,1997,4.22319369515163,FALSE,2.34609631177467
2003,3,31,1,1998,3.23656386715965,FALSE,
2003,3,31,2,1998,1.55418894213297,FALSE,
2003,3,31,3,1998,2.33656427032545,FALSE,
2003,3,31,4,1998,1.28563297544471,FALSE,2.87490494190681
2003,3,31,1,1999,3.35852928776432,FALSE,
2003,3,31,2,1999,2.16988051129676,FALSE,
2003,3,31,3,1999,5.36113576350736,FALSE,
2003,3,31,4,1999,4.32558034449801,FALSE,2.81447941824302
2003,3,31,1,2000,3.65056242144108,FALSE,
2003,3,31,2,2000,3.28090443766098,FALSE,
2003,3,31,3,2000,1.73604020732794,FALSE,
2003,3,31,4,2000,2.40267335448872,FALSE,3.50189252120019
2003,3,31,1,2001,2.21309050353962,FALSE,
2003,3,31,2,2001,-0.0373905785937323,FALSE,
2003,3,31,3,2001,0.574680267060757,FALSE,
2003,3,31,4,2001,-0.90305125571305,FALSE,1.42510948688599
2003,3,31,1,2002,1.56427636927152,FALSE,
2003,3,31,2,2002,1.31103400431281,FALSE,
2003,3,31,3,2002,1.56915219567277,FALSE,
2003,3,31,4,2002,0.67982324380218,FALSE,0.771952524034036
2003,3,31,1,2003,,TRUE,
2003,3,31,2,2003,,TRUE,
2003,3,31,3,2003,,TRUE,
2003,3,31,4,2003,,TRUE,
2003,4,30,2,1991,0.661409089111453,FALSE,
2003,4,30,3,1991,0.10719872286542,FALSE,
2003,4,30,4,1991,3.61150841305884,FALSE,
2003,4,30,1,1992,5.81065426800631,FALSE,
2003,4,30,2,1992,-2.5503035659349,FALSE,
2003,4,30,3,1992,-0.569569956135196,FALSE,
2003,4,30,4,1992,-0.797734029685127,FALSE,
2003,4,30,1,1993,-3.06350742607352,FALSE,
2003,4,30,2,1993,0.201849786532438,FALSE,
2003,4,30,3,1993,1.67076383277862,FALSE,
2003,4,30,4,1993,1.49377188837201,FALSE,-0.820021144736538
2003,4,30,1,1994,3.41744168619424,FALSE,
2003,4,30,2,1994,2.28449578704559,FALSE,
2003,4,30,3,1994,2.91184575999728,FALSE,
2003,4,30,4,1994,3.36729425891873,FALSE,2.35701695674118
2003,4,30,1,1995,2.01696049753626,FALSE,
2003,4,30,2,1995,2.33012645657373,FALSE,
2003,4,30,3,1995,0.893099384687845,FALSE,
2003,4,30,4,1995,0.840839103229918,FALSE,2.23775914880009
2003,4,30,1,1996,0.68887980751815,FALSE,
2003,4,30,2,1996,2.64253195708866,FALSE,
2003,4,30,3,1996,2.30963535450863,FALSE,
2003,4,30,4,1996,0.902997582425602,FALSE,1.42530242493177
2003,4,30,1,1997,1.12091264210641,FALSE,
2003,4,30,2,1997,4.51922831462348,FALSE,
2003,4,30,3,1997,2.69508832329282,FALSE,
2003,4,30,4,1997,4.22319369515163,FALSE,2.34609631177467
2003,4,30,1,1998,3.23656386715965,FALSE,
2003,4,30,2,1998,1.55418894213297,FALSE,
2003,4,30,3,1998,2.33656427032545,FALSE,
2003,4,30,4,1998,1.28563297544471,FALSE,2.87490494190681
2003,4,30,1,1999,3.35852928776432,FALSE,
2003,4,30,2,1999,2.16988051129676,FALSE,
2003,4,30,3,1999,5.36113576350736,FALSE,
2003,4,30,4,1999,4.32558034449801,FALSE,2.81447941824302
2003,4,30,1,2000,3.65056242144108,FALSE,
2003,4,30,2,2000,3.28090443766098,FALSE,
2003,4,30,3,2000,1.73604020732794,FALSE,
2003,4,30,4,2000,2.40267335448872,FALSE,3.50189252120019
2003,4,30,1,2001,2.21309050353962,FALSE,
2003,4,30,2,2001,-0.0373905785937323,FALSE,
2003,4,30,3,2001,0.574680267060757,FALSE,
2003,4,30,4,2001,-0.90305125571305,FALSE,1.42510948688599
2003,4,30,1,2002,1.56427636927152,FALSE,
2003,4,30,2,2002,1.31103400431281,FALSE,
2003,4,30,3,2002,1.56915219567277,FALSE,
2003,4,30,4,2002,0.67982324380218,FALSE,0.771952524034036
2003,4,30,1,2003,,TRUE,
2003,4,30,2,2003,,TRUE,
2003,4,30,3,2003,,TRUE,
2003,4,30,4,2003,,TRUE,
2003,5,31,2,1991,0.654621637442987,FALSE,
2003,5,31,3,1991,0.0758543193599248,FALSE,
2003,5,31,4,1991,3.63366683339357,FALSE,
2003,5,31,1,1992,5.80784962142562,FALSE,
2003,5,31,2,1992,-2.54814261094771,FALSE,
2003,5,31,3,1992,-0.568830987851332,FALSE,
2003,5,31,4,1992,-0.790103215447147,FALSE,
2003,5,31,1,1993,-3.05791581976645,FALSE,
2003,5,31,2,1993,0.177595681140308,FALSE,
2003,5,31,3,1993,1.68808949724402,FALSE,
2003,5,31,4,1993,1.48228095539504,FALSE,-0.820021146312822
2003,5,31,1,1994,3.41296861934086,FALSE,
2003,5,31,2,1994,2.30125031296986,FALSE,
2003,5,31,3,1994,2.90142149412582,FALSE,
2003,5,31,4,1994,3.38004551924316,FALSE,2.35701715512504
2003,5,31,1,1995,2.00914882009409,FALSE,
2003,5,31,2,1995,2.33441779975101,FALSE,
2003,5,31,3,1995,0.882267154327465,FALSE,
2003,5,31,4,1995,0.847797883043411,FALSE,2.23778035628381
2003,5,31,1,1996,0.693772814399774,FALSE,
2003,5,31,2,1996,2.6307351095461,FALSE,
2003,5,31,3,1996,2.31313740246433,FALSE,
2003,5,31,4,1996,0.907506206309816,FALSE,1.42528157119075
2003,5,31,1,1997,1.1129246339719,FALSE,
2003,5,31,2,1997,4.54720637215356,FALSE,
2003,5,31,3,1997,2.66467683533365,FALSE,
2003,5,31,4,1997,4.22512541960889,FALSE,2.34609594227988
2003,5,31,1,1998,3.2624565573615,FALSE,
2003,5,31,2,1998,1.56739549024765,FALSE,
2003,5,31,3,1998,2.26894640251789,FALSE,
2003,5,31,4,1998,1.30597074076062,FALSE,2.87490530387509
2003,5,31,1,1999,3.40372867408532,FALSE,
2003,5,31,2,1999,2.19360240916497,FALSE,
2003,5,31,3,1999,5.26380777822857,FALSE,
2003,5,31,4,1999,4.33761697000761,FALSE,2.81520089633578
2003,5,31,1,2000,3.74908001886498,FALSE,
2003,5,31,2,2000,3.31418785804114,FALSE,
2003,5,31,3,2000,1.52970404586217,FALSE,
2003,5,31,4,2000,2.44336779702563,FALSE,3.50080556594394
2003,5,31,1,2001,2.21882928849724,FALSE,
2003,5,31,2,2001,-0.0175242982959567,FALSE,
2003,5,31,3,2001,0.58364499299306,FALSE,
2003,5,31,4,2001,-0.747829139092116,FALSE,1.42531638134888
2003,5,31,1,2002,1.68113087395407,FALSE,
2003,5,31,2,2002,1.48744146150011,FALSE,
2003,5,31,3,2002,1.32997613787458,FALSE,
2003,5,31,4,2002,0.547112544082973,FALSE,0.827689315624269
2003,5,31,1,2003,,TRUE,
2003,5,31,2,2003,,TRUE,
2003,5,31,3,2003,,TRUE,
2003,5,31,4,2003,,TRUE,
2003,6,30,2,1991,0.664828714680321,FALSE,
2003,6,30,3,1991,0.0530630556513367,FALSE,
2003,6,30,4,1991,3.63603450103813,FALSE,
2003,6,30,1,1992,5.87671484707535,FALSE,
2003,6,30,2,1992,-2.63457834356003,FALSE,
2003,6,30,3,1992,-0.528222963846947,FALSE,
2003,6,30,4,1992,-0.837194098036798,FALSE,
2003,6,30,1,1993,-2.99276584220347,FALSE,
2003,6,30,2,1993,0.0806831367059058,FALSE,
2003,6,30,3,1993,1.82048086998403,FALSE,
2003,6,30,4,1993,1.39204251337042,FALSE,-0.820040573065106
2003,6,30,1,1994,3.38244782777244,FALSE,
2003,6,30,2,1994,2.39589506499676,FALSE,
2003,6,30,3,1994,2.83133841037806,FALSE,
2003,6,30,4,1994,3.46221215821649,FALSE,2.35700960898941
2003,6,30,1,1995,1.97702639926309,FALSE,
2003,6,30,2,1995,2.30520798808505,FALSE,
2003,6,30,3,1995,0.931404891038423,FALSE,
2003,6,30,4,1995,0.771497220763684,FALSE,2.23801081035766
2003,6,30,1,1996,0.830870715667609,FALSE,
2003,6,30,2,1996,2.47648348408296,FALSE,
2003,6,30,3,1996,2.31237439127119,FALSE,
2003,6,30,4,1996,0.959839050563294,FALSE,1.42429364903007
2003,6,30,1,1997,1.04743535399277,FALSE,
2003,6,30,2,1997,4.70585273571558,FALSE,
2003,6,30,3,1997,2.5726669449146,FALSE,
2003,6,30,4,1997,4.22823013885052,FALSE,2.34766945936915
2003,6,30,1,1998,3.27851687194112,FALSE,
2003,6,30,2,1998,1.59032098687864,FALSE,
2003,6,30,3,1998,2.23896357194273,FALSE,
2003,6,30,4,1998,1.22581878458201,FALSE,2.8731118851731
2003,6,30,1,1999,3.52160423593368,FALSE,
2003,6,30,2,1999,2.18645894188847,FALSE,
2003,6,30,3,1999,5.25056472502949,FALSE,
2003,6,30,4,1999,4.32329012708403,FALSE,2.82306439318787
2003,6,30,1,2000,3.85516062526246,FALSE,
2003,6,30,2,2000,3.20328714534273,FALSE,
2003,6,30,3,2000,1.49947549776155,FALSE,
2003,6,30,4,2000,2.53221302620594,FALSE,3.50341484560892
2003,6,30,1,2001,2.38971592778376,FALSE,
2003,6,30,2,2001,-0.00523271282226734,FALSE,
2003,6,30,3,2001,0.62730883847204,FALSE,
2003,6,30,4,2001,-0.713947849500418,FALSE,1.48363208081264
2003,6,30,1,2002,1.69226394821267,FALSE,
2003,6,30,2,2002,1.56720075437216,FALSE,
2003,6,30,3,2002,1.29445495035709,FALSE,
2003,6,30,4,2002,0.268894358114991,FALSE,0.836070260553123
2003,6,30,1,2003,0.0381512951699525,FALSE,
2003,6,30,2,2003,,TRUE,
2003,6,30,3,2003,,TRUE,
2003,6,30,4,2003,,TRUE,
2003,7,31,2,1991,0.664828714680321,FALSE,
2003,7,31,3,1991,0.0530630556513367,FALSE,
2003,7,31,4,1991,3.63603450103813,FALSE,
2003,7,31,1,1992,5.87671484707535,FALSE,
2003,7,31,2,1992,-2.63457834356003,FALSE,
2003,7,31,3,1992,-0.528222963846947,FALSE,
2003,7,31,4,1992,-0.837194098036798,FALSE,
2003,7,31,1,1993,-2.99276584220347,FALSE,
2003,7,31,2,1993,0.0806831367059058,FALSE,
2003,7,31,3,1993,1.82048086998403,FALSE,
2003,7,31,4,1993,1.39204251337042,FALSE,-0.820040573065106
2003,7,31,1,1994,3.38244782777244,FALSE,
2003,7,31,2,1994,2.39589506499676,FALSE,
2003,7,31,3,1994,2.83133841037806,FALSE,
2003,7,31,4,1994,3.46221215821649,FALSE,2.35700960898941
2003,7,31,1,1995,1.97702639926309,FALSE,
2003,7,31,2,1995,2.30520798808505,FALSE,
2003,7,31,3,1995,0.931404891038423,FALSE,
2003,7,31,4,1995,0.771497220763684,FALSE,2.23801081035766
2003,7,31,1,1996,0.830870715667609,FALSE,
2003,7,31,2,1996,2.47648348408296,FALSE,
2003,7,31,3,1996,2.31237439127119,FALSE,
2003,7,31,4,1996,0.959839050563294,FALSE,1.42429364903007
2003,7,31,1,1997,1.04743535399277,FALSE,
2003,7,31,2,1997,4.70585273571558,FALSE,
2003,7,31,3,1997,2.5726669449146,FALSE,
2003,7,31,4,1997,4.22823013885052,FALSE,2.34766945936915
2003,7,31,1,1998,3.27851687194112,FALSE,
2003,7,31,2,1998,1.59032098687864,FALSE,
2003,7,31,3,1998,2.23896357194273,FALSE,
2003,7,31,4,1998,1.22581878458201,FALSE,2.8731118851731
2003,7,31,1,1999,3.52160423593368,FALSE,
2003,7,31,2,1999,2.18645894188847,FALSE,
2003,7,31,3,1999,5.25056472502949,FALSE,
2003,7,31,4,1999,4.32329012708403,FALSE,2.82306439318787
2003,7,31,1,2000,3.85516062526246,FALSE,
2003,7,31,2,2000,3.20328714534273,FALSE,
2003,7,31,3,2000,1.49947549776155,FALSE,
2003,7,31,4,2000,2.53221302620594,FALSE,3.50341484560892
2003,7,31,1,2001,2.38971592778376,FALSE,
2003,7,31,2,2001,-0.00523271282226734,FALSE,
2003,7,31,3,2001,0.62730883847204,FALSE,
2003,7,31,4,2001,-0.713947849500418,FALSE,1.48363208081264
2003,7,31,1,2002,1.69226394821267,FALSE,
2003,7,31,2,2002,1.56720075437216,FALSE,
2003,7,31,3,2002,1.29445495035709,FALSE,
2003,7,31,4,2002,0.268894358114991,FALSE,0.836070260553123
2003,7,31,1,2003,0.0381512951699525,FALSE,
2003,7,31,2,2003,,TRUE,
2003,7,31,3,2003,,TRUE,
2003,7,31,4,2003,,TRUE,
2003,8,31,2,1991,0.737467880930232,FALSE,
2003,8,31,3,1991,-0.03323449561069,FALSE,
2003,8,31,4,1991,3.62965705976257,FALSE,
2003,8,31,1,1992,6.11976573317188,FALSE,
2003,8,31,2,1992,-2.6922211431871,FALSE,
2003,8,31,3,1992,-0.768106646840427,FALSE,
2003,8,31,4,1992,-0.97634978665212,FALSE,
2003,8,31,1,1993,-2.59362635072949,FALSE,
2003,8,31,2,1993,0.0763019030604051,FALSE,
2003,8,31,3,1993,1.57675182179076,FALSE,
2003,8,31,4,1993,1.20781973019193,FALSE,-0.820040573065106
2003,8,31,1,1994,3.68458370178977,FALSE,
2003,8,31,2,1994,2.41793480628334,FALSE,
2003,8,31,3,1994,2.87218132786886,FALSE,
2003,8,31,4,1994,3.17095178210312,FALSE,2.35700960898941
2003,8,31,1,1995,2.30792551774426,FALSE,
2003,8,31,2,1995,2.16283647724582,FALSE,
2003,8,31,3,1995,0.923557546878118,FALSE,
2003,8,31,4,1995,0.651870261037701,FALSE,2.23801062100464
2003,8,31,1,1996,1.19652599749396,FALSE,
2003,8,31,2,1996,2.35452129442963,FALSE,
2003,8,31,3,1996,2.20957016467744,FALSE,
2003,8,31,4,1996,0.581211145801408,FALSE,1.42429420729213
2003,8,31,1,1997,1.0514336806156,FALSE,
2003,8,31,2,1997,5.10037093654776,FALSE,
2003,8,31,3,1997,2.78487398993794,FALSE,
2003,8,31,4,1997,4.10155702415846,FALSE,2.34766890297355
2003,8,31,1,1998,3.08641460123944,FALSE,
2003,8,31,2,1998,1.68691882828704,FALSE,
2003,8,31,3,1998,2.30205168310069,FALSE,
2003,8,31,4,1998,1.14328709735394,FALSE,2.87311206871776
2003,8,31,1,1999,3.41994025154604,FALSE,
2003,8,31,2,1999,2.34951661017402,FALSE,
2003,8,31,3,1999,5.29897432904207,FALSE,
2003,8,31,4,1999,4.16588294778257,FALSE,2.82306439318787
2003,8,31,1,2000,3.86567458362683,FALSE,
2003,8,31,2,2000,3.32862659034494,FALSE,
2003,8,31,3,2000,1.48029279448156,FALSE,
2003,8,31,4,2000,2.36410615785343,FALSE,3.50341484560892
2003,8,31,1,2001,2.54495001716373,FALSE,
2003,8,31,2,2001,-0.125854398373126,FALSE,
2003,8,31,3,2001,0.652930281874342,FALSE,
2003,8,31,4,2001,-0.601174897324153,FALSE,1.48363208081264
2003,8,31,1,2002,1.60312175901038,FALSE,
2003,8,31,2,2002,1.59206189408105,FALSE,
2003,8,31,3,2002,1.28732391466919,FALSE,
2003,8,31,4,2002,0.289411378080229,FALSE,0.836070099971131
2003,8,31,1,2003,0.237272393375498,FALSE,
2003,8,31,2,2003,,TRUE,
2003,8,31,3,2003,,TRUE,
2003,8,31,4,2003,,TRUE,
2003,9,30,2,1991,0.714034957638798,FALSE,
2003,9,30,3,1991,-0.0529986475845345,FALSE,
2003,9,30,4,1991,3.64209704612297,FALSE,
2003,9,30,1,1992,6.10838209809597,FALSE,
2003,9,30,2,1992,-2.71923376768584,FALSE,
2003,9,30,3,1992,-0.769192563157872,FALSE,
2003,9,30,4,1992,-0.986080467159189,FALSE,
2003,9,30,1,1993,-2.58536869170797,FALSE,
2003,9,30,2,1993,0.0656800988148465,FALSE,
2003,9,30,3,1993,1.58121964688334,FALSE,
2003,9,30,4,1993,1.228840526176,FALSE,-0.821773682235538
2003,9,30,1,1994,3.70895198817318,FALSE,
2003,9,30,2,1994,2.43536120749381,FALSE,
2003,9,30,3,1994,2.8147426443925,FALSE,
2003,9,30,4,1994,3.07355223717043,FALSE,2.35686024333317
2003,9,30,1,1995,2.36836477924534,FALSE,
2003,9,30,2,1995,2.14142112563229,FALSE,
2003,9,30,3,1995,0.931692154144392,FALSE,
2003,9,30,4,1995,0.646516848958068,FALSE,2.22571967074248
2003,9,30,1,1996,1.20684630852563,FALSE,
2003,9,30,2,1996,2.34258920221477,FALSE,
2003,9,30,3,1996,2.2072135359273,FALSE,
2003,9,30,4,1996,0.586724767094271,FALSE,1.42340014755902
2003,9,30,1,1997,1.04870757189552,FALSE,
2003,9,30,2,1997,5.09386233101923,FALSE,
2003,9,30,3,1997,2.77505626274068,FALSE,
2003,9,30,4,1997,4.11238816569866,FALSE,2.34524222316648
2003,9,30,1,1998,3.09645979291362,FALSE,
2003,9,30,2,1998,1.68702452223675,FALSE,
2003,9,30,3,1998,2.29565248927188,FALSE,
2003,9,30,4,1998,1.1544424181581,FALSE,2.87593144344176
2003,9,30,1,1999,3.41802194191425,FALSE,
2003,9,30,2,1999,2.34837128704102,FALSE,
2003,9,30,3,1999,5.29082281508979,FALSE,
2003,9,30,4,1999,4.16155318682769,FALSE,2.82242246380193
2003,9,30,1,2000,3.86165585761649,FALSE,
2003,9,30,2,2000,3.31164025737438,FALSE,
2003,9,30,3,2000,1.46404791180312,FALSE,
2003,9,30,4,2000,2.36150464555163,FALSE,3.49510031374434
2003,9,30,1,2001,2.6111060203373,FALSE,
2003,9,30,2,2001,-0.131169119953412,FALSE,
2003,9,30,3,2001,0.64824979231739,FALSE,
2003,9,30,4,2001,-0.601390033779636,FALSE,1.49484347883702
2003,9,30,1,2002,1.64688254039083,FALSE,
2003,9,30,2,2002,1.60441684910662,FALSE,
2003,9,30,3,2002,1.28436339620088,FALSE,
2003,9,30,4,2002,0.277758705885933,FALSE,0.847162582940464
2003,9,30,1,2003,0.244369759874719,FALSE,
2003,9,30,2,2003,-0.181283707073288,FALSE,
2003,9,30,3,2003,,TRUE,
2003,9,30,4,2003,,TRUE,
2003,10,31,2,1991,1.0061023772721,FALSE,
2003,10,31,3,1991,-0.167844265078254,FALSE,
2003,10,31,4,1991,3.86497812734148,FALSE,
2003,10,31,1,1992,6.17315943487071,FALSE,
2003,10,31,2,1992,-2.92162862841187,FALSE,
2003,10,31,3,1992,-0.950648553249134,FALSE,
2003,10,31,4,1992,-0.944324582474565,FALSE,
2003,10,31,1,1993,-2.50684662922609,FALSE,
2003,10,31,2,1993,0.0828702304034756,FALSE,
2003,10,31,3,1993,1.58422016107451,FALSE,
2003,10,31,4,1993,1.30000910931376,FALSE,-0.821773682235538
2003,10,31,1,1994,3.70711839367643,FALSE,
2003,10,31,2,1994,2.37413479044255,FALSE,
2003,10,31,3,1994,2.67160586563913,FALSE,
2003,10,31,4,1994,3.31245232539286,FALSE,2.35686024333315
2003,10,31,1,1995,2.07072280026828,FALSE,
2003,10,31,2,1995,2.34982511580859,FALSE,
2003,10,31,3,1995,0.90046870844156,FALSE,
2003,10,31,4,1995,0.905514467958213,FALSE,2.22571948141264
2003,10,31,1,1996,0.826226154501653,FALSE,
2003,10,31,2,1996,2.59895900921112,FALSE,
2003,10,31,3,1996,2.1077907910882,FALSE,
2003,10,31,4,1996,0.626045057527858,FALSE,1.42340052061058
2003,10,31,1,1997,1.03100474651674,FALSE,
2003,10,31,2,1997,5.12247378166941,FALSE,
2003,10,31,3,1997,2.69901887810933,FALSE,
2003,10,31,4,1997,4.07726606176935,FALSE,2.34524185366707
2003,10,31,1,1998,3.21715833270742,FALSE,
2003,10,31,2,1998,1.68524883926775,FALSE,
2003,10,31,3,1998,2.18044339362367,FALSE,
2003,10,31,4,1998,1.13861724198892,FALSE,2.87593180542096
2003,10,31,1,1999,3.49312308598628,FALSE,
2003,10,31,2,1999,2.44245695093293,FALSE,
2003,10,31,3,1999,5.10756404599224,FALSE,
2003,10,31,4,1999,4.22075455788153,FALSE,2.82242228547081
2003,10,31,1,2000,3.85377832509792,FALSE,
2003,10,31,2,2000,3.43836003192288,FALSE,
2003,10,31,3,2000,1.31129190065531,FALSE,
2003,10,31,4,2000,2.41116725033859,FALSE,3.49510014506902
2003,10,31,1,2001,2.73723296734629,FALSE,
2003,10,31,2,2001,0.112340729903293,FALSE,
2003,10,31,3,2001,0.681054385091717,FALSE,
2003,10,31,4,2001,-0.408919495760351,FALSE,1.58670758824504
2003,10,31,1,2002,1.3860043471027,FALSE,
2003,10,31,2,2002,1.9123937829518,FALSE,
2003,10,31,3,2002,0.908574109917781,FALSE,
2003,10,31,4,2002,0.240574967038865,FALSE,0.846396501452817
2003,10,31,1,2003,0.0986980067738008,FALSE,
2003,10,31,2,2003,-0.311977767344795,FALSE,
2003,10,31,3,2003,,TRUE,
2003,10,31,4,2003,,TRUE,
2003,11,30,2,1991,1.23072672693523,FALSE,
2003,11,30,3,1991,-0.194026436592865,FALSE,
2003,11,30,4,1991,3.93829044657925,FALSE,
2003,11,30,1,1992,6.05045676259006,FALSE,
2003,11,30,2,1992,-2.9572102003787,FALSE,
2003,11,30,3,1992,-0.959136469259481,FALSE,
2003,11,30,4,1992,-0.931935538699491,FALSE,
2003,11,30,1,1993,-2.48416984374464,FALSE,
2003,11,30,2,1993,0.071095937963217,FALSE,
2003,11,30,3,1993,1.51788911038313,FALSE,
2003,11,30,4,1993,1.16710697952676,FALSE,-0.835514560166284
2003,11,30,1,1994,3.89643104293593,FALSE,
2003,11,30,2,1994,2.41739721154013,FALSE,
2003,11,30,3,1994,2.65174222519593,FALSE,
2003,11,30,4,1994,3.2827283500134,FALSE,2.37306801356627
2003,11,30,1,1995,2.1799153540967,FALSE,
2003,11,30,2,1995,2.29764525946625,FALSE,
2003,11,30,3,1995,0.81850171978699,FALSE,
2003,11,30,4,1995,0.919782891577436,FALSE,2.22846353807555
2003,11,30,1,1996,0.627661984192418,FALSE,
2003,11,30,2,1996,2.88510247932261,FALSE,
2003,11,30,3,1996,2.15309745744325,FALSE,
2003,11,30,4,1996,0.657724942764904,FALSE,1.42337966994104
2003,11,30,1,1997,0.974309083214009,FALSE,
2003,11,30,2,1997,5.0156003619789,FALSE,
2003,11,30,3,1997,2.75181472838773,FALSE,
2003,11,30,4,1997,4.07196223274187,FALSE,2.34691418151103
2003,11,30,1,1998,3.30346665830155,FALSE,
2003,11,30,2,1998,1.59818533940963,FALSE,
2003,11,30,3,1998,2.16194500293778,FALSE,
2003,11,30,4,1998,1.07964132456266,FALSE,2.8738900662248
2003,11,30,1,1999,3.67850523026971,FALSE,
2003,11,30,2,1999,2.28444741847786,FALSE,
2003,11,30,3,1999,5.04239929790924,FALSE,
2003,11,30,4,1999,4.28720362796895,FALSE,2.81563346687352
2003,11,30,1,2000,3.93117794618805,FALSE,
2003,11,30,2,2000,3.46528055084305,FALSE,
2003,11,30,3,2000,1.25300078792481,FALSE,
2003,11,30,4,2000,2.4326346161625,FALSE,3.50783513080253
2003,11,30,1,2001,2.72059893727141,FALSE,
2003,11,30,2,2001,0.123348725000105,FALSE,
2003,11,30,3,2001,0.736800767742518,FALSE,
2003,11,30,4,2001,-0.372000766508185,FALSE,1.59242589889643
2003,11,30,1,2002,1.46371630775362,FALSE,
2003,11,30,2,2002,1.86646918878193,FALSE,
2003,11,30,3,2002,0.911044316854359,FALSE,
2003,11,30,4,2002,0.153773818469727,FALSE,0.866686970067288
2003,11,30,1,2003,-0.0249112638113225,FALSE,
2003,11,30,2,2003,-0.224131421597085,FALSE,
2003,11,30,3,2003,,TRUE,
2003,11,30,4,2003,,TRUE,
2003,12,31,2,1991,1.22462516865833,FALSE,
2003,12,31,3,1991,-0.174501747286093,FALSE,
2003,12,31,4,1991,3.9371339834976,FALSE,
2003,12,31,1,1992,6.03125118469714,FALSE,
2003,12,31,2,1992,-2.94837097121151,FALSE,
2003,12,31,3,1992,-0.951989775208839,FALSE,
2003,12,31,4,1992,-0.924639791189197,FALSE,
2003,12,31,1,1993,-2.49333156229895,FALSE,
2003,12,31,2,1993,0.0685509282315033,FALSE,
2003,12,31,3,1993,1.52290768458867,FALSE,
2003,12,31,4,1993,1.16732067252214,FALSE,-0.83485176839192
2003,12,31,1,1994,3.91610658125969,FALSE,
2003,12,31,2,1994,2.40386039320955,FALSE,
2003,12,31,3,1994,2.64283742536864,FALSE,
2003,12,31,4,1994,3.2543906145061,FALSE,2.37298561699055
2003,12,31,1,1995,2.20246423446824,FALSE,
2003,12,31,2,1995,2.30757917068762,FALSE,
2003,12,31,3,1995,0.80802553772783,FALSE,
2003,12,31,4,1995,0.937154627471237,FALSE,2.22856185946776
2003,12,31,1,1996,0.624755352555217,FALSE,
2003,12,31,2,1996,2.87364262634646,FALSE,
2003,12,31,3,1996,2.15489038003454,FALSE,
2003,12,31,4,1996,0.639712559832129,FALSE,1.42217285443054
2003,12,31,1,1997,0.987385063001445,FALSE,
2003,12,31,2,1997,4.97753896610953,FALSE,
2003,12,31,3,1997,2.76334643120155,FALSE,
2003,12,31,4,1997,4.08611400680923,FALSE,2.34165589171387
2003,12,31,1,1998,3.28069062729561,FALSE,
2003,12,31,2,1998,1.60423574392428,FALSE,
2003,12,31,3,1998,2.18041285671575,FALSE,
2003,12,31,4,1998,1.08979743280149,FALSE,2.8740992188087
2003,12,31,1,1999,3.69311646855288,FALSE,
2003,12,31,2,1999,2.24416343074623,FALSE,
2003,12,31,3,1999,5.06079316073709,FALSE,
2003,12,31,4,1999,4.2853662387603,FALSE,2.81841351440335
2003,12,31,1,2000,3.91382373155496,FALSE,
2003,12,31,2,2000,3.48627013361058,FALSE,
2003,12,31,3,2000,1.29223237528315,FALSE,
2003,12,31,4,2000,2.48146560297824,FALSE,3.51499736325549
2003,12,31,1,2001,2.72978752152275,FALSE,
2003,12,31,2,2001,0.126259099937087,FALSE,
2003,12,31,3,2001,0.726808480988872,FALSE,
2003,12,31,4,2001,-0.484601300956722,FALSE,1.6020326796867
2003,12,31,1,2002,1.52959987370918,FALSE,
2003,12,31,2,2002,1.92616009065669,FALSE,
2003,12,31,3,2002,0.943580847423742,FALSE,
2003,12,31,4,2002,0.0711949777058241,FALSE,0.87056067773057
2003,12,31,1,2003,-0.0711620818534042,FALSE,
2003,12,31,2,2003,-0.417243324275762,FALSE,
2003,12,31,3,2003,1.54216770682993,FALSE,
2003,12,31,4,2003,,TRUE,
2004,1,31,2,1991,1.22468679821113,FALSE,
2004,1,31,3,1991,-0.176289228282767,FALSE,
2004,1,31,4,1991,3.92568547224408,FALSE,
2004,1,31,1,1992,6.05690114719641,FALSE,
2004,1,31,2,1992,-2.95299805652298,FALSE,
2004,1,31,3,1992,-0.95603880036762,FALSE,
2004,1,31,4,1992,-0.96233582227524,FALSE,
2004,1,31,1,1993,-2.46720661414054,FALSE,
2004,1,31,2,1993,0.0757300264552896,FALSE,
2004,1,31,3,1993,1.5374444595682,FALSE,
2004,1,31,4,1993,1.13704350298645,FALSE,-0.834851960601723
2004,1,31,1,1994,3.94695882197131,FALSE,
2004,1,31,2,1994,2.38043185111621,FALSE,
2004,1,31,3,1994,2.65589774823909,FALSE,
2004,1,31,4,1994,3.23239614942077,FALSE,2.37298562159005
2004,1,31,1,1995,2.20656134950181,FALSE,
2004,1,31,2,1995,2.29961537022547,FALSE,
2004,1,31,3,1995,0.835771922424633,FALSE,
2004,1,31,4,1995,0.950115934852747,FALSE,2.22854084749222
2004,1,31,1,1996,0.565495681547268,FALSE,
2004,1,31,2,1996,2.9061348881851,FALSE,
2004,1,31,3,1996,2.17249932422405,FALSE,
2004,1,31,4,1996,0.660453005259631,FALSE,1.42219389269362
2004,1,31,1,1997,0.939926060999885,FALSE,
2004,1,31,2,1997,4.98079735301333,FALSE,
2004,1,31,3,1997,2.78353619433771,FALSE,
2004,1,31,4,1997,4.09812727067931,FALSE,2.34165589171387
2004,1,31,1,1998,3.2674433031352,FALSE,
2004,1,31,2,1998,1.59699200188972,FALSE,
2004,1,31,3,1998,2.18298175669338,FALSE,
2004,1,31,4,1998,1.08098977493745,FALSE,2.87409921880872
2004,1,31,1,1999,3.64615255697471,FALSE,
2004,1,31,2,1999,2.30040226035957,FALSE,
2004,1,31,3,1999,5.06956639726,FALSE,
2004,1,31,4,1999,4.31239854856027,FALSE,2.8183814266588
2004,1,31,1,2000,3.85201938998963,FALSE,
2004,1,31,2,2000,3.51401942068157,FALSE,
2004,1,31,3,2000,1.29188395697091,FALSE,
2004,1,31,4,2000,2.49146910394755,FALSE,3.51499862891505
2004,1,31,1,2001,2.7249600630479,FALSE,
2004,1,31,2,2001,0.0917830902954053,FALSE,
2004,1,31,3,2001,0.776822286087908,FALSE,
2004,1,31,4,2001,-0.516730087300021,FALSE,1.60203185634691
2004,1,31,1,2002,1.53256420348793,FALSE,
2004,1,31,2,2002,1.97944645253352,FALSE,
2004,1,31,3,2002,0.891602966424077,FALSE,
2004,1,31,4,2002,0.0380902538851924,FALSE,0.870575541778917
2004,1,31,1,2003,-0.0660495724325139,FALSE,
2004,1,31,2,2003,-0.411664245131504,FALSE,
2004,1,31,3,2003,1.54413532335784,FALSE,
2004,1,31,4,2003,,TRUE,
2004,1,31,1,2004,,TRUE,
2004,1,31,2,2004,,TRUE,
2004,1,31,3,2004,,TRUE,
2004,1,31,4,2004,,TRUE,
2004,2,28,2,1991,1.22468679821113,FALSE,
2004,2,28,3,1991,-0.176289228282767,FALSE,
2004,2,28,4,1991,3.92568547224408,FALSE,
2004,2,28,1,1992,6.05690114719641,FALSE,
2004,2,28,2,1992,-2.95299805652298,FALSE,
2004,2,28,3,1992,-0.95603880036762,FALSE,
2004,2,28,4,1992,-0.96233582227524,FALSE,
2004,2,28,1,1993,-2.46720661414054,FALSE,
2004,2,28,2,1993,0.0757300264552896,FALSE,
2004,2,28,3,1993,1.5374444595682,FALSE,
2004,2,28,4,1993,1.13704350298645,FALSE,-0.834851960601723
2004,2,28,1,1994,3.94695882197131,FALSE,
2004,2,28,2,1994,2.38043185111621,FALSE,
2004,2,28,3,1994,2.65589774823909,FALSE,
2004,2,28,4,1994,3.23239614942077,FALSE,2.37298562159005
2004,2,28,1,1995,2.20656134950181,FALSE,
2004,2,28,2,1995,2.29961537022547,FALSE,
2004,2,28,3,1995,0.835771922424633,FALSE,
2004,2,28,4,1995,0.950115934852747,FALSE,2.22854084749222
2004,2,28,1,1996,0.565495681547268,FALSE,
2004,2,28,2,1996,2.9061348881851,FALSE,
2004,2,28,3,1996,2.17249932422405,FALSE,
2004,2,28,4,1996,0.660453005259631,FALSE,1.42219389269362
2004,2,28,1,1997,0.939926060999885,FALSE,
2004,2,28,2,1997,4.98079735301333,FALSE,
2004,2,28,3,1997,2.78353619433771,FALSE,
2004,2,28,4,1997,4.09812727067931,FALSE,2.34165589171387
2004,2,28,1,1998,3.2674433031352,FALSE,
2004,2,28,2,1998,1.59699200188972,FALSE,
2004,2,28,3,1998,2.18298175669338,FALSE,
2004,2,28,4,1998,1.08098977493745,FALSE,2.87409921880872
2004,2,28,1,1999,3.64615255697471,FALSE,
2004,2,28,2,1999,2.30040226035957,FALSE,
2004,2,28,3,1999,5.06956639726,FALSE,
2004,2,28,4,1999,4.31239854856027,FALSE,2.8183814266588
2004,2,28,1,2000,3.85201938998963,FALSE,
2004,2,28,2,2000,3.51401942068157,FALSE,
2004,2,28,3,2000,1.29188395697091,FALSE,
2004,2,28,4,2000,2.49146910394755,FALSE,3.51499862891505
2004,2,28,1,2001,2.7249600630479,FALSE,
2004,2,28,2,2001,0.0917830902954053,FALSE,
2004,2,28,3,2001,0.776822286087908,FALSE,
2004,2,28,4,2001,-0.516730087300021,FALSE,1.60203185634691
2004,2,28,1,2002,1.53256420348793,FALSE,
2004,2,28,2,2002,1.97944645253352,FALSE,
2004,2,28,3,2002,0.891602966424077,FALSE,
2004,2,28,4,2002,0.0380902538851924,FALSE,0.870575541778917
2004,2,28,1,2003,-0.0660495724325139,FALSE,
2004,2,28,2,2003,-0.411664245131504,FALSE,
2004,2,28,3,2003,1.54413532335784,FALSE,
2004,2,28,4,2003,,TRUE,
2004,2,28,1,2004,,TRUE,
2004,2,28,2,2004,,TRUE,
2004,2,28,3,2004,,TRUE,
2004,2,28,4,2004,,TRUE,
2004,3,31,2,1991,1.22298441220732,FALSE,
2004,3,31,3,1991,-0.176185150616115,FALSE,
2004,3,31,4,1991,3.91398123811415,FALSE,
2004,3,31,1,1992,6.05705341424436,FALSE,
2004,3,31,2,1992,-2.93855106466615,FALSE,
2004,3,31,3,1992,-0.959471272404688,FALSE,
2004,3,31,4,1992,-0.965368413904588,FALSE,
2004,3,31,1,1993,-2.46837005939173,FALSE,
2004,3,31,2,1993,0.0771523143741737,FALSE,
2004,3,31,3,1993,1.53479347912469,FALSE,
2004,3,31,4,1993,1.14399862276771,FALSE,-0.83485176839192
2004,3,31,1,1994,3.93807772545574,FALSE,
2004,3,31,2,1994,2.38117399207389,FALSE,
2004,3,31,3,1994,2.66669036966347,FALSE,
2004,3,31,4,1994,3.22628492863208,FALSE,2.37298561699055
2004,3,31,1,1995,2.20233030656991,FALSE,
2004,3,31,2,1995,2.30945216709078,FALSE,
2004,3,31,3,1995,0.827532975043654,FALSE,
2004,3,31,4,1995,0.950313658013169,FALSE,2.22854425130441
2004,3,31,1,1996,0.57147206418906,FALSE,
2004,3,31,2,1996,2.90008733123313,FALSE,
2004,3,31,3,1996,2.17165994499655,FALSE,
2004,3,31,4,1996,0.662638380728131,FALSE,1.42222403149523
2004,3,31,1,1997,0.940950289247899,FALSE,
2004,3,31,2,1997,4.98073174206768,FALSE,
2004,3,31,3,1997,2.77960187305868,FALSE,
2004,3,31,4,1997,4.10249885314156,FALSE,2.34162023485163
2004,3,31,1,1998,3.26214681515864,FALSE,
2004,3,31,2,1998,1.5982399697569,FALSE,
2004,3,31,3,1998,2.18139631548289,FALSE,
2004,3,31,4,1998,1.09613941279445,FALSE,2.87410069242215
2004,3,31,1,1999,3.63914588722736,FALSE,
2004,3,31,2,1999,2.29415075655977,FALSE,
2004,3,31,3,1999,5.07242433811022,FALSE,
2004,3,31,4,1999,4.30930369156488,FALSE,2.81838351291441
2004,3,31,1,2000,3.76740369160826,FALSE,
2004,3,31,2,2000,3.56389811138931,FALSE,
2004,3,31,3,2000,1.22555043764698,FALSE,
2004,3,31,4,2000,2.47154440175974,FALSE,3.49288293019912
2004,3,31,1,2001,2.72705464165655,FALSE,
2004,3,31,2,2001,0.140826700524621,FALSE,
2004,3,31,3,2001,0.712008090876215,FALSE,
2004,3,31,4,2001,-0.528307517940174,FALSE,1.59402973735703
2004,3,31,1,2002,1.52101284942108,FALSE,
2004,3,31,2,2002,2.01956722313039,FALSE,
2004,3,31,3,2002,0.923696449975009,FALSE,
2004,3,31,4,2002,0.00456240145008113,FALSE,0.869837332574619
2004,3,31,1,2003,-0.0570022396637504,FALSE,
2004,3,31,2,2003,-0.350421416123714,FALSE,
2004,3,31,3,2003,1.55394005415075,FALSE,
2004,3,31,4,2003,1.24123691900133,FALSE,0.431382535518932
2004,3,31,1,2004,,TRUE,
2004,3,31,2,2004,,TRUE,
2004,3,31,3,2004,,TRUE,
2004,3,31,4,2004,,TRUE,
2004,4,30,2,1991,1.22298441220732,FALSE,
2004,4,30,3,1991,-0.176185150616115,FALSE,
2004,4,30,4,1991,3.91398123811415,FALSE,
2004,4,30,1,1992,6.05705341424436,FALSE,
2004,4,30,2,1992,-2.93855106466615,FALSE,
2004,4,30,3,1992,-0.959471272404688,FALSE,
2004,4,30,4,1992,-0.965368413904588,FALSE,
2004,4,30,1,1993,-2.46837005939173,FALSE,
2004,4,30,2,1993,0.0771523143741737,FALSE,
2004,4,30,3,1993,1.53479347912469,FALSE,
2004,4,30,4,1993,1.14399862276771,FALSE,-0.83485176839192
2004,4,30,1,1994,3.93807772545574,FALSE,
2004,4,30,2,1994,2.38117399207389,FALSE,
2004,4,30,3,1994,2.66669036966347,FALSE,
2004,4,30,4,1994,3.22628492863208,FALSE,2.37298561699055
2004,4,30,1,1995,2.20233030656991,FALSE,
2004,4,30,2,1995,2.30945216709078,FALSE,
2004,4,30,3,1995,0.827532975043654,FALSE,
2004,4,30,4,1995,0.950313658013169,FALSE,2.22854425130441
2004,4,30,1,1996,0.57147206418906,FALSE,
2004,4,30,2,1996,2.90008733123313,FALSE,
2004,4,30,3,1996,2.17165994499655,FALSE,
2004,4,30,4,1996,0.662638380728131,FALSE,1.42222403149523
2004,4,30,1,1997,0.940950289247899,FALSE,
2004,4,30,2,1997,4.98073174206768,FALSE,
2004,4,30,3,1997,2.77960187305868,FALSE,
2004,4,30,4,1997,4.10249885314156,FALSE,2.34162023485163
2004,4,30,1,1998,3.26214681515864,FALSE,
2004,4,30,2,1998,1.5982399697569,FALSE,
2004,4,30,3,1998,2.18139631548289,FALSE,
2004,4,30,4,1998,1.09613941279445,FALSE,2.87410069242215
2004,4,30,1,1999,3.63914588722736,FALSE,
2004,4,30,2,1999,2.29415075655977,FALSE,
2004,4,30,3,1999,5.07242433811022,FALSE,
2004,4,30,4,1999,4.30930369156488,FALSE,2.81838351291441
2004,4,30,1,2000,3.76740369160826,FALSE,
2004,4,30,2,2000,3.56389811138931,FALSE,
2004,4,30,3,2000,1.22555043764698,FALSE,
2004,4,30,4,2000,2.47154440175974,FALSE,3.49288293019912
2004,4,30,1,2001,2.72705464165655,FALSE,
2004,4,30,2,2001,0.140826700524621,FALSE,
2004,4,30,3,2001,0.712008090876215,FALSE,
2004,4,30,4,2001,-0.528307517940174,FALSE,1.59402973735703
2004,4,30,1,2002,1.52101284942108,FALSE,
2004,4,30,2,2002,2.01956722313039,FALSE,
2004,4,30,3,2002,0.923696449975009,FALSE,
2004,4,30,4,2002,0.00456240145008113,FALSE,0.869837332574619
2004,4,30,1,2003,-0.0570022396637504,FALSE,
2004,4,30,2,2003,-0.350421416123714,FALSE,
2004,4,30,3,2003,1.55394005415075,FALSE,
2004,4,30,4,2003,1.24123691900133,FALSE,0.431382535518932
2004,4,30,1,2004,,TRUE,
2004,4,30,2,2004,,TRUE,
2004,4,30,3,2004,,TRUE,
2004,4,30,4,2004,,TRUE,
2004,5,31,2,1991,1.23680375710236,FALSE,
2004,5,31,3,1991,-0.176886834836554,FALSE,
2004,5,31,4,1991,3.92172157557782,FALSE,
2004,5,31,1,1992,6.04217381580257,FALSE,
2004,5,31,2,1992,-2.93743808552337,FALSE,
2004,5,31,3,1992,-0.95525545923717,FALSE,
2004,5,31,4,1992,-0.95568732456891,FALSE,
2004,5,31,1,1993,-2.48451161113887,FALSE,
2004,5,31,2,1993,0.0805734060246977,FALSE,
2004,5,31,3,1993,1.54041094227029,FALSE,
2004,5,31,4,1993,1.14980929548998,FALSE,-0.834852157625554
2004,5,31,1,1994,3.92321559990896,FALSE,
2004,5,31,2,1994,2.38910520617481,FALSE,
2004,5,31,3,1994,2.668197930292,FALSE,
2004,5,31,4,1994,3.22555029267828,FALSE,2.37298602764406
2004,5,31,1,1995,2.19636581127913,FALSE,
2004,5,31,2,1995,2.31392851328849,FALSE,
2004,5,31,3,1995,0.827674771904374,FALSE,
2004,5,31,4,1995,0.951798232078249,FALSE,2.2285459679785
2004,5,31,1,1996,0.5733891561577,FALSE,
2004,5,31,2,1996,2.89485178715583,FALSE,
2004,5,31,3,1996,2.17181660491499,FALSE,
2004,5,31,4,1996,0.660978584831273,FALSE,1.42222420089848
2004,5,31,1,1997,0.945789283838616,FALSE,
2004,5,31,2,1997,4.98178071826427,FALSE,
2004,5,31,3,1997,2.77444866996395,FALSE,
2004,5,31,4,1997,4.10001292312934,FALSE,2.34161837881408
2004,5,31,1,1998,3.27507502347986,FALSE,
2004,5,31,2,1998,1.59348046350496,FALSE,
2004,5,31,3,1998,2.17144100519002,FALSE,
2004,5,31,4,1998,1.09582656194693,FALSE,2.874102313698
2004,5,31,1,1999,3.62689159797995,FALSE,
2004,5,31,2,1999,2.2717104357922,FALSE,
2004,5,31,3,1999,5.06845921223624,FALSE,
2004,5,31,4,1999,4.45934479279371,FALSE,2.81838244290036
2004,5,31,1,2000,3.68365024930128,FALSE,
2004,5,31,2,2000,3.53777112980604,FALSE,
2004,5,31,3,2000,1.24321455606704,FALSE,
2004,5,31,4,2000,2.43497184400618,FALSE,3.49288360497051
2004,5,31,1,2001,2.75029207985662,FALSE,
2004,5,31,2,2001,0.153697694585553,FALSE,
2004,5,31,3,2001,0.67708529197259,FALSE,
2004,5,31,4,2001,-0.492219026269158,FALSE,1.59395572520251
2004,5,31,1,2002,1.52788054078064,FALSE,
2004,5,31,2,2002,2.01555566238183,FALSE,
2004,5,31,3,2002,0.916473438447363,FALSE,
2004,5,31,4,2002,-0.0214156115829867,FALSE,0.871551803085113
2004,5,31,1,2003,-0.0685311600772565,FALSE,
2004,5,31,2,2003,-0.392662687754708,FALSE,
2004,5,31,3,2003,1.50145319328734,FALSE,
2004,5,31,4,2003,1.2206482443631,FALSE,0.406681936027731
2004,5,31,1,2004,,TRUE,
2004,5,31,2,2004,,TRUE,
2004,5,31,3,2004,,TRUE,
2004,5,31,4,2004,,TRUE,
2004,6,30,2,1991,1.19345738763876,FALSE,
2004,6,30,3,1991,-0.11046162331807,FALSE,
2004,6,30,4,1991,3.85861376388277,FALSE,
2004,6,30,1,1992,6.17632015723351,FALSE,
2004,6,30,2,1992,-3.01851872238129,FALSE,
2004,6,30,3,1992,-1.11541873342903,FALSE,
2004,6,30,4,1992,-0.797438459107813,FALSE,
2004,6,30,1,1993,-2.69768655969261,FALSE,
2004,6,30,2,1993,0.297037800842825,FALSE,
2004,6,30,3,1993,1.66878901236494,FALSE,
2004,6,30,4,1993,1.0515539788533,FALSE,-0.834859156708867
2004,6,30,1,1994,3.75829992148429,FALSE,
2004,6,30,2,1994,2.51468094643317,FALSE,
2004,6,30,3,1994,2.72104894865002,FALSE,
2004,6,30,4,1994,3.21168444187441,FALSE,2.37298280875553
2004,6,30,1,1995,2.19052812109859,FALSE,
2004,6,30,2,1995,2.26254420786167,FALSE,
2004,6,30,3,1995,0.781056351684306,FALSE,
2004,6,30,4,1995,1.03526317471869,FALSE,2.22853402137686
2004,6,30,1,1996,0.670223881824383,FALSE,
2004,6,30,2,1996,2.83564488865313,FALSE,
2004,6,30,3,1996,1.98627484219218,FALSE,
2004,6,30,4,1996,0.708926347909289,FALSE,1.42221491763346
2004,6,30,1,1997,0.887826265078417,FALSE,
2004,6,30,2,1997,5.0780136856438,FALSE,
2004,6,30,3,1997,2.87208348124859,FALSE,
2004,6,30,4,1997,4.13907364673085,FALSE,2.34161277221749
2004,6,30,1,1998,3.06114331645786,FALSE,
2004,6,30,2,1998,1.71941677224947,FALSE,
2004,6,30,3,1998,2.20920382638696,FALSE,
2004,6,30,4,1998,1.08772019941763,FALSE,2.87407715474108
2004,6,30,1,1999,3.46813323065152,FALSE,
2004,6,30,2,1999,2.47574860914424,FALSE,
2004,6,30,3,1999,5.02728741405072,FALSE,
2004,6,30,4,1999,4.37736364134076,FALSE,2.81844592009175
2004,6,30,1,2000,3.66968532826999,FALSE,
2004,6,30,2,2000,3.48331352690401,FALSE,
2004,6,30,3,2000,1.40739909299132,FALSE,
2004,6,30,4,2000,2.43143508532899,FALSE,3.49255318314448
2004,6,30,1,2001,2.65146004735855,FALSE,
2004,6,30,2,2001,0.142783216409015,FALSE,
2004,6,30,3,2001,0.91315875139848,FALSE,
2004,6,30,4,2001,-0.795270050918429,FALSE,1.5943398468433
2004,6,30,1,2002,1.68396955202887,FALSE,
2004,6,30,2,2002,1.97477059905009,FALSE,
2004,6,30,3,2002,0.792483792295839,FALSE,
2004,6,30,4,2002,0.13261700179914,FALSE,0.868042260600688
2004,6,30,1,2003,-0.0360122930470941,FALSE,
2004,6,30,2,2003,-0.320051242018582,FALSE,
2004,6,30,3,2003,1.65244117537877,FALSE,
2004,6,30,4,2003,1.49186166378825,FALSE,0.475236767803988
2004,6,30,1,2004,2.31179840937314,FALSE,
2004,6,30,2,2004,,TRUE,
2004,6,30,3,2004,,TRUE,
2004,6,30,4,2004,,TRUE,
2004,7,31,2,1991,1.19345738763876,FALSE,
2004,7,31,3,1991,-0.11046162331807,FALSE,
2004,7,31,4,1991,3.85861376388277,FALSE,
2004,7,31,1,1992,6.17632015723351,FALSE,
2004,7,31,2,1992,-3.01851872238129,FALSE,
2004,7,31,3,1992,-1.11541873342903,FALSE,
2004,7,31,4,1992,-0.797438459107813,FALSE,
2004,7,31,1,1993,-2.69768655969261,FALSE,
2004,7,31,2,1993,0.297037800842825,FALSE,
2004,7,31,3,1993,1.66878901236494,FALSE,
2004,7,31,4,1993,1.0515539788533,FALSE,-0.834859156708867
2004,7,31,1,1994,3.75829992148429,FALSE,
2004,7,31,2,1994,2.51468094643317,FALSE,
2004,7,31,3,1994,2.72104894865002,FALSE,
2004,7,31,4,1994,3.21168444187441,FALSE,2.37298280875553
2004,7,31,1,1995,2.19052812109859,FALSE,
2004,7,31,2,1995,2.26254420786167,FALSE,
2004,7,31,3,1995,0.781056351684306,FALSE,
2004,7,31,4,1995,1.03526317471869,FALSE,2.22853402137686
2004,7,31,1,1996,0.670223881824383,FALSE,
2004,7,31,2,1996,2.83564488865313,FALSE,
2004,7,31,3,1996,1.98627484219218,FALSE,
2004,7,31,4,1996,0.708926347909289,FALSE,1.42221491763346
2004,7,31,1,1997,0.887826265078417,FALSE,
2004,7,31,2,1997,5.0780136856438,FALSE,
2004,7,31,3,1997,2.87208348124859,FALSE,
2004,7,31,4,1997,4.13907364673085,FALSE,2.34161277221749
2004,7,31,1,1998,3.06114331645786,FALSE,
2004,7,31,2,1998,1.71941677224947,FALSE,
2004,7,31,3,1998,2.20920382638696,FALSE,
2004,7,31,4,1998,1.08772019941763,FALSE,2.87407715474108
2004,7,31,1,1999,3.46813323065152,FALSE,
2004,7,31,2,1999,2.47574860914424,FALSE,
2004,7,31,3,1999,5.02728741405072,FALSE,
2004,7,31,4,1999,4.37736364134076,FALSE,2.81844592009175
2004,7,31,1,2000,3.66968532826999,FALSE,
2004,7,31,2,2000,3.48331352690401,FALSE,
2004,7,31,3,2000,1.40739909299132,FALSE,
2004,7,31,4,2000,2.43143508532899,FALSE,3.49255318314448
2004,7,31,1,2001,2.65146004735855,FALSE,
2004,7,31,2,2001,0.142783216409015,FALSE,
2004,7,31,3,2001,0.91315875139848,FALSE,
2004,7,31,4,2001,-0.795270050918429,FALSE,1.5943398468433
2004,7,31,1,2002,1.68396955202887,FALSE,
2004,7,31,2,2002,1.97477059905009,FALSE,
2004,7,31,3,2002,0.792483792295839,FALSE,
2004,7,31,4,2002,0.13261700179914,FALSE,0.868042260600688
2004,7,31,1,2003,-0.0360122930470941,FALSE,
2004,7,31,2,2003,-0.320051242018582,FALSE,
2004,7,31,3,2003,1.65244117537877,FALSE,
2004,7,31,4,2003,1.49186166378825,FALSE,0.475236767803988
2004,7,31,1,2004,2.31179840937314,FALSE,
2004,7,31,2,2004,,TRUE,
2004,7,31,3,2004,,TRUE,
2004,7,31,4,2004,,TRUE,
2004,8,31,2,1991,1.20481980085028,FALSE,
2004,8,31,3,1991,-0.0720633628526146,FALSE,
2004,8,31,4,1991,3.89990879039976,FALSE,
2004,8,31,1,1992,6.06458349695251,FALSE,
2004,8,31,2,1992,-2.9444686551965,FALSE,
2004,8,31,3,1992,-1.1254704306828,FALSE,
2004,8,31,4,1992,-0.791187312154518,FALSE,
2004,8,31,1,1993,-2.70751732880534,FALSE,
2004,8,31,2,1993,0.286551075644015,FALSE,
2004,8,31,3,1993,1.65841135486269,FALSE,
2004,8,31,4,1993,1.06853233634536,FALSE,-0.834858583289022
2004,8,31,1,1994,3.76675260977311,FALSE,
2004,8,31,2,1994,2.47230940771093,FALSE,
2004,8,31,3,1994,2.73556453115444,FALSE,
2004,8,31,4,1994,3.25645358643454,FALSE,2.3729826103281
2004,8,31,1,1995,2.1327853565889,FALSE,
2004,8,31,2,1995,2.28963247908589,FALSE,
2004,8,31,3,1995,0.792983897373967,FALSE,
2004,8,31,4,1995,1.04128338093847,FALSE,2.22853496805209
2004,8,31,1,1996,0.633086665157623,FALSE,
2004,8,31,2,1996,2.88566209997347,FALSE,
2004,8,31,3,1996,1.96390262546313,FALSE,
2004,8,31,4,1996,0.686483661395476,FALSE,1.42221323759457
2004,8,31,1,1997,0.96249301597362,FALSE,
2004,8,31,2,1997,5.00646957821864,FALSE,
2004,8,31,3,1997,2.86657265195309,FALSE,
2004,8,31,4,1997,4.12105558533187,FALSE,2.34161388498471
2004,8,31,1,1998,3.11489910127047,FALSE,
2004,8,31,2,1998,1.71161840023251,FALSE,
2004,8,31,3,1998,2.21116077438785,FALSE,
2004,8,31,4,1998,1.02739473604325,FALSE,2.87407625232294
2004,8,31,1,1999,3.45473143712363,FALSE,
2004,8,31,2,1999,2.46005296519909,FALSE,
2004,8,31,3,1999,5.14085854187154,FALSE,
2004,8,31,4,1999,4.44119484155119,FALSE,2.81844576131001
2004,8,31,1,2000,3.5251130280664,FALSE,
2004,8,31,2,2000,3.55178096788709,FALSE,
2004,8,31,3,2000,1.4352537272408,FALSE,
2004,8,31,4,2000,2.35294860824353,FALSE,3.49255388148237
2004,8,31,1,2001,2.65251321679645,FALSE,
2004,8,31,2,2001,0.188711192602464,FALSE,
2004,8,31,3,2001,0.901674260143004,FALSE,
2004,8,31,4,2001,-0.789993522596955,FALSE,1.59529584145766
2004,8,31,1,2002,1.73859702068373,FALSE,
2004,8,31,2,2002,1.84326142852482,FALSE,
2004,8,31,3,2002,0.862579821135734,FALSE,
2004,8,31,4,2002,0.155296646434477,FALSE,0.869818831864477
2004,8,31,1,2003,0.0370349875334908,FALSE,
2004,8,31,2,2003,-0.502886836210292,FALSE,
2004,8,31,3,2003,1.73993831357775,FALSE,
2004,8,31,4,2003,1.51481498853732,FALSE,0.476143115854177
2004,8,31,1,2004,2.5409912595127,FALSE,
2004,8,31,2,2004,,TRUE,
2004,8,31,3,2004,,TRUE,
2004,8,31,4,2004,,TRUE,
2004,9,30,2,1991,1.20481980085028,FALSE,
2004,9,30,3,1991,-0.0720633628526146,FALSE,
2004,9,30,4,1991,3.89990879039976,FALSE,
2004,9,30,1,1992,6.06458349695251,FALSE,
2004,9,30,2,1992,-2.9444686551965,FALSE,
2004,9,30,3,1992,-1.1254704306828,FALSE,
2004,9,30,4,1992,-0.791187312154518,FALSE,
2004,9,30,1,1993,-2.70751732880534,FALSE,
2004,9,30,2,1993,0.286551075644015,FALSE,
2004,9,30,3,1993,1.65841135486269,FALSE,
2004,9,30,4,1993,1.06853233634536,FALSE,-0.834858583289022
2004,9,30,1,1994,3.76675260977311,FALSE,
2004,9,30,2,1994,2.47230940771093,FALSE,
2004,9,30,3,1994,2.73556453115444,FALSE,
2004,9,30,4,1994,3.25645358643454,FALSE,2.3729826103281
2004,9,30,1,1995,2.1327853565889,FALSE,
2004,9,30,2,1995,2.28963247908589,FALSE,
2004,9,30,3,1995,0.792983897373967,FALSE,
2004,9,30,4,1995,1.04128338093847,FALSE,2.22853496805209
2004,9,30,1,1996,0.633086665157623,FALSE,
2004,9,30,2,1996,2.88566209997347,FALSE,
2004,9,30,3,1996,1.96390262546313,FALSE,
2004,9,30,4,1996,0.686483661395476,FALSE,1.42221323759457
2004,9,30,1,1997,0.96249301597362,FALSE,
2004,9,30,2,1997,5.00646957821864,FALSE,
2004,9,30,3,1997,2.86657265195309,FALSE,
2004,9,30,4,1997,4.12105558533187,FALSE,2.34161388498471
2004,9,30,1,1998,3.11489910127047,FALSE,
2004,9,30,2,1998,1.71161840023251,FALSE,
2004,9,30,3,1998,2.21116077438785,FALSE,
2004,9,30,4,1998,1.02739473604325,FALSE,2.87407625232294
2004,9,30,1,1999,3.45473143712363,FALSE,
2004,9,30,2,1999,2.46005296519909,FALSE,
2004,9,30,3,1999,5.14085854187154,FALSE,
2004,9,30,4,1999,4.44119484155119,FALSE,2.81844576131001
2004,9,30,1,2000,3.5251130280664,FALSE,
2004,9,30,2,2000,3.55178096788709,FALSE,
2004,9,30,3,2000,1.4352537272408,FALSE,
2004,9,30,4,2000,2.35294860824353,FALSE,3.49255388148237
2004,9,30,1,2001,2.65251321679645,FALSE,
2004,9,30,2,2001,0.188711192602464,FALSE,
2004,9,30,3,2001,0.901674260143004,FALSE,
2004,9,30,4,2001,-0.789993522596955,FALSE,1.59529584145766
2004,9,30,1,2002,1.73859702068373,FALSE,
2004,9,30,2,2002,1.84326142852482,FALSE,
2004,9,30,3,2002,0.862579821135734,FALSE,
2004,9,30,4,2002,0.155296646434477,FALSE,0.869818831864477
2004,9,30,1,2003,0.0370349875334908,FALSE,
2004,9,30,2,2003,-0.502886836210292,FALSE,
2004,9,30,3,2003,1.73993831357775,FALSE,
2004,9,30,4,2003,1.51481498853732,FALSE,0.476143115854177
2004,9,30,1,2004,2.5409912595127,FALSE,
2004,9,30,2,2004,2.05686311441093,FALSE,
2004,9,30,3,2004,,TRUE,
2004,9,30,4,2004,,TRUE,
2004,10,31,2,1991,1.26747007702841,FALSE,
2004,10,31,3,1991,0.0349341486787669,FALSE,
2004,10,31,4,1991,3.87741144686709,FALSE,
2004,10,31,1,1992,6.0770579188951,FALSE,
2004,10,31,2,1992,-3.02385208752431,FALSE,
2004,10,31,3,1992,-1.08872346113972,FALSE,
2004,10,31,4,1992,-0.877276483947131,FALSE,
2004,10,31,1,1993,-2.6899547613002,FALSE,
2004,10,31,2,1993,0.310313554154806,FALSE,
2004,10,31,3,1993,1.71666939429447,FALSE,
2004,10,31,4,1993,1.07903350143133,FALSE,-0.834858777103453
2004,10,31,1,1994,3.71363121496262,FALSE,
2004,10,31,2,1994,2.48931020146674,FALSE,
2004,10,31,3,1994,2.82179723957834,FALSE,
2004,10,31,4,1994,3.06964038221829,FALSE,2.37298300718296
2004,10,31,1,1995,2.40118969567709,FALSE,
2004,10,31,2,1995,2.17062848664167,FALSE,
2004,10,31,3,1995,0.622867033817398,FALSE,
2004,10,31,4,1995,1.03837752579719,FALSE,2.22853477871705
2004,10,31,1,1996,0.740177601121328,FALSE,
2004,10,31,2,1996,2.86054362509312,FALSE,
2004,10,31,3,1996,2.02916688215511,FALSE,
2004,10,31,4,1996,0.667123863514751,FALSE,1.42221324022862
2004,10,31,1,1997,0.912326279322606,FALSE,
2004,10,31,2,1997,5.06102818895791,FALSE,
2004,10,31,3,1997,2.86020886378324,FALSE,
2004,10,31,4,1997,4.13039494078573,FALSE,2.34161425448174
2004,10,31,1,1998,3.07246421812584,FALSE,
2004,10,31,2,1998,1.77309153781124,FALSE,
2004,10,31,3,1998,2.17841726942491,FALSE,
2004,10,31,4,1998,1.00899052392576,FALSE,2.87407624719467
2004,10,31,1,1999,3.45733584988486,FALSE,
2004,10,31,2,1999,2.49452831188668,FALSE,
2004,10,31,3,1999,5.14196516155936,FALSE,
2004,10,31,4,1999,4.38440557433444,FALSE,2.81844540952689
2004,10,31,1,2000,3.6306591001543,FALSE,
2004,10,31,2,2000,3.57112429185211,FALSE,
2004,10,31,3,2000,1.31939241211902,FALSE,
2004,10,31,4,2000,2.24438248955336,FALSE,3.49255405606685
2004,10,31,1,2001,2.9690134181739,FALSE,
2004,10,31,2,2001,-0.0889844688081176,FALSE,
2004,10,31,3,2001,0.881464945571064,FALSE,
2004,10,31,4,2001,-0.676441047288967,FALSE,1.59189321783026
2004,10,31,1,2002,1.6887493442667,FALSE,
2004,10,31,2,2002,1.56659911416621,FALSE,
2004,10,31,3,2002,1.10015265689487,FALSE,
2004,10,31,4,2002,0.166797378309358,FALSE,0.838027710274658
2004,10,31,1,2003,0.0439737281563879,FALSE,
2004,10,31,2,2003,-0.708250639720265,FALSE,
2004,10,31,3,2003,1.88518054621465,FALSE,
2004,10,31,4,2003,1.4847535663677,FALSE,0.469666079711639
2004,10,31,1,2004,2.60165794073493,FALSE,
2004,10,31,2,2004,2.06106278369218,FALSE,
2004,10,31,3,2004,,TRUE,
2004,10,31,4,2004,,TRUE,
2004,11,30,2,1991,1.27130803001545,FALSE,
2004,11,30,3,1991,0.0360791384520498,FALSE,
2004,11,30,4,1991,3.8751203068526,FALSE,
2004,11,30,1,1992,6.10285553646228,FALSE,
2004,11,30,2,1992,-3.04203644998905,FALSE,
2004,11,30,3,1992,-1.08262542702986,FALSE,
2004,11,30,4,1992,-0.893850098285542,FALSE,
2004,11,30,1,1993,-2.68698616035156,FALSE,
2004,11,30,2,1993,0.31118460467856,FALSE,
2004,11,30,3,1993,1.72922362130457,FALSE,
2004,11,30,4,1993,1.06179711340368,FALSE,-0.836986372633575
2004,11,30,1,1994,3.72247770553864,FALSE,
2004,11,30,2,1994,2.49084033464957,FALSE,
2004,11,30,3,1994,2.83219302969537,FALSE,
2004,11,30,4,1994,3.06755222432633,FALSE,2.3749863518411
2004,11,30,1,1995,2.41165698112673,FALSE,
2004,11,30,2,1995,2.1880868376349,FALSE,
2004,11,30,3,1995,0.62787119083767,FALSE,
2004,11,30,4,1995,1.06057172114293,FALSE,2.23746520334096
2004,11,30,1,1996,0.772060080189019,FALSE,
2004,11,30,2,1996,2.8941296143721,FALSE,
2004,11,30,3,1996,2.03613872774726,FALSE,
2004,11,30,4,1996,0.677107903672303,FALSE,1.44384361503154
2004,11,30,1,1997,0.91314478035136,FALSE,
2004,11,30,2,1997,5.07385234769131,FALSE,
2004,11,30,3,1997,2.84492460187971,FALSE,
2004,11,30,4,1997,4.12599286666646,FALSE,2.34682385233536
2004,11,30,1,1998,3.04250281933156,FALSE,
2004,11,30,2,1998,1.76903373805424,FALSE,
2004,11,30,3,1998,2.17673628901147,FALSE,
2004,11,30,4,1998,1.03173489701567,FALSE,2.86513994791184
2004,11,30,1,1999,3.49736738911368,FALSE,
2004,11,30,2,1999,2.52278387442311,FALSE,
2004,11,30,3,1999,5.15126442765514,FALSE,
2004,11,30,4,1999,4.38690632299099,FALSE,2.83890178887658
2004,11,30,1,2000,3.6085309190228,FALSE,
2004,11,30,2,2000,3.55877061143477,FALSE,
2004,11,30,3,2000,1.30988499465576,FALSE,
2004,11,30,4,2000,2.27014280996294,FALSE,3.48848225719269
2004,11,30,1,2001,2.99723741571918,FALSE,
2004,11,30,2,2001,-0.0791778720408587,FALSE,
2004,11,30,3,2001,0.868902968391017,FALSE,
2004,11,30,4,2001,-0.662916270505543,FALSE,1.60285654979373
2004,11,30,1,2002,1.65984761010638,FALSE,
2004,11,30,2,2002,1.57211675234106,FALSE,
2004,11,30,3,2002,1.10577646839178,FALSE,
2004,11,30,4,2002,0.209166650121606,FALSE,0.836889765034798
2004,11,30,1,2003,0.115323539606549,FALSE,
2004,11,30,2,2003,-0.712827603975397,FALSE,
2004,11,30,3,2003,1.90679980480979,FALSE,
2004,11,30,4,2003,1.50725670050251,FALSE,0.499775378557366
2004,11,30,1,2004,2.76818296384049,FALSE,
2004,11,30,2,2004,2.01176869063398,FALSE,
2004,11,30,3,2004,,TRUE,
2004,11,30,4,2004,,TRUE,
2004,12,31,2,1991,1.28332327612886,FALSE,
2004,12,31,3,1991,0.0292363517543137,FALSE,
