fredbec/spf-europe/data/processed/revdatfull.csv
origin_year,origin_month,target_quarter,target_year,rgdp_growth,rgdp_growth_ann
2001,1,2,1991,1.22035149289275,
2001,1,3,1991,0.242686548220705,
2001,1,4,1991,3.9019132783761,
2001,1,1,1992,5.67949033371342,
2001,1,2,1992,-2.15845385305231,
2001,1,3,1992,-1.28747712943088,
2001,1,4,1992,-0.889854327095996,
2001,1,1,1993,-2.76785324946042,
2001,1,2,1993,0.30894852636647,
2001,1,3,1993,1.22447410419595,
2001,1,4,1993,1.4903550775744,-0.861918066094114
2001,1,1,1994,4.05992642595303,
2001,1,2,1994,2.07549720979923,
2001,1,3,1994,2.73678377932585,
2001,1,4,1994,3.37393012264526,2.40465436766857
2001,1,1,1995,2.43561441206268,
2001,1,2,1995,2.10065976966085,
2001,1,3,1995,0.40745099421633,
2001,1,4,1995,0.923318769291126,2.20941193682196
2001,1,1,1996,0.975795507589483,
2001,1,2,1996,2.58868091543496,
2001,1,3,1996,2.27653823417493,
2001,1,4,1996,0.847520542300018,1.42018457782167
2001,1,1,1997,0.707462962374184,
2001,1,2,1997,4.9673476350411,
2001,1,3,1997,2.90482768543348,
2001,1,4,1997,3.39029458423401,2.28011947138138
2001,1,1,1998,3.44358337696575,
2001,1,2,1998,1.3529405317863,
2001,1,3,1998,2.1617340502966,
2001,1,4,1998,1.08394753321359,2.75222517396627
2001,1,1,1999,3.07501228384053,
2001,1,2,1999,2.31828188277918,
2001,1,3,1999,3.89934161643468,
2001,1,4,1999,3.92760695631864,2.49338410153377
2001,1,1,2000,3.71508896273649,
2001,1,2,2000,3.33240467802769,
2001,1,3,2000,2.73217648097268,
2001,1,4,2000,,
2001,1,1,2001,,
2001,1,2,2001,,
2001,1,3,2001,,
2001,1,4,2001,,
2001,2,2,1991,1.12384132543095,
2001,2,3,1991,0.134704883392822,
2001,2,4,1991,3.38051563436741,
2001,2,1,1992,6.45892265514567,
2001,2,2,1992,-2.39835653912331,
2001,2,3,1992,-1.4058829426451,
2001,2,4,1992,-1.03930645228429,
2001,2,1,1993,-2.48722497551369,
2001,2,2,1993,0.261585554797206,
2001,2,3,1993,1.07745753590149,
2001,2,4,1993,1.71488962413158,-0.861917685005098
2001,2,1,1994,4.03510399010705,
2001,2,2,1994,1.96530724927766,
2001,2,3,1994,2.64558865235922,
2001,2,4,1994,3.65476389547685,2.40465417379643
2001,2,1,1995,2.53235273036725,
2001,2,2,1995,1.82873469737295,
2001,2,3,1995,0.314341194141732,
2001,2,4,1995,1.00606940099812,2.20941231964413
2001,2,1,1996,1.04061681177248,
2001,2,2,1996,2.59022703151404,
2001,2,3,1996,2.35233068526104,
2001,2,4,1996,0.642050914407721,1.42018476041832
2001,2,1,1997,0.626060319585409,
2001,2,2,1997,5.16869805980198,
2001,2,3,1997,3.07695105613279,
2001,2,4,1997,3.25790249169673,2.28011891515236
2001,2,1,1998,3.10510116834875,
2001,2,2,1998,1.74210094258378,
2001,2,3,1998,2.22492370023901,
2001,2,4,1998,0.937577295332837,2.74945693114894
2001,2,1,1999,2.95530720786368,
2001,2,2,1999,2.38759912588513,
2001,2,3,1999,4.07044578157292,
2001,2,4,1999,3.83010038943159,2.49633435771097
2001,2,1,2000,3.63961695105834,
2001,2,2,2000,3.56902267910186,
2001,2,3,2000,2.64981588182456,
2001,2,4,2000,,
2001,2,1,2001,,
2001,2,2,2001,,
2001,2,3,2001,,
2001,2,4,2001,,
2001,3,2,1991,1.1450144592428,
2001,3,3,1991,0.144476387390524,
2001,3,4,1991,3.35460368274103,
2001,3,1,1992,6.46223013878078,
2001,3,2,1992,-2.39511450987036,
2001,3,3,1992,-1.39624048576191,
2001,3,4,1992,-1.04570304255245,
2001,3,1,1993,-2.47364717688081,
2001,3,2,1993,0.247452526997649,
2001,3,3,1993,1.07831265507614,
2001,3,4,1993,1.69484280297774,-0.861991479807911
2001,3,1,1994,4.04820288338041,
2001,3,2,1994,1.96600624989458,
2001,3,3,1994,2.67686654786623,
2001,3,4,1994,3.61151150126071,2.40466402104598
2001,3,1,1995,2.4718840660575,
2001,3,2,1995,1.87564324462359,
2001,3,3,1995,0.183191846613706,
2001,3,4,1995,1.20251243351166,2.19482528394166
2001,3,1,1996,0.948039432270642,
2001,3,2,1996,2.57913091639148,
2001,3,3,1996,2.46706477164138,
2001,3,4,1996,0.44913323226432,1.42018457782169
2001,3,1,1997,0.7383131966892,
2001,3,2,1997,5.11811808396407,
2001,3,3,1997,3.04867262818087,
2001,3,4,1997,3.37697620804052,2.28011965401485
2001,3,1,1998,2.98718309270585,
2001,3,2,1998,1.83437229422911,
2001,3,3,1998,2.1915584913315,
2001,3,4,1998,0.94587369165493,2.74945656420587
2001,3,1,1999,2.89837688208081,
2001,3,2,1999,2.42167057545639,
2001,3,3,1999,4.14408635224228,
2001,3,4,1999,3.757040057663,2.49633435771095
2001,3,1,2000,3.62161851635121,
2001,3,2,2000,3.47702661674512,
2001,3,3,2000,2.53258756694363,
2001,3,4,2000,,
2001,3,1,2001,,
2001,3,2,2001,,
2001,3,3,2001,,
2001,3,4,2001,,
2001,4,2,1991,1.03380705413862,
2001,4,3,1991,0.221951484942906,
2001,4,4,1991,3.86633767332045,
2001,4,1,1992,5.86906539211933,
2001,4,2,1992,-2.35096919690088,
2001,4,3,1992,-1.08865822184565,
2001,4,4,1992,-1.08937515191143,
2001,4,1,1993,-2.74514395996807,
2001,4,2,1993,0.155283009133944,
2001,4,3,1993,1.5729998786215,
2001,4,4,1993,1.56781798588088,-0.861969934349549
2001,4,1,1994,3.61303084986029,
2001,4,2,1994,2.32065514073023,
2001,4,3,1994,2.95413091159094,
2001,4,4,1994,3.18283271645303,2.40466231220418
2001,4,1,1995,2.35210954829024,
2001,4,2,1995,2.0844020883876,
2001,4,3,1995,0.377715613502794,
2001,4,4,1995,1.02426197502647,2.1947946182902
2001,4,1,1996,1.14641432399198,
2001,4,2,1996,2.213971591817,
2001,4,3,1996,2.4763225923129,
2001,4,4,1996,0.690128817546776,1.42236359719079
2001,4,1,1997,1.16309018329293,
2001,4,2,1997,4.70743652207279,
2001,4,3,1997,2.76266170244552,
2001,4,4,1997,3.59973205362374,2.31477722000311
2001,4,1,1998,3.56629010829461,
2001,4,2,1998,1.2979694127919,
2001,4,3,1998,2.32838326100828,
2001,4,4,1998,1.031845155816,2.79543343272097
2001,4,1,1999,3.14396944211055,
2001,4,2,1999,2.19943459981997,
2001,4,3,1999,4.07845750807045,
2001,4,4,1999,4.02089109551278,2.5236384761715
2001,4,1,2000,3.7440865434178,
2001,4,2,2000,3.06382008204198,
2001,4,3,2000,2.23845215236032,
2001,4,4,2000,2.84977351479012,3.36534227141199
2001,4,1,2001,,
2001,4,2,2001,,
2001,4,3,2001,,
2001,4,4,2001,,
2001,5,2,1991,1.12498016162488,
2001,5,3,1991,0.148815841229366,
2001,5,4,1991,3.87301470725134,
2001,5,1,1992,5.95594093058895,
2001,5,2,1992,-2.45561850958964,
2001,5,3,1992,-1.05851591465951,
2001,5,4,1992,-1.12472806440553,
2001,5,1,1993,-2.72660949136438,
2001,5,2,1993,0.162038884735183,
2001,5,3,1993,1.57649647215792,
2001,5,4,1993,1.62923287945829,-0.861354265450365
2001,5,1,1994,3.59586130502141,
2001,5,2,1994,2.2504675990455,
2001,5,3,1994,2.98757229601374,
2001,5,4,1994,3.18368938526112,2.40389789432036
2001,5,1,1995,2.28350917833167,
2001,5,2,1995,2.17301888543981,
2001,5,3,1995,0.382008238114961,
2001,5,4,1995,1.02750689639974,2.19501135830089
2001,5,1,1996,1.16946291942803,
2001,5,2,1996,2.15011642939214,
2001,5,3,1996,2.50193949805644,
2001,5,4,1996,0.632818857244355,1.42240525699282
2001,5,1,1997,1.13490336842408,
2001,5,2,1997,4.75635876569991,
2001,5,3,1997,2.84976929426788,
2001,5,4,1997,3.58184983691825,2.31477763728785
2001,5,1,1998,3.8009913844905,
2001,5,2,1998,1.3395867391635,
2001,5,3,1998,2.33251961747425,
2001,5,4,1998,0.944886278737345,2.86696214263329
2001,5,1,1999,3.25148316482584,
2001,5,2,1999,2.11810759070918,
2001,5,3,1999,4.12102083953767,
2001,5,4,1999,4.03884030982378,2.52799670277242
2001,5,1,2000,3.77528860696574,
2001,5,2,2000,3.1226687751984,
2001,5,3,2000,2.27915682084887,
2001,5,4,2000,2.68168566946252,3.38220156568767
2001,5,1,2001,,
2001,5,2,2001,,
2001,5,3,2001,,
2001,5,4,2001,,
2001,6,2,1991,1.12498016162488,
2001,6,3,1991,0.148815841229366,
2001,6,4,1991,3.87301470725134,
2001,6,1,1992,5.95594093058895,
2001,6,2,1992,-2.45561850958964,
2001,6,3,1992,-1.05851591465951,
2001,6,4,1992,-1.12472806440553,
2001,6,1,1993,-2.72660949136438,
2001,6,2,1993,0.162038884735183,
2001,6,3,1993,1.57649647215792,
2001,6,4,1993,1.62923287945829,-0.861354265450365
2001,6,1,1994,3.59586130502141,
2001,6,2,1994,2.2504675990455,
2001,6,3,1994,2.98757229601374,
2001,6,4,1994,3.18368938526112,2.40389789432036
2001,6,1,1995,2.28350917833167,
2001,6,2,1995,2.17301888543981,
2001,6,3,1995,0.382008238114961,
2001,6,4,1995,1.02750689639974,2.19501135830089
2001,6,1,1996,1.16946291942803,
2001,6,2,1996,2.15011642939214,
2001,6,3,1996,2.50193949805644,
2001,6,4,1996,0.632818857244355,1.42240525699282
2001,6,1,1997,1.13490336842408,
2001,6,2,1997,4.75635876569991,
2001,6,3,1997,2.84976929426788,
2001,6,4,1997,3.58184983691825,2.31477763728785
2001,6,1,1998,3.8009913844905,
2001,6,2,1998,1.3395867391635,
2001,6,3,1998,2.33251961747425,
2001,6,4,1998,0.944886278737345,2.86696214263329
2001,6,1,1999,3.25148316482584,
2001,6,2,1999,2.11810759070918,
2001,6,3,1999,4.12102083953767,
2001,6,4,1999,4.03884030982378,2.52799670277242
2001,6,1,2000,3.77528860696574,
2001,6,2,2000,3.1226687751984,
2001,6,3,2000,2.27915682084887,
2001,6,4,2000,2.68168566946252,3.38220156568767
2001,6,1,2001,,
2001,6,2,2001,,
2001,6,3,2001,,
2001,6,4,2001,,
2001,7,2,1991,1.05121673845479,
2001,7,3,1991,-0.00996940672730595,
2001,7,4,1991,3.9205399913538,
2001,7,1,1992,5.99421609034667,
2001,7,2,1992,-2.49120673522403,
2001,7,3,1992,-0.937605519471374,
2001,7,4,1992,-1.15104916961237,
2001,7,1,1993,-2.88262496431672,
2001,7,2,1993,0.314659308714549,
2001,7,3,1993,1.60944996498464,
2001,7,4,1993,1.62043889784009,-0.861355029208777
2001,7,1,1994,3.51688399695422,
2001,7,2,1994,2.32002058474339,
2001,7,3,1994,2.83021061053559,
2001,7,4,1994,3.40629517199069,2.40389906208551
2001,7,1,1995,2.21391989285327,
2001,7,2,1995,2.15905713703166,
2001,7,3,1995,0.379495896299087,
2001,7,4,1995,0.93747579658503,2.19500963382258
2001,7,1,1996,1.32324665575336,
2001,7,2,1996,2.05471436340903,
2001,7,3,1996,2.49460789548872,
2001,7,4,1996,0.606355068013964,1.42240600846943
2001,7,1,1997,1.15901880189271,
2001,7,2,1997,4.82842628678435,
2001,7,3,1997,2.82310645558797,
2001,7,4,1997,3.51580695634033,2.31477891574361
2001,7,1,1998,3.91281199136773,
2001,7,2,1998,1.33558559800491,
2001,7,3,1998,2.2249500460034,
2001,7,4,1998,0.911296120925131,2.86696032176415
2001,7,1,1999,3.29251087836839,
2001,7,2,1999,2.1866755556742,
2001,7,3,1999,4.11598662193462,
2001,7,4,1999,4.00286635529183,2.52820096018607
2001,7,1,2000,3.84502351856724,
2001,7,2,2000,3.02277283784982,
2001,7,3,2000,2.39410547984213,
2001,7,4,2000,2.43192810853234,3.37643084908619
2001,7,1,2001,2.20515515349451,
2001,7,2,2001,,
2001,7,3,2001,,
2001,7,4,2001,,
2001,8,2,1991,1.08135113756724,
2001,8,3,1991,-0.0169395832674168,
2001,8,4,1991,3.86028875985958,
2001,8,1,1992,6.01759821926522,
2001,8,2,1992,-2.48899087981659,
2001,8,3,1992,-0.908697812907111,
2001,8,4,1992,-1.14652181647289,
2001,8,1,1993,-2.86109101661087,
2001,8,2,1993,0.301059793002567,
2001,8,3,1993,1.54294792637655,
2001,8,4,1993,1.62932190995664,-0.861355029208777
2001,8,1,1994,3.61471200474433,
2001,8,2,1994,2.22191706702244,
2001,8,3,1994,2.85778965287489,
2001,8,4,1994,3.38045585698541,2.4038992559364
2001,8,1,1995,2.21457864675907,
2001,8,2,1995,2.18009776647807,
2001,8,3,1995,0.413072824375704,
2001,8,4,1995,0.922298218968831,2.19500962966739
2001,8,1,1996,1.32240040106226,
2001,8,2,1996,2.01469288041298,
2001,8,3,1996,2.53722220976198,
2001,8,4,1996,0.601959944668584,1.42240600583465
2001,8,1,1997,1.15716726294,
2001,8,2,1997,4.832350331747,
2001,8,3,1997,2.75135947650118,
2001,8,4,1997,3.62429539138061,2.31477854624291
2001,8,1,1998,3.83512185520549,
2001,8,2,1998,1.373338851907,
2001,8,3,1998,2.24435213020706,
2001,8,4,1998,0.882114399433442,2.86696032688185
2001,8,1,1999,3.41209063640835,
2001,8,2,1999,2.07100897825991,
2001,8,3,1999,4.01443095623535,
2001,8,4,1999,4.0920859996628,2.52820113810275
2001,8,1,2000,3.75637945658089,
2001,8,2,2000,3.17804551457606,
2001,8,3,2000,2.36536613610974,
2001,8,4,2000,2.42528734565577,3.37638802870124
2001,8,1,2001,2.35745927445967,
2001,8,2,2001,,
2001,8,3,2001,,
2001,8,4,2001,,
2001,9,2,1991,0.841332714400411,
2001,9,3,1991,0.292186238986236,
2001,9,4,1991,3.68470964114307,
2001,9,1,1992,6.06693048044398,
2001,9,2,1992,-2.72207460449393,
2001,9,3,1992,-0.626125724150328,
2001,9,4,1992,-1.35108610362086,
2001,9,1,1993,-2.72852484101649,
2001,9,2,1993,0.161374048233709,
2001,9,3,1993,1.79007511522771,
2001,9,4,1993,1.41953252002818,-0.854229962877096
2001,9,1,1994,3.41086556010453,
2001,9,2,1994,2.32592621854888,
2001,9,3,1994,2.98886113363803,
2001,9,4,1994,3.30255754421043,2.36713711005461
2001,9,1,1995,2.14354500889271,
2001,9,2,1995,2.49469266604576,
2001,9,3,1995,0.404027558746245,
2001,9,4,1995,0.827940929629678,2.23731239775924
2001,9,1,1996,1.12207578076406,
2001,9,2,1996,2.40174720864823,
2001,9,3,1996,2.32072270311448,
2001,9,4,1996,0.683361866531751,1.42312730155909
2001,9,1,1997,1.11341834296861,
2001,9,2,1997,4.76930198987045,
2001,9,3,1997,2.69049087496911,
2001,9,4,1997,3.92622136013234,2.31594438316227
2001,9,1,1998,3.56600240421159,
2001,9,2,1998,1.52315176565991,
2001,9,3,1998,2.05970231992401,
2001,9,4,1998,0.639755161962263,2.83438828885305
2001,9,1,1999,3.92114602390967,
2001,9,2,1999,2.02195374370384,
2001,9,3,1999,4.48486091449987,
2001,9,4,1999,3.97973979890973,2.63635449245252
2001,9,1,2000,3.96621216858499,
2001,9,2,2000,3.122870020304,
2001,9,3,2000,2.0006956078134,
2001,9,4,2000,2.41662200697821,3.4051373037326
2001,9,1,2001,2.06303883718004,
2001,9,2,2001,0.201769249791095,
2001,9,3,2001,,
2001,9,4,2001,,
2001,10,2,1991,0.841332714400411,
2001,10,3,1991,0.292186238986236,
2001,10,4,1991,3.68470964114307,
2001,10,1,1992,6.06693048044398,
2001,10,2,1992,-2.72207460449393,
2001,10,3,1992,-0.626125724150328,
2001,10,4,1992,-1.35108610362086,
2001,10,1,1993,-2.72852484101649,
2001,10,2,1993,0.161374048233709,
2001,10,3,1993,1.79007511522771,
2001,10,4,1993,1.41953252002818,-0.854229962877096
2001,10,1,1994,3.41086556010453,
2001,10,2,1994,2.32592621854888,
2001,10,3,1994,2.98886113363803,
2001,10,4,1994,3.30255754421043,2.36713711005461
2001,10,1,1995,2.14354500889271,
2001,10,2,1995,2.49469266604576,
2001,10,3,1995,0.404027558746245,
2001,10,4,1995,0.827940929629678,2.23731239775924
2001,10,1,1996,1.12207578076406,
2001,10,2,1996,2.40174720864823,
2001,10,3,1996,2.32072270311448,
2001,10,4,1996,0.683361866531751,1.42312730155909
2001,10,1,1997,1.11341834296861,
2001,10,2,1997,4.76930198987045,
2001,10,3,1997,2.69049087496911,
2001,10,4,1997,3.92622136013234,2.31594438316227
2001,10,1,1998,3.56600240421159,
2001,10,2,1998,1.52315176565991,
2001,10,3,1998,2.05970231992401,
2001,10,4,1998,0.639755161962263,2.83438828885305
2001,10,1,1999,3.92114602390967,
2001,10,2,1999,2.02195374370384,
2001,10,3,1999,4.48486091449987,
2001,10,4,1999,3.97973979890973,2.63635449245252
2001,10,1,2000,3.96621216858499,
2001,10,2,2000,3.122870020304,
2001,10,3,2000,2.0006956078134,
2001,10,4,2000,2.41662200697821,3.4051373037326
2001,10,1,2001,2.06303883718004,
2001,10,2,2001,0.201769249791095,
2001,10,3,2001,,
2001,10,4,2001,,
2001,11,2,1991,0.826895509254677,
2001,11,3,1991,0.230060490920181,
2001,11,4,1991,3.72589521448536,
2001,11,1,1992,6.03463816090324,
2001,11,2,1992,-2.80754843857051,
2001,11,3,1992,-0.664829897832187,
2001,11,4,1992,-1.28048891377872,
2001,11,1,1993,-2.67508180764632,
2001,11,2,1993,0.13180414926246,
2001,11,3,1993,1.85337563765786,
2001,11,4,1993,1.31147933649682,-0.842026132440921
2001,11,1,1994,3.61072844414394,
2001,11,2,1994,1.97302501710628,
2001,11,3,1994,2.99321426262205,
2001,11,4,1994,3.48303183078535,2.34748603266628
2001,11,1,1995,1.96485389324383,
2001,11,2,1995,2.72692324144741,
2001,11,3,1995,0.49370221110423,
2001,11,4,1995,0.57370259011964,2.24328939971314
2001,11,1,1996,1.12832360921509,
2001,11,2,1996,2.54427374009882,
2001,11,3,1996,2.20632456491232,
2001,11,4,1996,0.806562515820142,1.42235443576608
2001,11,1,1997,1.22140924010326,
2001,11,2,1997,4.56556006164524,
2001,11,3,1997,2.73852610796739,
2001,11,4,1997,4.03637234912262,2.33662989614065
2001,11,1,1998,3.54857143052616,
2001,11,2,1998,1.60432316259735,
2001,11,3,1998,2.09753788214615,
2001,11,4,1998,0.64364517487383,2.86449901526038
2001,11,1,1999,3.6614354259018,
2001,11,2,1999,2.277791914628,
2001,11,3,1999,4.51125156113943,
2001,11,4,1999,3.93194926611447,2.63139381659301
2001,11,1,2000,3.68578388969572,
2001,11,2,2000,3.37183655789,
2001,11,3,2000,1.8733580142565,
2001,11,4,2000,2.48658105516149,3.38079139024221
2001,11,1,2001,1.99771693451605,
2001,11,2,2001,0.344061185137323,
2001,11,3,2001,,
2001,11,4,2001,,
2001,12,2,1991,0.742142212305152,
2001,12,3,1991,0.268200000827212,
2001,12,4,1991,3.82022940707094,
2001,12,1,1992,5.90925337701715,
2001,12,2,1992,-2.68131949792176,
2001,12,3,1992,-0.826490125677681,
2001,12,4,1992,-1.14660403126766,
2001,12,1,1993,-2.68611156197771,
2001,12,2,1993,0.0565558984629622,
2001,12,3,1993,1.78118513866556,
2001,12,4,1993,1.54337786662402,-0.840323031541246
2001,12,1,1994,3.53139355203718,
2001,12,2,1994,1.89929396154855,
2001,12,3,1994,3.01419371429839,
2001,12,4,1994,3.36153944687025,2.33895626338585
2001,12,1,1995,1.98781955531187,
2001,12,2,1995,2.75703540512031,
2001,12,3,1995,0.580136080980509,
2001,12,4,1995,0.601155352389338,2.24301386596704
2001,12,1,1996,0.982036561426947,
2001,12,2,1996,2.71332076485076,
2001,12,3,1996,2.16568562540456,
2001,12,4,1996,0.763363490809454,1.42715899877435
2001,12,1,1997,1.36275116811306,
2001,12,2,1997,4.47783525681538,
2001,12,3,1997,2.63946907005797,
2001,12,4,1997,4.09849575483685,2.34475392105351
2001,12,1,1998,3.62541929634577,
2001,12,2,1998,1.63615515407727,
2001,12,3,1998,2.02859436086245,
2001,12,4,1998,0.54179337520861,2.86821525288536
2001,12,1,1999,3.73481250667911,
2001,12,2,1999,2.39387770401616,
2001,12,3,1999,4.4851492073912,
2001,12,4,1999,3.96834345197199,2.64442293698333
2001,12,1,2000,3.51941360992301,
2001,12,2,2000,3.54970613337475,
2001,12,3,2000,1.87014333502742,
2001,12,4,2000,2.37732271028879,3.37615826817732
2001,12,1,2001,2.09132922558055,
2001,12,2,2001,0.286681828233037,
2001,12,3,2001,0.385792469003743,
2001,12,4,2001,,
2002,1,2,1991,0.786385002418832,
2002,1,3,1991,0.288195043804129,
2002,1,4,1991,3.69325564874532,
2002,1,1,1992,5.97145724898835,
2002,1,2,1992,-2.79774822990261,
2002,1,3,1992,-0.723737344476427,
2002,1,4,1992,-0.948044383700275,
2002,1,1,1993,-2.87990289662321,
2002,1,2,1993,0.0643690235962779,
2002,1,3,1993,1.82521421678954,
2002,1,4,1993,1.54027352980426,-0.840322840988661
2002,1,1,1994,3.58471206957427,
2002,1,2,1994,1.84282664278237,
2002,1,3,1994,2.93809189475087,
2002,1,4,1994,3.38692934308438,2.33895626338587
2002,1,1,1995,2.00543866781941,
2002,1,2,1995,2.71771075129093,
2002,1,3,1995,0.605258348529514,
2002,1,4,1995,0.725899239844985,2.24302674290566
2002,1,1,1996,0.88695654637565,
2002,1,2,1996,2.71309327189351,
2002,1,3,1996,2.14173184003821,
2002,1,4,1996,0.804261679394935,1.42711492369727
2002,1,1,1997,1.37415590078684,
2002,1,2,1997,4.48490669018675,
2002,1,3,1997,2.53794313508893,
2002,1,4,1997,4.19256644987249,2.34679855784861
2002,1,1,1998,3.59520478034243,
2002,1,2,1998,1.6559111335777,
2002,1,3,1998,2.08758882679774,
2002,1,4,1998,0.486926641901331,2.87356297844765
2002,1,1,1999,3.68906050600992,
2002,1,2,1999,2.52550991846712,
2002,1,3,1999,4.41874542105116,
2002,1,4,1999,3.94443374673268,2.64633809971848
2002,1,1,2000,3.60552915185686,
2002,1,2,2000,3.55783336618241,
2002,1,3,2000,1.65103910582047,
2002,1,4,2000,2.35250056722371,3.36523313581993
2002,1,1,2001,2.32500340291779,
2002,1,2,2001,0.252532341855338,
2002,1,3,2001,0.496624005674784,
2002,1,4,2001,,
2002,1,1,2002,,
2002,1,2,2002,,
2002,1,3,2002,,
2002,1,4,2002,,
2002,2,2,1991,0.786385002418832,
2002,2,3,1991,0.288195043804129,
2002,2,4,1991,3.69325564874532,
2002,2,1,1992,5.97145724898835,
2002,2,2,1992,-2.79774822990261,
2002,2,3,1992,-0.723737344476427,
2002,2,4,1992,-0.948044383700275,
2002,2,1,1993,-2.87990289662321,
2002,2,2,1993,0.0643690235962779,
2002,2,3,1993,1.82521421678954,
2002,2,4,1993,1.54027352980426,-0.840322840988661
2002,2,1,1994,3.58471206957427,
2002,2,2,1994,1.84282664278237,
2002,2,3,1994,2.93809189475087,
2002,2,4,1994,3.38692934308438,2.33895626338587
2002,2,1,1995,2.00543866781941,
2002,2,2,1995,2.71771075129093,
2002,2,3,1995,0.605258348529514,
2002,2,4,1995,0.725899239844985,2.24302674290566
2002,2,1,1996,0.88695654637565,
2002,2,2,1996,2.71309327189351,
2002,2,3,1996,2.14173184003821,
2002,2,4,1996,0.804261679394935,1.42711492369727
2002,2,1,1997,1.37415590078684,
2002,2,2,1997,4.48490669018675,
2002,2,3,1997,2.53794313508893,
2002,2,4,1997,4.19256644987249,2.34679855784861
2002,2,1,1998,3.59520478034243,
2002,2,2,1998,1.6559111335777,
2002,2,3,1998,2.08758882679774,
2002,2,4,1998,0.486926641901331,2.87356297844765
2002,2,1,1999,3.68906050600992,
2002,2,2,1999,2.52550991846712,
2002,2,3,1999,4.41874542105116,
2002,2,4,1999,3.94443374673268,2.64633809971848
2002,2,1,2000,3.60552915185686,
2002,2,2,2000,3.55783336618241,
2002,2,3,2000,1.65103910582047,
2002,2,4,2000,2.35250056722371,3.36523313581993
2002,2,1,2001,2.32500340291779,
2002,2,2,2001,0.252532341855338,
2002,2,3,2001,0.496624005674784,
2002,2,4,2001,,
2002,2,1,2002,,
2002,2,2,2002,,
2002,2,3,2002,,
2002,2,4,2002,,
2002,3,2,1991,0.791194054964572,
2002,3,3,1991,0.289261964666565,
2002,3,4,1991,3.68869198911346,
2002,3,1,1992,5.96953026353801,
2002,3,2,1992,-2.79762707910471,
2002,3,3,1992,-0.722336591836825,
2002,3,4,1992,-0.952704396219783,
2002,3,1,1993,-2.88273414198299,
2002,3,2,1993,0.0658083814104149,
2002,3,3,1993,1.8372648041949,
2002,3,4,1993,1.54120851738055,-0.839941622116436
2002,3,1,1994,3.58098198147026,
2002,3,2,1994,1.83958156739161,
2002,3,3,1994,2.93754585560444,
2002,3,4,1994,3.38543337129269,2.33903673262592
2002,3,1,1995,2.00393086843522,
2002,3,2,1995,2.72522052207989,
2002,3,3,1995,0.601242596929663,
2002,3,4,1995,0.733980267188739,2.24351085586338
2002,3,1,1996,0.886536201486066,
2002,3,2,1996,2.70894098174717,
2002,3,3,1996,2.13074108015476,
2002,3,4,1996,0.81490455784492,1.42702033337554
2002,3,1,1997,1.36973911890961,
2002,3,2,1997,4.48181521481041,
2002,3,3,1997,2.52983320337041,
2002,3,4,1997,4.21115718165805,2.34564517524847
2002,3,1,1998,3.58719594713985,
2002,3,2,1998,1.6516907901911,
2002,3,3,1998,2.081767768581,
2002,3,4,1998,0.509029507417758,2.87368619439627
2002,3,1,1999,3.66700224797512,
2002,3,2,1999,2.5258463015212,
2002,3,3,1999,4.42390577531273,
2002,3,4,1999,3.98232108035077,2.64718620975852
2002,3,1,2000,3.62410238081641,
2002,3,2,2000,3.56746726403421,
2002,3,3,2000,1.59424557655972,
2002,3,4,2000,2.37539358051737,3.37355274726725
2002,3,1,2001,2.22905036541663,
2002,3,2,2001,0.274394080162121,
2002,3,3,2001,0.575357921956687,
2002,3,4,2001,,
2002,3,1,2002,,
2002,3,2,2002,,
2002,3,3,2002,,
2002,3,4,2002,,
2002,4,2,1991,0.776908417843236,
2002,4,3,1991,0.225689915502469,
2002,4,4,1991,3.71561726558081,
2002,4,1,1992,6.01893356468819,
2002,4,2,1992,-2.81194330843926,
2002,4,3,1992,-0.770033722316832,
2002,4,4,1992,-0.936530950474157,
2002,4,1,1993,-2.83792400619181,
2002,4,2,1993,0.032447975194283,
2002,4,3,1993,1.83991390890552,
2002,4,4,1993,1.51358535541912,-0.839938931756801
2002,4,1,1994,3.60233648005317,
2002,4,2,1994,1.86559523521346,
2002,4,3,1994,2.88508884116343,
2002,4,4,1994,3.43945734810545,2.33903395601596
2002,4,1,1995,1.99937686420095,
2002,4,2,1995,2.72954032024495,
2002,4,3,1995,0.558504595099341,
2002,4,4,1995,0.744095366510211,2.24350063004755
2002,4,1,1996,0.780341221206848,
2002,4,2,1996,2.85991541894535,
2002,4,3,1996,2.10998531818669,
2002,4,4,1996,0.885786834255153,1.42701899440414
2002,4,1,1997,1.23804014289481,
2002,4,2,1997,4.52495430723028,
2002,4,3,1997,2.5092033556706,
2002,4,4,1997,4.33538722378974,2.34566077970892
2002,4,1,1998,3.53989334836493,
2002,4,2,1998,1.57094190546569,
2002,4,3,1998,2.02485233533483,
2002,4,4,1998,0.645572083094481,2.87107685630639
2002,4,1,1999,3.66898844239227,
2002,4,2,1999,2.35397182857779,
2002,4,3,1999,4.45215706398308,
2002,4,4,1999,4.16833169045137,2.64428047095693
2002,4,1,2000,3.47137380775711,
2002,4,2,2000,3.49191228614774,
2002,4,3,2000,1.62286699920469,
2002,4,4,2000,2.6009432289396,3.36647849470941
2002,4,1,2001,2.05083219419673,
2002,4,2,2001,0.288494506647408,
2002,4,3,2001,0.757582858574812,
2002,4,4,2001,-0.660316880827816,1.52078036134014
2002,4,1,2002,,
2002,4,2,2002,,
2002,4,3,2002,,
2002,4,4,2002,,
2002,5,2,1991,0.772550419581952,
2002,5,3,1991,0.229387204457709,
2002,5,4,1991,3.71705660254427,
2002,5,1,1992,6.01958049919698,
2002,5,2,1992,-2.81388326053564,
2002,5,3,1992,-0.769823316885876,
2002,5,4,1992,-0.937152270939345,
2002,5,1,1993,-2.84158033832992,
2002,5,2,1993,0.0345705586654033,
2002,5,3,1993,1.83911435799518,
2002,5,4,1993,1.51620912941048,-0.840628493754947
2002,5,1,1994,3.6040839140483,
2002,5,2,1994,1.86379167857105,
2002,5,3,1994,2.88826501936186,
2002,5,4,1994,3.43662772435986,2.33987567578358
2002,5,1,1995,2.00185714664378,
2002,5,2,1995,2.72672021438505,
2002,5,3,1995,0.560007446083466,
2002,5,4,1995,0.740765588498604,2.24333159982686
2002,5,1,1996,0.779707490986104,
2002,5,2,1996,2.86264599405364,
2002,5,3,1996,2.11045100617748,
2002,5,4,1996,0.889056499496488,1.42701880654943
2002,5,1,1997,1.2347294849957,
2002,5,2,1997,4.52176635586732,
2002,5,3,1997,2.51189454728176,
2002,5,4,1997,4.33922529012518,2.34566041449706
2002,5,1,1998,3.53510390895511,
2002,5,2,1998,1.56684092416035,
2002,5,3,1998,2.0293338727214,
2002,5,4,1998,0.654236252165563,2.87107758023466
2002,5,1,1999,3.67033068237228,
2002,5,2,1999,2.35758176831802,
2002,5,3,1999,4.45174344565353,
2002,5,4,1999,4.1708964995083,2.64736129671144
2002,5,1,2000,3.44833217061671,
2002,5,2,2000,3.48896357177004,
2002,5,3,2000,1.6207388547306,
2002,5,4,2000,2.62875436790844,3.36231308763748
2002,5,1,2001,2.03826211688809,
2002,5,2,2001,0.301295431693549,
2002,5,3,2001,0.706858806386035,
2002,5,4,2001,-0.661936849014122,1.51828670821219
2002,5,1,2002,,
2002,5,2,2002,,
2002,5,3,2002,,
2002,5,4,2002,,
2002,6,2,1991,0.667291044705221,
2002,6,3,1991,0.306184198387238,
2002,6,4,1991,3.54926970265108,
2002,6,1,1992,5.99779741645703,
2002,6,2,1992,-2.85420737178148,
2002,6,3,1992,-0.45906078336696,
2002,6,4,1992,-0.950638774360657,
2002,6,1,1993,-3.0240936913276,
2002,6,2,1993,0.178850920303453,
2002,6,3,1993,1.90925973917375,
2002,6,4,1993,1.46421617396748,-0.821284507217301
2002,6,1,1994,3.45342580787114,
2002,6,2,1994,2.07736416364273,
2002,6,3,1994,2.94263239608419,
2002,6,4,1994,3.44290711466555,2.35831047580424
2002,6,1,1995,1.85697704427168,
2002,6,2,1995,2.56535102147619,
2002,6,3,1995,0.752675748222509,
2002,6,4,1995,0.988278789111274,2.23820354541782
2002,6,1,1996,0.537155187826954,
2002,6,2,1996,2.82662062212806,
2002,6,3,1996,2.15523863275591,
2002,6,4,1996,0.835145577286078,1.42231217567257
2002,6,1,1997,1.30502380744921,
2002,6,2,1997,4.46873552964069,
2002,6,3,1997,2.52134936572452,
2002,6,4,1997,4.30342612208166,2.34572536399214
2002,6,1,1998,3.30733470002604,
2002,6,2,1998,1.75028353311579,
2002,6,3,1998,2.1789257400268,
2002,6,4,1998,0.839328696405639,2.87147331198863
2002,6,1,1999,3.31138388193228,
2002,6,2,1999,2.57883287392817,
2002,6,3,1999,4.84087533194024,
2002,6,4,1999,4.16247388400284,2.71328988292876
2002,6,1,2000,3.70303378882957,
2002,6,2,2000,3.56384715335505,
2002,6,3,2000,1.66434112720715,
2002,6,4,2000,2.78226191301132,3.51514329610372
2002,6,1,2001,2.03645957584742,
2002,6,2,2001,0.123589630967458,
2002,6,3,2001,0.393459944241004,
2002,6,4,2001,-1.15449083883461,1.45134526747714
2002,6,1,2002,0.871087304173601,
2002,6,2,2002,,
2002,6,3,2002,,
2002,6,4,2002,,
2002,7,2,1991,0.667291044705221,
2002,7,3,1991,0.306184198387238,
2002,7,4,1991,3.54926970265108,
2002,7,1,1992,5.99779741645703,
2002,7,2,1992,-2.85420737178148,
2002,7,3,1992,-0.45906078336696,
2002,7,4,1992,-0.950638774360657,
2002,7,1,1993,-3.0240936913276,
2002,7,2,1993,0.178850920303453,
2002,7,3,1993,1.90925973917375,
2002,7,4,1993,1.46421617396748,-0.821284507217301
2002,7,1,1994,3.45342580787114,
2002,7,2,1994,2.07736416364273,
2002,7,3,1994,2.94263239608419,
2002,7,4,1994,3.44290711466555,2.35831047580424
2002,7,1,1995,1.85697704427168,
2002,7,2,1995,2.56535102147619,
2002,7,3,1995,0.752675748222509,
2002,7,4,1995,0.988278789111274,2.23820354541782
2002,7,1,1996,0.537155187826954,
2002,7,2,1996,2.82662062212806,
2002,7,3,1996,2.15523863275591,
2002,7,4,1996,0.835145577286078,1.42231217567257
2002,7,1,1997,1.30502380744921,
2002,7,2,1997,4.46873552964069,
2002,7,3,1997,2.52134936572452,
2002,7,4,1997,4.30342612208166,2.34572536399214
2002,7,1,1998,3.30733470002604,
2002,7,2,1998,1.75028353311579,
2002,7,3,1998,2.1789257400268,
2002,7,4,1998,0.839328696405639,2.87147331198863
2002,7,1,1999,3.31138388193228,
2002,7,2,1999,2.57883287392817,
2002,7,3,1999,4.84087533194024,
2002,7,4,1999,4.16247388400284,2.71328988292876
2002,7,1,2000,3.70303378882957,
2002,7,2,2000,3.56384715335505,
2002,7,3,2000,1.66434112720715,
2002,7,4,2000,2.78226191301132,3.51514329610372
2002,7,1,2001,2.03645957584742,
2002,7,2,2001,0.123589630967458,
2002,7,3,2001,0.393459944241004,
2002,7,4,2001,-1.15449083883461,1.45134526747714
2002,7,1,2002,0.871087304173601,
2002,7,2,2002,,
2002,7,3,2002,,
2002,7,4,2002,,
2002,8,2,1991,0.668098370083969,
2002,8,3,1991,0.316917724256416,
2002,8,4,1991,3.53497235192279,
2002,8,1,1992,5.98808626505478,
2002,8,2,1992,-2.83945569762029,
2002,8,3,1992,-0.458965857909721,
2002,8,4,1992,-0.940497084780012,
2002,8,1,1993,-3.03774698040185,
2002,8,2,1993,0.187073840443386,
2002,8,3,1993,1.89676928235649,
2002,8,4,1993,1.47434326320501,-0.821284394322874
2002,8,1,1994,3.45193886806519,
2002,8,2,1994,2.07326114941715,
2002,8,3,1994,2.94246675309005,
2002,8,4,1994,3.44754481365595,2.35831043547681
2002,8,1,1995,1.85927684087999,
2002,8,2,1995,2.55486824925226,
2002,8,3,1995,0.751098154809737,
2002,8,4,1995,1.00410720317983,2.23820365518685
2002,8,1,1996,0.523323338773452,
2002,8,2,1996,2.86027503084068,
2002,8,3,1996,2.11975424777053,
2002,8,4,1996,0.827900159963213,1.42231391080085
2002,8,1,1997,1.31666169706892,
2002,8,2,1997,4.47515111279826,
2002,8,3,1997,2.54695674360386,
2002,8,4,1997,4.24533542011445,2.34573474969
2002,8,1,1998,3.34974403301194,
2002,8,2,1998,1.75941214132498,
2002,8,3,1998,2.15934433146363,
2002,8,4,1998,0.79739137517687,2.87147654525821
2002,8,1,1999,3.3781199153577,
2002,8,2,1999,2.54279543687068,
2002,8,3,1999,4.85311363361143,
2002,8,4,1999,4.13966210462946,2.7132866145694
2002,8,1,2000,3.68209707410077,
2002,8,2,2000,3.62563689378281,
2002,8,3,2000,1.6777623945325,
2002,8,4,2000,2.73288143852664,3.5151370381953
2002,8,1,2001,1.76706170295464,
2002,8,2,2001,0.195809853153062,
2002,8,3,2001,0.758813556988103,
2002,8,4,2001,-1.01268792899454,1.44945685463689
2002,8,1,2002,1.26285916977775,
2002,8,2,2002,,
2002,8,3,2002,,
2002,8,4,2002,,
2002,9,2,1991,0.60702079998507,
2002,9,3,1991,0.0836117815028459,
2002,9,4,1991,3.61804415517151,
2002,9,1,1992,5.8793902782831,
2002,9,2,1992,-2.62666452122354,
2002,9,3,1992,-0.546466672417323,
2002,9,4,1992,-0.725766871994915,
2002,9,1,1993,-3.15681221590003,
2002,9,2,1993,0.237570472707205,
2002,9,3,1993,1.66410641550967,
2002,9,4,1993,1.57998932792636,-0.821284719693594
2002,9,1,1994,3.3871397463765,
2002,9,2,1994,2.19380037143457,
2002,9,3,1994,2.93210432307678,
2002,9,4,1994,3.45730011421375,2.35831040036913
2002,9,1,1995,1.77094457775338,
2002,9,2,1995,2.56818889106962,
2002,9,3,1995,0.856135151610049,
2002,9,4,1995,0.977816676388255,2.23820384878159
2002,9,1,1996,0.485973311548271,
2002,9,2,1996,2.81518079667107,
2002,9,3,1996,2.22324799912992,
2002,9,4,1996,0.762095992150824,1.42231409601203
2002,9,1,1997,1.26672231784526,
2002,9,2,1997,4.51657681923865,
2002,9,3,1997,2.62711197964616,
2002,9,4,1997,4.20162610169879,2.34573474540634
2002,9,1,1998,3.31635061646964,
2002,9,2,1998,1.57135994170547,
2002,9,3,1998,2.26976557395602,
2002,9,4,1998,1.19869291015544,2.87147632602067
2002,9,1,1999,3.30661004054929,
2002,9,2,1999,2.17536995105485,
2002,9,3,1999,5.2634970393816,
2002,9,4,1999,4.54149394751691,2.78027361376754
2002,9,1,2000,3.31864532175232,
2002,9,2,2000,3.44350359552477,
2002,9,3,2000,1.60348148430327,
2002,9,4,2000,2.6360078233264,3.47580225870752
2002,9,1,2001,2.04880247153765,
2002,9,2,2001,0.152702882643929,
2002,9,3,2001,0.653891626050895,
2002,9,4,2001,-1.15549315344257,1.45088365673969
2002,9,1,2002,1.42688514205365,
2002,9,2,2002,1.36578692645493,
2002,9,3,2002,,
2002,9,4,2002,,
2002,10,2,1991,0.60702079998507,
2002,10,3,1991,0.0836117815028459,
2002,10,4,1991,3.61804415517151,
2002,10,1,1992,5.8793902782831,
2002,10,2,1992,-2.62666452122354,
2002,10,3,1992,-0.546466672417323,
2002,10,4,1992,-0.725766871994915,
2002,10,1,1993,-3.15681221590003,
2002,10,2,1993,0.237570472707205,
2002,10,3,1993,1.66410641550967,
2002,10,4,1993,1.57998932792636,-0.821284719693594
2002,10,1,1994,3.3871397463765,
2002,10,2,1994,2.19380037143457,
2002,10,3,1994,2.93210432307678,
2002,10,4,1994,3.45730011421375,2.35831040036913
2002,10,1,1995,1.77094457775338,
2002,10,2,1995,2.56818889106962,
2002,10,3,1995,0.856135151610049,
2002,10,4,1995,0.977816676388255,2.23820384878159
2002,10,1,1996,0.485973311548271,
2002,10,2,1996,2.81518079667107,
2002,10,3,1996,2.22324799912992,
2002,10,4,1996,0.762095992150824,1.42231409601203
2002,10,1,1997,1.26672231784526,
2002,10,2,1997,4.51657681923865,
2002,10,3,1997,2.62711197964616,
2002,10,4,1997,4.20162610169879,2.34573474540634
2002,10,1,1998,3.31635061646964,
2002,10,2,1998,1.57135994170547,
2002,10,3,1998,2.26976557395602,
2002,10,4,1998,1.19869291015544,2.87147632602067
2002,10,1,1999,3.30661004054929,
2002,10,2,1999,2.17536995105485,
2002,10,3,1999,5.2634970393816,
2002,10,4,1999,4.54149394751691,2.78027361376754
2002,10,1,2000,3.31864532175232,
2002,10,2,2000,3.44350359552477,
2002,10,3,2000,1.60348148430327,
2002,10,4,2000,2.6360078233264,3.47580225870752
2002,10,1,2001,2.04880247153765,
2002,10,2,2001,0.152702882643929,
2002,10,3,2001,0.653891626050895,
2002,10,4,2001,-1.15549315344257,1.45088365673969
2002,10,1,2002,1.42688514205365,
2002,10,2,2002,1.36578692645493,
2002,10,3,2002,,
2002,10,4,2002,,
2002,11,2,1991,0.592919842819573,
2002,11,3,1991,0.0893140605152443,
2002,11,4,1991,3.60331945013825,
2002,11,1,1992,5.87196595643165,
2002,11,2,1992,-2.62967761312783,
2002,11,3,1992,-0.547771877980985,
2002,11,4,1992,-0.70245565162409,
2002,11,1,1993,-3.17569601038864,
2002,11,2,1993,0.246845439964738,
2002,11,3,1993,1.66917711591397,
2002,11,4,1993,1.57576279107778,-0.820020954086542
2002,11,1,1994,3.39577795920905,
2002,11,2,1994,2.18789971309612,
2002,11,3,1994,2.9064404683198,
2002,11,4,1994,3.4647276507249,2.35701676292557
2002,11,1,1995,1.77593537238419,
2002,11,2,1995,2.55530161328024,
2002,11,3,1995,0.867667688884222,
2002,11,4,1995,0.970761536956055,2.23590236209292
2002,11,1,1996,0.516256778457414,
2002,11,2,1996,2.78668049341071,
2002,11,3,1996,2.22786864526294,
2002,11,4,1996,0.734873194126529,1.42284722191921
2002,11,1,1997,1.26663762436769,
2002,11,2,1997,4.52955120189134,
2002,11,3,1997,2.61825803522764,
2002,11,4,1997,4.22802595062424,2.342277938821
2002,11,1,1998,3.34642451108842,
2002,11,2,1998,1.60194821201756,
2002,11,3,1998,2.26786532966246,
2002,11,4,1998,1.20378496731943,2.88941942294467
2002,11,1,1999,3.3488588619552,
2002,11,2,1999,2.16025669837632,
2002,11,3,1999,5.29733868254798,
2002,11,4,1999,4.54352578916142,2.7948695686127
2002,11,1,2000,3.40147133226107,
2002,11,2,2000,3.39471224727066,
2002,11,3,2000,1.65763861598398,
2002,11,4,2000,2.55627654178068,3.49275567364593
2002,11,1,2001,2.05645096591445,
2002,11,2,2001,0.00834420573585515,
2002,11,3,2001,0.827210966433056,
2002,11,4,2001,-1.10220883166686,1.43959910859488
2002,11,1,2002,1.44755297200188,
2002,11,2,2002,1.58723287602398,
2002,11,3,2002,,
2002,11,4,2002,,
2002,12,2,1991,0.683422226631092,
2002,12,3,1991,0.0744866685875811,
2002,12,4,1991,3.60613285395734,
2002,12,1,1992,5.80772156509459,
2002,12,2,1992,-2.54042372302762,
2002,12,3,1992,-0.567098993853776,
2002,12,4,1992,-0.763202840495125,
2002,12,1,1993,-3.12221982898301,
2002,12,2,1993,0.22984826916872,
2002,12,3,1993,1.6934752047437,
2002,12,4,1993,1.48765505069377,-0.820018453731109
2002,12,1,1994,3.46985389852437,
2002,12,2,1994,2.18773149888778,
2002,12,3,1994,2.91816157471634,
2002,12,4,1994,3.38338820275335,2.35703137158907
2002,12,1,1995,1.83345995364335,
2002,12,2,1995,2.54409002322173,
2002,12,3,1995,0.895086507557297,
2002,12,4,1995,0.872250865781132,2.2318800458915
2002,12,1,1996,0.652234207714653,
2002,12,2,1996,2.66584020657428,
2002,12,3,1996,2.29586630671899,
2002,12,4,1996,0.719857938622104,1.42642500808481
2002,12,1,1997,1.29397003277454,
2002,12,2,1997,4.49299406491981,
2002,12,3,1997,2.66738810806315,
2002,12,4,1997,4.18385119121205,2.34401350612259
2002,12,1,1998,3.34505273367811,
2002,12,2,1998,1.55523125435177,
2002,12,3,1998,2.30788285724444,
2002,12,4,1998,1.24627531809944,2.88370160984399
2002,12,1,1999,3.39549454985537,
2002,12,2,1999,2.12431250170135,
2002,12,3,1999,5.37698625154328,
2002,12,4,1999,4.40776707903494,2.8111303348868
2002,12,1,2000,3.49404357887917,
2002,12,2,2000,3.31769449027597,
2002,12,3,2000,1.57374923813369,
2002,12,4,2000,2.51364637527973,3.47030362858374
2002,12,1,2001,2.09705843459236,
2002,12,2,2001,0.0622739895228763,
2002,12,3,2001,0.657811301346722,
2002,12,4,2001,-1.01615065718587,1.42115330721257
2002,12,1,2002,1.66111836738001,
2002,12,2,2002,1.15935294903087,
2002,12,3,2002,1.32682913773279,
2002,12,4,2002,,
2003,1,2,1991,0.66722795112244,
2003,1,3,1991,0.0901064604855506,
2003,1,4,1991,3.62420817979585,
2003,1,1,1992,5.80768287763365,
2003,1,2,1992,-2.53762417943673,
2003,1,3,1992,-0.589066339022293,
2003,1,4,1992,-0.794743857885194,
2003,1,1,1993,-3.0715418575637,
2003,1,2,1993,0.225807530751365,
2003,1,3,1993,1.64351033033565,
2003,1,4,1993,1.52643065312983,-0.820020761860274
2003,1,1,1994,3.40471670205385,
2003,1,2,1994,2.26883938067859,
2003,1,3,1994,2.93662878963026,
2003,1,4,1994,3.34691549666741,2.35701675835731
2003,1,1,1995,2.01263585975826,
2003,1,2,1995,2.32534015365153,
2003,1,3,1995,0.894136657982503,
2003,1,4,1995,0.803932516126293,2.23188202487365
2003,1,1,1996,0.724772854483868,
2003,1,2,1996,2.65033236331005,
2003,1,3,1996,2.30179056944864,
2003,1,4,1996,0.8823038400956,1.42638695162765
2003,1,1,1997,1.13635672756449,
2003,1,2,1997,4.51583540291922,
2003,1,3,1997,2.69060599960511,
2003,1,4,1997,4.22074774407393,2.34424062360306
2003,1,1,1998,3.29212528831273,
2003,1,2,1998,1.54608539630139,
2003,1,3,1998,2.32435024949886,
2003,1,4,1998,1.28156707858373,2.88418623223512
2003,1,1,1999,3.38908956625623,
2003,1,2,1999,2.15872922899629,
2003,1,3,1999,5.32789670063329,
2003,1,4,1999,4.38336652673523,2.81667339814069
2003,1,1,2000,3.5635552466752,
2003,1,2,2000,3.29415245323805,
2003,1,3,2000,1.52456156036294,
2003,1,4,2000,2.57858522032781,3.47274480397508
2003,1,1,2001,2.07671028998448,
2003,1,2,2001,0.00360412451885228,
2003,1,3,2001,0.729189350328352,
2003,1,4,2001,-0.976146818070256,1.42096297064529
2003,1,1,2002,1.65740257690419,
2003,1,2,2002,1.34516695428022,
2003,1,3,2002,1.33087299458941,
2003,1,4,2002,,
2003,1,1,2003,,
2003,1,2,2003,,
2003,1,3,2003,,
2003,1,4,2003,,
2003,2,2,1991,0.66722795112244,
2003,2,3,1991,0.0901064604855506,
2003,2,4,1991,3.62420817979585,
2003,2,1,1992,5.80768287763365,
2003,2,2,1992,-2.53762417943673,
2003,2,3,1992,-0.589066339022293,
2003,2,4,1992,-0.794743857885194,
2003,2,1,1993,-3.0715418575637,
2003,2,2,1993,0.225807530751365,
2003,2,3,1993,1.64351033033565,
2003,2,4,1993,1.52643065312983,-0.820020761860274
2003,2,1,1994,3.40471670205385,
2003,2,2,1994,2.26883938067859,
2003,2,3,1994,2.93662878963026,
2003,2,4,1994,3.34691549666741,2.35701675835731
2003,2,1,1995,2.01263585975826,
2003,2,2,1995,2.32534015365153,
2003,2,3,1995,0.894136657982503,
2003,2,4,1995,0.803932516126293,2.23188202487365
2003,2,1,1996,0.724772854483868,
2003,2,2,1996,2.65033236331005,
2003,2,3,1996,2.30179056944864,
2003,2,4,1996,0.8823038400956,1.42638695162765
2003,2,1,1997,1.13635672756449,
2003,2,2,1997,4.51583540291922,
2003,2,3,1997,2.69060599960511,
2003,2,4,1997,4.22074774407393,2.34424062360306
2003,2,1,1998,3.29212528831273,
2003,2,2,1998,1.54608539630139,
2003,2,3,1998,2.32435024949886,
2003,2,4,1998,1.28156707858373,2.88418623223512
2003,2,1,1999,3.38908956625623,
2003,2,2,1999,2.15872922899629,
2003,2,3,1999,5.32789670063329,
2003,2,4,1999,4.38336652673523,2.81667339814069
2003,2,1,2000,3.5635552466752,
2003,2,2,2000,3.29415245323805,
2003,2,3,2000,1.52456156036294,
2003,2,4,2000,2.57858522032781,3.47274480397508
2003,2,1,2001,2.07671028998448,
2003,2,2,2001,0.00360412451885228,
2003,2,3,2001,0.729189350328352,
2003,2,4,2001,-0.976146818070256,1.42096297064529
2003,2,1,2002,1.65740257690419,
2003,2,2,2002,1.34516695428022,
2003,2,3,2002,1.33087299458941,
2003,2,4,2002,,
2003,2,1,2003,,
2003,2,2,2003,,
2003,2,3,2003,,
2003,2,4,2003,,
2003,3,2,1991,0.661409089111453,
2003,3,3,1991,0.10719872286542,
2003,3,4,1991,3.61150841305884,
2003,3,1,1992,5.81065426800631,
2003,3,2,1992,-2.5503035659349,
2003,3,3,1992,-0.569569956135196,
2003,3,4,1992,-0.797734029685127,
2003,3,1,1993,-3.06350742607352,
2003,3,2,1993,0.201849786532438,
2003,3,3,1993,1.67076383277862,
2003,3,4,1993,1.49377188837201,-0.820021144736538
2003,3,1,1994,3.41744168619424,
2003,3,2,1994,2.28449578704559,
2003,3,3,1994,2.91184575999728,
2003,3,4,1994,3.36729425891873,2.35701695674118
2003,3,1,1995,2.01696049753626,
2003,3,2,1995,2.33012645657373,
2003,3,3,1995,0.893099384687845,
2003,3,4,1995,0.840839103229918,2.23775914880009
2003,3,1,1996,0.68887980751815,
2003,3,2,1996,2.64253195708866,
2003,3,3,1996,2.30963535450863,
2003,3,4,1996,0.902997582425602,1.42530242493177
2003,3,1,1997,1.12091264210641,
2003,3,2,1997,4.51922831462348,
2003,3,3,1997,2.69508832329282,
2003,3,4,1997,4.22319369515163,2.34609631177467
2003,3,1,1998,3.23656386715965,
2003,3,2,1998,1.55418894213297,
2003,3,3,1998,2.33656427032545,
2003,3,4,1998,1.28563297544471,2.87490494190681
2003,3,1,1999,3.35852928776432,
2003,3,2,1999,2.16988051129676,
2003,3,3,1999,5.36113576350736,
2003,3,4,1999,4.32558034449801,2.81447941824302
2003,3,1,2000,3.65056242144108,
2003,3,2,2000,3.28090443766098,
2003,3,3,2000,1.73604020732794,
2003,3,4,2000,2.40267335448872,3.50189252120019
2003,3,1,2001,2.21309050353962,
2003,3,2,2001,-0.0373905785937323,
2003,3,3,2001,0.574680267060757,
2003,3,4,2001,-0.90305125571305,1.42510948688599
2003,3,1,2002,1.56427636927152,
2003,3,2,2002,1.31103400431281,
2003,3,3,2002,1.56915219567277,
2003,3,4,2002,0.67982324380218,0.771952524034036
2003,3,1,2003,,
2003,3,2,2003,,
2003,3,3,2003,,
2003,3,4,2003,,
2003,4,2,1991,0.661409089111453,
2003,4,3,1991,0.10719872286542,
2003,4,4,1991,3.61150841305884,
2003,4,1,1992,5.81065426800631,
2003,4,2,1992,-2.5503035659349,
2003,4,3,1992,-0.569569956135196,
2003,4,4,1992,-0.797734029685127,
2003,4,1,1993,-3.06350742607352,
2003,4,2,1993,0.201849786532438,
2003,4,3,1993,1.67076383277862,
2003,4,4,1993,1.49377188837201,-0.820021144736538
2003,4,1,1994,3.41744168619424,
2003,4,2,1994,2.28449578704559,
2003,4,3,1994,2.91184575999728,
2003,4,4,1994,3.36729425891873,2.35701695674118
2003,4,1,1995,2.01696049753626,
2003,4,2,1995,2.33012645657373,
2003,4,3,1995,0.893099384687845,
2003,4,4,1995,0.840839103229918,2.23775914880009
2003,4,1,1996,0.68887980751815,
2003,4,2,1996,2.64253195708866,
2003,4,3,1996,2.30963535450863,
2003,4,4,1996,0.902997582425602,1.42530242493177
2003,4,1,1997,1.12091264210641,
2003,4,2,1997,4.51922831462348,
2003,4,3,1997,2.69508832329282,
2003,4,4,1997,4.22319369515163,2.34609631177467
2003,4,1,1998,3.23656386715965,
2003,4,2,1998,1.55418894213297,
2003,4,3,1998,2.33656427032545,
2003,4,4,1998,1.28563297544471,2.87490494190681
2003,4,1,1999,3.35852928776432,
2003,4,2,1999,2.16988051129676,
2003,4,3,1999,5.36113576350736,
2003,4,4,1999,4.32558034449801,2.81447941824302
2003,4,1,2000,3.65056242144108,
2003,4,2,2000,3.28090443766098,
2003,4,3,2000,1.73604020732794,
2003,4,4,2000,2.40267335448872,3.50189252120019
2003,4,1,2001,2.21309050353962,
2003,4,2,2001,-0.0373905785937323,
2003,4,3,2001,0.574680267060757,
2003,4,4,2001,-0.90305125571305,1.42510948688599
2003,4,1,2002,1.56427636927152,
2003,4,2,2002,1.31103400431281,
2003,4,3,2002,1.56915219567277,
2003,4,4,2002,0.67982324380218,0.771952524034036
2003,4,1,2003,,
2003,4,2,2003,,
2003,4,3,2003,,
2003,4,4,2003,,
2003,5,2,1991,0.654621637442987,
2003,5,3,1991,0.0758543193599248,
2003,5,4,1991,3.63366683339357,
2003,5,1,1992,5.80784962142562,
2003,5,2,1992,-2.54814261094771,
2003,5,3,1992,-0.568830987851332,
2003,5,4,1992,-0.790103215447147,
2003,5,1,1993,-3.05791581976645,
2003,5,2,1993,0.177595681140308,
2003,5,3,1993,1.68808949724402,
2003,5,4,1993,1.48228095539504,-0.820021146312822
2003,5,1,1994,3.41296861934086,
2003,5,2,1994,2.30125031296986,
2003,5,3,1994,2.90142149412582,
2003,5,4,1994,3.38004551924316,2.35701715512504
2003,5,1,1995,2.00914882009409,
2003,5,2,1995,2.33441779975101,
2003,5,3,1995,0.882267154327465,
2003,5,4,1995,0.847797883043411,2.23778035628381
2003,5,1,1996,0.693772814399774,
2003,5,2,1996,2.6307351095461,
2003,5,3,1996,2.31313740246433,
2003,5,4,1996,0.907506206309816,1.42528157119075
2003,5,1,1997,1.1129246339719,
2003,5,2,1997,4.54720637215356,
2003,5,3,1997,2.66467683533365,
2003,5,4,1997,4.22512541960889,2.34609594227988
2003,5,1,1998,3.2624565573615,
2003,5,2,1998,1.56739549024765,
2003,5,3,1998,2.26894640251789,
2003,5,4,1998,1.30597074076062,2.87490530387509
2003,5,1,1999,3.40372867408532,
2003,5,2,1999,2.19360240916497,
2003,5,3,1999,5.26380777822857,
2003,5,4,1999,4.33761697000761,2.81520089633578
2003,5,1,2000,3.74908001886498,
2003,5,2,2000,3.31418785804114,
2003,5,3,2000,1.52970404586217,
2003,5,4,2000,2.44336779702563,3.50080556594394
2003,5,1,2001,2.21882928849724,
2003,5,2,2001,-0.0175242982959567,
2003,5,3,2001,0.58364499299306,
2003,5,4,2001,-0.747829139092116,1.42531638134888
2003,5,1,2002,1.68113087395407,
2003,5,2,2002,1.48744146150011,
2003,5,3,2002,1.32997613787458,
2003,5,4,2002,0.547112544082973,0.827689315624269
2003,5,1,2003,,
2003,5,2,2003,,
2003,5,3,2003,,
2003,5,4,2003,,
2003,6,2,1991,0.664828714680321,
2003,6,3,1991,0.0530630556513367,
2003,6,4,1991,3.63603450103813,
2003,6,1,1992,5.87671484707535,
2003,6,2,1992,-2.63457834356003,
2003,6,3,1992,-0.528222963846947,
2003,6,4,1992,-0.837194098036798,
2003,6,1,1993,-2.99276584220347,
2003,6,2,1993,0.0806831367059058,
2003,6,3,1993,1.82048086998403,
2003,6,4,1993,1.39204251337042,-0.820040573065106
2003,6,1,1994,3.38244782777244,
2003,6,2,1994,2.39589506499676,
2003,6,3,1994,2.83133841037806,
2003,6,4,1994,3.46221215821649,2.35700960898941
2003,6,1,1995,1.97702639926309,
2003,6,2,1995,2.30520798808505,
2003,6,3,1995,0.931404891038423,
2003,6,4,1995,0.771497220763684,2.23801081035766
2003,6,1,1996,0.830870715667609,
2003,6,2,1996,2.47648348408296,
2003,6,3,1996,2.31237439127119,
2003,6,4,1996,0.959839050563294,1.42429364903007
2003,6,1,1997,1.04743535399277,
2003,6,2,1997,4.70585273571558,
2003,6,3,1997,2.5726669449146,
2003,6,4,1997,4.22823013885052,2.34766945936915
2003,6,1,1998,3.27851687194112,
2003,6,2,1998,1.59032098687864,
2003,6,3,1998,2.23896357194273,
2003,6,4,1998,1.22581878458201,2.8731118851731
2003,6,1,1999,3.52160423593368,
2003,6,2,1999,2.18645894188847,
2003,6,3,1999,5.25056472502949,
2003,6,4,1999,4.32329012708403,2.82306439318787
2003,6,1,2000,3.85516062526246,
2003,6,2,2000,3.20328714534273,
2003,6,3,2000,1.49947549776155,
2003,6,4,2000,2.53221302620594,3.50341484560892
2003,6,1,2001,2.38971592778376,
2003,6,2,2001,-0.00523271282226734,
2003,6,3,2001,0.62730883847204,
2003,6,4,2001,-0.713947849500418,1.48363208081264
2003,6,1,2002,1.69226394821267,
2003,6,2,2002,1.56720075437216,
2003,6,3,2002,1.29445495035709,
2003,6,4,2002,0.268894358114991,0.836070260553123
2003,6,1,2003,0.0381512951699525,
2003,6,2,2003,,
2003,6,3,2003,,
2003,6,4,2003,,
2003,7,2,1991,0.664828714680321,
2003,7,3,1991,0.0530630556513367,
2003,7,4,1991,3.63603450103813,
2003,7,1,1992,5.87671484707535,
2003,7,2,1992,-2.63457834356003,
2003,7,3,1992,-0.528222963846947,
2003,7,4,1992,-0.837194098036798,
2003,7,1,1993,-2.99276584220347,
2003,7,2,1993,0.0806831367059058,
2003,7,3,1993,1.82048086998403,
2003,7,4,1993,1.39204251337042,-0.820040573065106
2003,7,1,1994,3.38244782777244,
2003,7,2,1994,2.39589506499676,
2003,7,3,1994,2.83133841037806,
2003,7,4,1994,3.46221215821649,2.35700960898941
2003,7,1,1995,1.97702639926309,
2003,7,2,1995,2.30520798808505,
2003,7,3,1995,0.931404891038423,
2003,7,4,1995,0.771497220763684,2.23801081035766
2003,7,1,1996,0.830870715667609,
2003,7,2,1996,2.47648348408296,
2003,7,3,1996,2.31237439127119,
2003,7,4,1996,0.959839050563294,1.42429364903007
2003,7,1,1997,1.04743535399277,
2003,7,2,1997,4.70585273571558,
2003,7,3,1997,2.5726669449146,
2003,7,4,1997,4.22823013885052,2.34766945936915
2003,7,1,1998,3.27851687194112,
2003,7,2,1998,1.59032098687864,
2003,7,3,1998,2.23896357194273,
2003,7,4,1998,1.22581878458201,2.8731118851731
2003,7,1,1999,3.52160423593368,
2003,7,2,1999,2.18645894188847,
2003,7,3,1999,5.25056472502949,
2003,7,4,1999,4.32329012708403,2.82306439318787
2003,7,1,2000,3.85516062526246,
2003,7,2,2000,3.20328714534273,
2003,7,3,2000,1.49947549776155,
2003,7,4,2000,2.53221302620594,3.50341484560892
2003,7,1,2001,2.38971592778376,
2003,7,2,2001,-0.00523271282226734,
2003,7,3,2001,0.62730883847204,
2003,7,4,2001,-0.713947849500418,1.48363208081264
2003,7,1,2002,1.69226394821267,
2003,7,2,2002,1.56720075437216,
2003,7,3,2002,1.29445495035709,
2003,7,4,2002,0.268894358114991,0.836070260553123
2003,7,1,2003,0.0381512951699525,
2003,7,2,2003,,
2003,7,3,2003,,
2003,7,4,2003,,
2003,8,2,1991,0.737467880930232,
2003,8,3,1991,-0.03323449561069,
2003,8,4,1991,3.62965705976257,
2003,8,1,1992,6.11976573317188,
2003,8,2,1992,-2.6922211431871,
2003,8,3,1992,-0.768106646840427,
2003,8,4,1992,-0.97634978665212,
2003,8,1,1993,-2.59362635072949,
2003,8,2,1993,0.0763019030604051,
2003,8,3,1993,1.57675182179076,
2003,8,4,1993,1.20781973019193,-0.820040573065106
2003,8,1,1994,3.68458370178977,
2003,8,2,1994,2.41793480628334,
2003,8,3,1994,2.87218132786886,
2003,8,4,1994,3.17095178210312,2.35700960898941
2003,8,1,1995,2.30792551774426,
2003,8,2,1995,2.16283647724582,
2003,8,3,1995,0.923557546878118,
2003,8,4,1995,0.651870261037701,2.23801062100464
2003,8,1,1996,1.19652599749396,
2003,8,2,1996,2.35452129442963,
2003,8,3,1996,2.20957016467744,
2003,8,4,1996,0.581211145801408,1.42429420729213
2003,8,1,1997,1.0514336806156,
2003,8,2,1997,5.10037093654776,
2003,8,3,1997,2.78487398993794,
2003,8,4,1997,4.10155702415846,2.34766890297355
2003,8,1,1998,3.08641460123944,
2003,8,2,1998,1.68691882828704,
2003,8,3,1998,2.30205168310069,
2003,8,4,1998,1.14328709735394,2.87311206871776
2003,8,1,1999,3.41994025154604,
2003,8,2,1999,2.34951661017402,
2003,8,3,1999,5.29897432904207,
2003,8,4,1999,4.16588294778257,2.82306439318787
2003,8,1,2000,3.86567458362683,
2003,8,2,2000,3.32862659034494,
2003,8,3,2000,1.48029279448156,
2003,8,4,2000,2.36410615785343,3.50341484560892
2003,8,1,2001,2.54495001716373,
2003,8,2,2001,-0.125854398373126,
2003,8,3,2001,0.652930281874342,
2003,8,4,2001,-0.601174897324153,1.48363208081264
2003,8,1,2002,1.60312175901038,
2003,8,2,2002,1.59206189408105,
2003,8,3,2002,1.28732391466919,
2003,8,4,2002,0.289411378080229,0.836070099971131
2003,8,1,2003,0.237272393375498,
2003,8,2,2003,,
2003,8,3,2003,,
2003,8,4,2003,,
2003,9,2,1991,0.714034957638798,
2003,9,3,1991,-0.0529986475845345,
2003,9,4,1991,3.64209704612297,
2003,9,1,1992,6.10838209809597,
2003,9,2,1992,-2.71923376768584,
2003,9,3,1992,-0.769192563157872,
2003,9,4,1992,-0.986080467159189,
2003,9,1,1993,-2.58536869170797,
2003,9,2,1993,0.0656800988148465,
2003,9,3,1993,1.58121964688334,
2003,9,4,1993,1.228840526176,-0.821773682235538
2003,9,1,1994,3.70895198817318,
2003,9,2,1994,2.43536120749381,
2003,9,3,1994,2.8147426443925,
2003,9,4,1994,3.07355223717043,2.35686024333317
2003,9,1,1995,2.36836477924534,
2003,9,2,1995,2.14142112563229,
2003,9,3,1995,0.931692154144392,
2003,9,4,1995,0.646516848958068,2.22571967074248
2003,9,1,1996,1.20684630852563,
2003,9,2,1996,2.34258920221477,
2003,9,3,1996,2.2072135359273,
2003,9,4,1996,0.586724767094271,1.42340014755902
2003,9,1,1997,1.04870757189552,
2003,9,2,1997,5.09386233101923,
2003,9,3,1997,2.77505626274068,
2003,9,4,1997,4.11238816569866,2.34524222316648
2003,9,1,1998,3.09645979291362,
2003,9,2,1998,1.68702452223675,
2003,9,3,1998,2.29565248927188,
2003,9,4,1998,1.1544424181581,2.87593144344176
2003,9,1,1999,3.41802194191425,
2003,9,2,1999,2.34837128704102,
2003,9,3,1999,5.29082281508979,
2003,9,4,1999,4.16155318682769,2.82242246380193
2003,9,1,2000,3.86165585761649,
2003,9,2,2000,3.31164025737438,
2003,9,3,2000,1.46404791180312,
2003,9,4,2000,2.36150464555163,3.49510031374434
2003,9,1,2001,2.6111060203373,
2003,9,2,2001,-0.131169119953412,
2003,9,3,2001,0.64824979231739,
2003,9,4,2001,-0.601390033779636,1.49484347883702
2003,9,1,2002,1.64688254039083,
2003,9,2,2002,1.60441684910662,
2003,9,3,2002,1.28436339620088,
2003,9,4,2002,0.277758705885933,0.847162582940464
2003,9,1,2003,0.244369759874719,
2003,9,2,2003,-0.181283707073288,
2003,9,3,2003,,
2003,9,4,2003,,
2003,10,2,1991,1.0061023772721,
2003,10,3,1991,-0.167844265078254,
2003,10,4,1991,3.86497812734148,
2003,10,1,1992,6.17315943487071,
2003,10,2,1992,-2.92162862841187,
2003,10,3,1992,-0.950648553249134,
2003,10,4,1992,-0.944324582474565,
2003,10,1,1993,-2.50684662922609,
2003,10,2,1993,0.0828702304034756,
2003,10,3,1993,1.58422016107451,
2003,10,4,1993,1.30000910931376,-0.821773682235538
2003,10,1,1994,3.70711839367643,
2003,10,2,1994,2.37413479044255,
2003,10,3,1994,2.67160586563913,
2003,10,4,1994,3.31245232539286,2.35686024333315
2003,10,1,1995,2.07072280026828,
2003,10,2,1995,2.34982511580859,
2003,10,3,1995,0.90046870844156,
2003,10,4,1995,0.905514467958213,2.22571948141264
2003,10,1,1996,0.826226154501653,
2003,10,2,1996,2.59895900921112,
2003,10,3,1996,2.1077907910882,
2003,10,4,1996,0.626045057527858,1.42340052061058
2003,10,1,1997,1.03100474651674,
2003,10,2,1997,5.12247378166941,
2003,10,3,1997,2.69901887810933,
2003,10,4,1997,4.07726606176935,2.34524185366707
2003,10,1,1998,3.21715833270742,
2003,10,2,1998,1.68524883926775,
2003,10,3,1998,2.18044339362367,
2003,10,4,1998,1.13861724198892,2.87593180542096
2003,10,1,1999,3.49312308598628,
2003,10,2,1999,2.44245695093293,
2003,10,3,1999,5.10756404599224,
2003,10,4,1999,4.22075455788153,2.82242228547081
2003,10,1,2000,3.85377832509792,
2003,10,2,2000,3.43836003192288,
2003,10,3,2000,1.31129190065531,
2003,10,4,2000,2.41116725033859,3.49510014506902
2003,10,1,2001,2.73723296734629,
2003,10,2,2001,0.112340729903293,
2003,10,3,2001,0.681054385091717,
2003,10,4,2001,-0.408919495760351,1.58670758824504
2003,10,1,2002,1.3860043471027,
2003,10,2,2002,1.9123937829518,
2003,10,3,2002,0.908574109917781,
2003,10,4,2002,0.240574967038865,0.846396501452817
2003,10,1,2003,0.0986980067738008,
2003,10,2,2003,-0.311977767344795,
2003,10,3,2003,,
2003,10,4,2003,,
2003,11,2,1991,1.23072672693523,
2003,11,3,1991,-0.194026436592865,
2003,11,4,1991,3.93829044657925,
2003,11,1,1992,6.05045676259006,
2003,11,2,1992,-2.9572102003787,
2003,11,3,1992,-0.959136469259481,
2003,11,4,1992,-0.931935538699491,
2003,11,1,1993,-2.48416984374464,
2003,11,2,1993,0.071095937963217,
2003,11,3,1993,1.51788911038313,
2003,11,4,1993,1.16710697952676,-0.835514560166284
2003,11,1,1994,3.89643104293593,
2003,11,2,1994,2.41739721154013,
2003,11,3,1994,2.65174222519593,
2003,11,4,1994,3.2827283500134,2.37306801356627
2003,11,1,1995,2.1799153540967,
2003,11,2,1995,2.29764525946625,
2003,11,3,1995,0.81850171978699,
2003,11,4,1995,0.919782891577436,2.22846353807555
2003,11,1,1996,0.627661984192418,
2003,11,2,1996,2.88510247932261,
2003,11,3,1996,2.15309745744325,
2003,11,4,1996,0.657724942764904,1.42337966994104
2003,11,1,1997,0.974309083214009,
2003,11,2,1997,5.0156003619789,
2003,11,3,1997,2.75181472838773,
2003,11,4,1997,4.07196223274187,2.34691418151103
2003,11,1,1998,3.30346665830155,
2003,11,2,1998,1.59818533940963,
2003,11,3,1998,2.16194500293778,
2003,11,4,1998,1.07964132456266,2.8738900662248
2003,11,1,1999,3.67850523026971,
2003,11,2,1999,2.28444741847786,
2003,11,3,1999,5.04239929790924,
2003,11,4,1999,4.28720362796895,2.81563346687352
2003,11,1,2000,3.93117794618805,
2003,11,2,2000,3.46528055084305,
2003,11,3,2000,1.25300078792481,
2003,11,4,2000,2.4326346161625,3.50783513080253
2003,11,1,2001,2.72059893727141,
2003,11,2,2001,0.123348725000105,
2003,11,3,2001,0.736800767742518,
2003,11,4,2001,-0.372000766508185,1.59242589889643
2003,11,1,2002,1.46371630775362,
2003,11,2,2002,1.86646918878193,
2003,11,3,2002,0.911044316854359,
2003,11,4,2002,0.153773818469727,0.866686970067288
2003,11,1,2003,-0.0249112638113225,
2003,11,2,2003,-0.224131421597085,
2003,11,3,2003,,
2003,11,4,2003,,
2003,12,2,1991,1.22462516865833,
2003,12,3,1991,-0.174501747286093,
2003,12,4,1991,3.9371339834976,
2003,12,1,1992,6.03125118469714,
2003,12,2,1992,-2.94837097121151,
2003,12,3,1992,-0.951989775208839,
2003,12,4,1992,-0.924639791189197,
2003,12,1,1993,-2.49333156229895,
2003,12,2,1993,0.0685509282315033,
2003,12,3,1993,1.52290768458867,
2003,12,4,1993,1.16732067252214,-0.83485176839192
2003,12,1,1994,3.91610658125969,
2003,12,2,1994,2.40386039320955,
2003,12,3,1994,2.64283742536864,
2003,12,4,1994,3.2543906145061,2.37298561699055
2003,12,1,1995,2.20246423446824,
2003,12,2,1995,2.30757917068762,
2003,12,3,1995,0.80802553772783,
2003,12,4,1995,0.937154627471237,2.22856185946776
2003,12,1,1996,0.624755352555217,
2003,12,2,1996,2.87364262634646,
2003,12,3,1996,2.15489038003454,
2003,12,4,1996,0.639712559832129,1.42217285443054
2003,12,1,1997,0.987385063001445,
2003,12,2,1997,4.97753896610953,
2003,12,3,1997,2.76334643120155,
2003,12,4,1997,4.08611400680923,2.34165589171387
2003,12,1,1998,3.28069062729561,
2003,12,2,1998,1.60423574392428,
2003,12,3,1998,2.18041285671575,
2003,12,4,1998,1.08979743280149,2.8740992188087
2003,12,1,1999,3.69311646855288,
2003,12,2,1999,2.24416343074623,
2003,12,3,1999,5.06079316073709,
2003,12,4,1999,4.2853662387603,2.81841351440335
2003,12,1,2000,3.91382373155496,
2003,12,2,2000,3.48627013361058,
2003,12,3,2000,1.29223237528315,
2003,12,4,2000,2.48146560297824,3.51499736325549
2003,12,1,2001,2.72978752152275,
2003,12,2,2001,0.126259099937087,
2003,12,3,2001,0.726808480988872,
2003,12,4,2001,-0.484601300956722,1.6020326796867
2003,12,1,2002,1.52959987370918,
2003,12,2,2002,1.92616009065669,
2003,12,3,2002,0.943580847423742,
2003,12,4,2002,0.0711949777058241,0.87056067773057
2003,12,1,2003,-0.0711620818534042,
2003,12,2,2003,-0.417243324275762,
2003,12,3,2003,1.54216770682993,
2003,12,4,2003,,
2004,1,2,1991,1.22468679821113,
2004,1,3,1991,-0.176289228282767,
2004,1,4,1991,3.92568547224408,
2004,1,1,1992,6.05690114719641,
2004,1,2,1992,-2.95299805652298,
2004,1,3,1992,-0.95603880036762,
2004,1,4,1992,-0.96233582227524,
2004,1,1,1993,-2.46720661414054,
2004,1,2,1993,0.0757300264552896,
2004,1,3,1993,1.5374444595682,
2004,1,4,1993,1.13704350298645,-0.834851960601723
2004,1,1,1994,3.94695882197131,
2004,1,2,1994,2.38043185111621,
2004,1,3,1994,2.65589774823909,
2004,1,4,1994,3.23239614942077,2.37298562159005
2004,1,1,1995,2.20656134950181,
2004,1,2,1995,2.29961537022547,
2004,1,3,1995,0.835771922424633,
2004,1,4,1995,0.950115934852747,2.22854084749222
2004,1,1,1996,0.565495681547268,
2004,1,2,1996,2.9061348881851,
2004,1,3,1996,2.17249932422405,
2004,1,4,1996,0.660453005259631,1.42219389269362
2004,1,1,1997,0.939926060999885,
2004,1,2,1997,4.98079735301333,
2004,1,3,1997,2.78353619433771,
2004,1,4,1997,4.09812727067931,2.34165589171387
2004,1,1,1998,3.2674433031352,
2004,1,2,1998,1.59699200188972,
2004,1,3,1998,2.18298175669338,
2004,1,4,1998,1.08098977493745,2.87409921880872
2004,1,1,1999,3.64615255697471,
2004,1,2,1999,2.30040226035957,
2004,1,3,1999,5.06956639726,
2004,1,4,1999,4.31239854856027,2.8183814266588
2004,1,1,2000,3.85201938998963,
2004,1,2,2000,3.51401942068157,
2004,1,3,2000,1.29188395697091,
2004,1,4,2000,2.49146910394755,3.51499862891505
2004,1,1,2001,2.7249600630479,
2004,1,2,2001,0.0917830902954053,
2004,1,3,2001,0.776822286087908,
2004,1,4,2001,-0.516730087300021,1.60203185634691
2004,1,1,2002,1.53256420348793,
2004,1,2,2002,1.97944645253352,
2004,1,3,2002,0.891602966424077,
2004,1,4,2002,0.0380902538851924,0.870575541778917
2004,1,1,2003,-0.0660495724325139,
2004,1,2,2003,-0.411664245131504,
2004,1,3,2003,1.54413532335784,
2004,1,4,2003,,
2004,1,1,2004,,
2004,1,2,2004,,
2004,1,3,2004,,
2004,1,4,2004,,
2004,2,2,1991,1.22468679821113,
2004,2,3,1991,-0.176289228282767,
2004,2,4,1991,3.92568547224408,
2004,2,1,1992,6.05690114719641,
2004,2,2,1992,-2.95299805652298,
2004,2,3,1992,-0.95603880036762,
2004,2,4,1992,-0.96233582227524,
2004,2,1,1993,-2.46720661414054,
2004,2,2,1993,0.0757300264552896,
2004,2,3,1993,1.5374444595682,
2004,2,4,1993,1.13704350298645,-0.834851960601723
2004,2,1,1994,3.94695882197131,
2004,2,2,1994,2.38043185111621,
2004,2,3,1994,2.65589774823909,
2004,2,4,1994,3.23239614942077,2.37298562159005
2004,2,1,1995,2.20656134950181,
2004,2,2,1995,2.29961537022547,
2004,2,3,1995,0.835771922424633,
2004,2,4,1995,0.950115934852747,2.22854084749222
2004,2,1,1996,0.565495681547268,
2004,2,2,1996,2.9061348881851,
2004,2,3,1996,2.17249932422405,
2004,2,4,1996,0.660453005259631,1.42219389269362
2004,2,1,1997,0.939926060999885,
2004,2,2,1997,4.98079735301333,
2004,2,3,1997,2.78353619433771,
2004,2,4,1997,4.09812727067931,2.34165589171387
2004,2,1,1998,3.2674433031352,
2004,2,2,1998,1.59699200188972,
2004,2,3,1998,2.18298175669338,
2004,2,4,1998,1.08098977493745,2.87409921880872
2004,2,1,1999,3.64615255697471,
2004,2,2,1999,2.30040226035957,
2004,2,3,1999,5.06956639726,
2004,2,4,1999,4.31239854856027,2.8183814266588
2004,2,1,2000,3.85201938998963,
2004,2,2,2000,3.51401942068157,
2004,2,3,2000,1.29188395697091,
2004,2,4,2000,2.49146910394755,3.51499862891505
2004,2,1,2001,2.7249600630479,
2004,2,2,2001,0.0917830902954053,
2004,2,3,2001,0.776822286087908,
2004,2,4,2001,-0.516730087300021,1.60203185634691
2004,2,1,2002,1.53256420348793,
2004,2,2,2002,1.97944645253352,
2004,2,3,2002,0.891602966424077,
2004,2,4,2002,0.0380902538851924,0.870575541778917
2004,2,1,2003,-0.0660495724325139,
2004,2,2,2003,-0.411664245131504,
2004,2,3,2003,1.54413532335784,
2004,2,4,2003,,
2004,2,1,2004,,
2004,2,2,2004,,
2004,2,3,2004,,
2004,2,4,2004,,
2004,3,2,1991,1.22298441220732,
2004,3,3,1991,-0.176185150616115,
2004,3,4,1991,3.91398123811415,
2004,3,1,1992,6.05705341424436,
2004,3,2,1992,-2.93855106466615,
2004,3,3,1992,-0.959471272404688,
2004,3,4,1992,-0.965368413904588,
2004,3,1,1993,-2.46837005939173,
2004,3,2,1993,0.0771523143741737,
2004,3,3,1993,1.53479347912469,
2004,3,4,1993,1.14399862276771,-0.83485176839192
2004,3,1,1994,3.93807772545574,
2004,3,2,1994,2.38117399207389,
2004,3,3,1994,2.66669036966347,
2004,3,4,1994,3.22628492863208,2.37298561699055
2004,3,1,1995,2.20233030656991,
2004,3,2,1995,2.30945216709078,
2004,3,3,1995,0.827532975043654,
2004,3,4,1995,0.950313658013169,2.22854425130441
2004,3,1,1996,0.57147206418906,
2004,3,2,1996,2.90008733123313,
2004,3,3,1996,2.17165994499655,
2004,3,4,1996,0.662638380728131,1.42222403149523
2004,3,1,1997,0.940950289247899,
2004,3,2,1997,4.98073174206768,
2004,3,3,1997,2.77960187305868,
2004,3,4,1997,4.10249885314156,2.34162023485163
2004,3,1,1998,3.26214681515864,
2004,3,2,1998,1.5982399697569,
2004,3,3,1998,2.18139631548289,
2004,3,4,1998,1.09613941279445,2.87410069242215
2004,3,1,1999,3.63914588722736,
2004,3,2,1999,2.29415075655977,
2004,3,3,1999,5.07242433811022,
2004,3,4,1999,4.30930369156488,2.81838351291441
2004,3,1,2000,3.76740369160826,
2004,3,2,2000,3.56389811138931,
2004,3,3,2000,1.22555043764698,
2004,3,4,2000,2.47154440175974,3.49288293019912
2004,3,1,2001,2.72705464165655,
2004,3,2,2001,0.140826700524621,
2004,3,3,2001,0.712008090876215,
2004,3,4,2001,-0.528307517940174,1.59402973735703
2004,3,1,2002,1.52101284942108,
2004,3,2,2002,2.01956722313039,
2004,3,3,2002,0.923696449975009,
2004,3,4,2002,0.00456240145008113,0.869837332574619
2004,3,1,2003,-0.0570022396637504,
2004,3,2,2003,-0.350421416123714,
2004,3,3,2003,1.55394005415075,
2004,3,4,2003,1.24123691900133,0.431382535518932
2004,3,1,2004,,
2004,3,2,2004,,
2004,3,3,2004,,
2004,3,4,2004,,
2004,4,2,1991,1.22298441220732,
2004,4,3,1991,-0.176185150616115,
2004,4,4,1991,3.91398123811415,
2004,4,1,1992,6.05705341424436,
2004,4,2,1992,-2.93855106466615,
2004,4,3,1992,-0.959471272404688,
2004,4,4,1992,-0.965368413904588,
2004,4,1,1993,-2.46837005939173,
2004,4,2,1993,0.0771523143741737,
2004,4,3,1993,1.53479347912469,
2004,4,4,1993,1.14399862276771,-0.83485176839192
2004,4,1,1994,3.93807772545574,
2004,4,2,1994,2.38117399207389,
2004,4,3,1994,2.66669036966347,
2004,4,4,1994,3.22628492863208,2.37298561699055
2004,4,1,1995,2.20233030656991,
2004,4,2,1995,2.30945216709078,
2004,4,3,1995,0.827532975043654,
2004,4,4,1995,0.950313658013169,2.22854425130441
2004,4,1,1996,0.57147206418906,
2004,4,2,1996,2.90008733123313,
2004,4,3,1996,2.17165994499655,
2004,4,4,1996,0.662638380728131,1.42222403149523
2004,4,1,1997,0.940950289247899,
2004,4,2,1997,4.98073174206768,
2004,4,3,1997,2.77960187305868,
2004,4,4,1997,4.10249885314156,2.34162023485163
2004,4,1,1998,3.26214681515864,
2004,4,2,1998,1.5982399697569,
2004,4,3,1998,2.18139631548289,
2004,4,4,1998,1.09613941279445,2.87410069242215
2004,4,1,1999,3.63914588722736,
2004,4,2,1999,2.29415075655977,
2004,4,3,1999,5.07242433811022,
2004,4,4,1999,4.30930369156488,2.81838351291441
2004,4,1,2000,3.76740369160826,
2004,4,2,2000,3.56389811138931,
2004,4,3,2000,1.22555043764698,
2004,4,4,2000,2.47154440175974,3.49288293019912
2004,4,1,2001,2.72705464165655,
2004,4,2,2001,0.140826700524621,
2004,4,3,2001,0.712008090876215,
2004,4,4,2001,-0.528307517940174,1.59402973735703
2004,4,1,2002,1.52101284942108,
2004,4,2,2002,2.01956722313039,
2004,4,3,2002,0.923696449975009,
2004,4,4,2002,0.00456240145008113,0.869837332574619
2004,4,1,2003,-0.0570022396637504,
2004,4,2,2003,-0.350421416123714,
2004,4,3,2003,1.55394005415075,
2004,4,4,2003,1.24123691900133,0.431382535518932
2004,4,1,2004,,
2004,4,2,2004,,
2004,4,3,2004,,
2004,4,4,2004,,
2004,5,2,1991,1.23680375710236,
2004,5,3,1991,-0.176886834836554,
2004,5,4,1991,3.92172157557782,
2004,5,1,1992,6.04217381580257,
2004,5,2,1992,-2.93743808552337,
2004,5,3,1992,-0.95525545923717,
2004,5,4,1992,-0.95568732456891,
2004,5,1,1993,-2.48451161113887,
2004,5,2,1993,0.0805734060246977,
2004,5,3,1993,1.54041094227029,
2004,5,4,1993,1.14980929548998,-0.834852157625554
2004,5,1,1994,3.92321559990896,
2004,5,2,1994,2.38910520617481,
2004,5,3,1994,2.668197930292,
2004,5,4,1994,3.22555029267828,2.37298602764406
2004,5,1,1995,2.19636581127913,
2004,5,2,1995,2.31392851328849,
2004,5,3,1995,0.827674771904374,
2004,5,4,1995,0.951798232078249,2.2285459679785
2004,5,1,1996,0.5733891561577,
2004,5,2,1996,2.89485178715583,
2004,5,3,1996,2.17181660491499,
2004,5,4,1996,0.660978584831273,1.42222420089848
2004,5,1,1997,0.945789283838616,
2004,5,2,1997,4.98178071826427,
2004,5,3,1997,2.77444866996395,
2004,5,4,1997,4.10001292312934,2.34161837881408
2004,5,1,1998,3.27507502347986,
2004,5,2,1998,1.59348046350496,
2004,5,3,1998,2.17144100519002,
2004,5,4,1998,1.09582656194693,2.874102313698
2004,5,1,1999,3.62689159797995,
2004,5,2,1999,2.2717104357922,
2004,5,3,1999,5.06845921223624,
2004,5,4,1999,4.45934479279371,2.81838244290036
2004,5,1,2000,3.68365024930128,
2004,5,2,2000,3.53777112980604,
2004,5,3,2000,1.24321455606704,
2004,5,4,2000,2.43497184400618,3.49288360497051
2004,5,1,2001,2.75029207985662,
2004,5,2,2001,0.153697694585553,
2004,5,3,2001,0.67708529197259,
2004,5,4,2001,-0.492219026269158,1.59395572520251
2004,5,1,2002,1.52788054078064,
2004,5,2,2002,2.01555566238183,
2004,5,3,2002,0.916473438447363,
2004,5,4,2002,-0.0214156115829867,0.871551803085113
2004,5,1,2003,-0.0685311600772565,
2004,5,2,2003,-0.392662687754708,
2004,5,3,2003,1.50145319328734,
2004,5,4,2003,1.2206482443631,0.406681936027731
2004,5,1,2004,,
2004,5,2,2004,,
2004,5,3,2004,,
2004,5,4,2004,,
2004,6,2,1991,1.19345738763876,
2004,6,3,1991,-0.11046162331807,
2004,6,4,1991,3.85861376388277,
2004,6,1,1992,6.17632015723351,
2004,6,2,1992,-3.01851872238129,
2004,6,3,1992,-1.11541873342903,
2004,6,4,1992,-0.797438459107813,
2004,6,1,1993,-2.69768655969261,
2004,6,2,1993,0.297037800842825,
2004,6,3,1993,1.66878901236494,
2004,6,4,1993,1.0515539788533,-0.834859156708867
2004,6,1,1994,3.75829992148429,
2004,6,2,1994,2.51468094643317,
2004,6,3,1994,2.72104894865002,
2004,6,4,1994,3.21168444187441,2.37298280875553
2004,6,1,1995,2.19052812109859,
2004,6,2,1995,2.26254420786167,
2004,6,3,1995,0.781056351684306,
2004,6,4,1995,1.03526317471869,2.22853402137686
2004,6,1,1996,0.670223881824383,
2004,6,2,1996,2.83564488865313,
2004,6,3,1996,1.98627484219218,
2004,6,4,1996,0.708926347909289,1.42221491763346
2004,6,1,1997,0.887826265078417,
2004,6,2,1997,5.0780136856438,
2004,6,3,1997,2.87208348124859,
2004,6,4,1997,4.13907364673085,2.34161277221749
2004,6,1,1998,3.06114331645786,
2004,6,2,1998,1.71941677224947,
2004,6,3,1998,2.20920382638696,
2004,6,4,1998,1.08772019941763,2.87407715474108
2004,6,1,1999,3.46813323065152,
2004,6,2,1999,2.47574860914424,
2004,6,3,1999,5.02728741405072,
2004,6,4,1999,4.37736364134076,2.81844592009175
2004,6,1,2000,3.66968532826999,
2004,6,2,2000,3.48331352690401,
2004,6,3,2000,1.40739909299132,
2004,6,4,2000,2.43143508532899,3.49255318314448
2004,6,1,2001,2.65146004735855,
2004,6,2,2001,0.142783216409015,
2004,6,3,2001,0.91315875139848,
2004,6,4,2001,-0.795270050918429,1.5943398468433
2004,6,1,2002,1.68396955202887,
2004,6,2,2002,1.97477059905009,
2004,6,3,2002,0.792483792295839,
2004,6,4,2002,0.13261700179914,0.868042260600688
2004,6,1,2003,-0.0360122930470941,
2004,6,2,2003,-0.320051242018582,
2004,6,3,2003,1.65244117537877,
2004,6,4,2003,1.49186166378825,0.475236767803988
2004,6,1,2004,2.31179840937314,
2004,6,2,2004,,
2004,6,3,2004,,
2004,6,4,2004,,
2004,7,2,1991,1.19345738763876,
2004,7,3,1991,-0.11046162331807,
2004,7,4,1991,3.85861376388277,
2004,7,1,1992,6.17632015723351,
2004,7,2,1992,-3.01851872238129,
2004,7,3,1992,-1.11541873342903,
2004,7,4,1992,-0.797438459107813,
2004,7,1,1993,-2.69768655969261,
2004,7,2,1993,0.297037800842825,
2004,7,3,1993,1.66878901236494,
2004,7,4,1993,1.0515539788533,-0.834859156708867
2004,7,1,1994,3.75829992148429,
2004,7,2,1994,2.51468094643317,
2004,7,3,1994,2.72104894865002,
2004,7,4,1994,3.21168444187441,2.37298280875553
2004,7,1,1995,2.19052812109859,
2004,7,2,1995,2.26254420786167,
2004,7,3,1995,0.781056351684306,
2004,7,4,1995,1.03526317471869,2.22853402137686
2004,7,1,1996,0.670223881824383,
2004,7,2,1996,2.83564488865313,
2004,7,3,1996,1.98627484219218,
2004,7,4,1996,0.708926347909289,1.42221491763346
2004,7,1,1997,0.887826265078417,
2004,7,2,1997,5.0780136856438,
2004,7,3,1997,2.87208348124859,
2004,7,4,1997,4.13907364673085,2.34161277221749
2004,7,1,1998,3.06114331645786,
2004,7,2,1998,1.71941677224947,
2004,7,3,1998,2.20920382638696,
2004,7,4,1998,1.08772019941763,2.87407715474108
2004,7,1,1999,3.46813323065152,
2004,7,2,1999,2.47574860914424,
2004,7,3,1999,5.02728741405072,
2004,7,4,1999,4.37736364134076,2.81844592009175
2004,7,1,2000,3.66968532826999,
2004,7,2,2000,3.48331352690401,
2004,7,3,2000,1.40739909299132,
2004,7,4,2000,2.43143508532899,3.49255318314448
2004,7,1,2001,2.65146004735855,
2004,7,2,2001,0.142783216409015,
2004,7,3,2001,0.91315875139848,
2004,7,4,2001,-0.795270050918429,1.5943398468433
2004,7,1,2002,1.68396955202887,
2004,7,2,2002,1.97477059905009,
2004,7,3,2002,0.792483792295839,
2004,7,4,2002,0.13261700179914,0.868042260600688
2004,7,1,2003,-0.0360122930470941,
2004,7,2,2003,-0.320051242018582,
2004,7,3,2003,1.65244117537877,
2004,7,4,2003,1.49186166378825,0.475236767803988
2004,7,1,2004,2.31179840937314,
2004,7,2,2004,,
2004,7,3,2004,,
2004,7,4,2004,,
2004,8,2,1991,1.20481980085028,
2004,8,3,1991,-0.0720633628526146,
2004,8,4,1991,3.89990879039976,
2004,8,1,1992,6.06458349695251,
2004,8,2,1992,-2.9444686551965,
2004,8,3,1992,-1.1254704306828,
2004,8,4,1992,-0.791187312154518,
2004,8,1,1993,-2.70751732880534,
2004,8,2,1993,0.286551075644015,
2004,8,3,1993,1.65841135486269,
2004,8,4,1993,1.06853233634536,-0.834858583289022
2004,8,1,1994,3.76675260977311,
2004,8,2,1994,2.47230940771093,
2004,8,3,1994,2.73556453115444,
2004,8,4,1994,3.25645358643454,2.3729826103281
2004,8,1,1995,2.1327853565889,
2004,8,2,1995,2.28963247908589,
2004,8,3,1995,0.792983897373967,
2004,8,4,1995,1.04128338093847,2.22853496805209
2004,8,1,1996,0.633086665157623,
2004,8,2,1996,2.88566209997347,
2004,8,3,1996,1.96390262546313,
2004,8,4,1996,0.686483661395476,1.42221323759457
2004,8,1,1997,0.96249301597362,
2004,8,2,1997,5.00646957821864,
2004,8,3,1997,2.86657265195309,
2004,8,4,1997,4.12105558533187,2.34161388498471
2004,8,1,1998,3.11489910127047,
2004,8,2,1998,1.71161840023251,
2004,8,3,1998,2.21116077438785,
2004,8,4,1998,1.02739473604325,2.87407625232294
2004,8,1,1999,3.45473143712363,
2004,8,2,1999,2.46005296519909,
2004,8,3,1999,5.14085854187154,
2004,8,4,1999,4.44119484155119,2.81844576131001
2004,8,1,2000,3.5251130280664,
2004,8,2,2000,3.55178096788709,
2004,8,3,2000,1.4352537272408,
2004,8,4,2000,2.35294860824353,3.49255388148237
2004,8,1,2001,2.65251321679645,
2004,8,2,2001,0.188711192602464,
2004,8,3,2001,0.901674260143004,
2004,8,4,2001,-0.789993522596955,1.59529584145766
2004,8,1,2002,1.73859702068373,
2004,8,2,2002,1.84326142852482,
2004,8,3,2002,0.862579821135734,
2004,8,4,2002,0.155296646434477,0.869818831864477
2004,8,1,2003,0.0370349875334908,
2004,8,2,2003,-0.502886836210292,
2004,8,3,2003,1.73993831357775,
2004,8,4,2003,1.51481498853732,0.476143115854177
2004,8,1,2004,2.5409912595127,
2004,8,2,2004,,
2004,8,3,2004,,
2004,8,4,2004,,
2004,9,2,1991,1.20481980085028,
2004,9,3,1991,-0.0720633628526146,
2004,9,4,1991,3.89990879039976,
2004,9,1,1992,6.06458349695251,
2004,9,2,1992,-2.9444686551965,
2004,9,3,1992,-1.1254704306828,
2004,9,4,1992,-0.791187312154518,
2004,9,1,1993,-2.70751732880534,
2004,9,2,1993,0.286551075644015,
2004,9,3,1993,1.65841135486269,
2004,9,4,1993,1.06853233634536,-0.834858583289022
2004,9,1,1994,3.76675260977311,
2004,9,2,1994,2.47230940771093,
2004,9,3,1994,2.73556453115444,
2004,9,4,1994,3.25645358643454,2.3729826103281
2004,9,1,1995,2.1327853565889,
2004,9,2,1995,2.28963247908589,
2004,9,3,1995,0.792983897373967,
2004,9,4,1995,1.04128338093847,2.22853496805209
2004,9,1,1996,0.633086665157623,
2004,9,2,1996,2.88566209997347,
2004,9,3,1996,1.96390262546313,
2004,9,4,1996,0.686483661395476,1.42221323759457
2004,9,1,1997,0.96249301597362,
2004,9,2,1997,5.00646957821864,
2004,9,3,1997,2.86657265195309,
2004,9,4,1997,4.12105558533187,2.34161388498471
2004,9,1,1998,3.11489910127047,
2004,9,2,1998,1.71161840023251,
2004,9,3,1998,2.21116077438785,
2004,9,4,1998,1.02739473604325,2.87407625232294
2004,9,1,1999,3.45473143712363,
2004,9,2,1999,2.46005296519909,
2004,9,3,1999,5.14085854187154,
2004,9,4,1999,4.44119484155119,2.81844576131001
2004,9,1,2000,3.5251130280664,
2004,9,2,2000,3.55178096788709,
2004,9,3,2000,1.4352537272408,
2004,9,4,2000,2.35294860824353,3.49255388148237
2004,9,1,2001,2.65251321679645,
2004,9,2,2001,0.188711192602464,
2004,9,3,2001,0.901674260143004,
2004,9,4,2001,-0.789993522596955,1.59529584145766
2004,9,1,2002,1.73859702068373,
2004,9,2,2002,1.84326142852482,
2004,9,3,2002,0.862579821135734,
2004,9,4,2002,0.155296646434477,0.869818831864477
2004,9,1,2003,0.0370349875334908,
2004,9,2,2003,-0.502886836210292,
2004,9,3,2003,1.73993831357775,
2004,9,4,2003,1.51481498853732,0.476143115854177
2004,9,1,2004,2.5409912595127,
2004,9,2,2004,2.05686311441093,
2004,9,3,2004,,
2004,9,4,2004,,
2004,10,2,1991,1.26747007702841,
2004,10,3,1991,0.0349341486787669,
2004,10,4,1991,3.87741144686709,
2004,10,1,1992,6.0770579188951,
2004,10,2,1992,-3.02385208752431,
2004,10,3,1992,-1.08872346113972,
2004,10,4,1992,-0.877276483947131,
2004,10,1,1993,-2.6899547613002,
2004,10,2,1993,0.310313554154806,
2004,10,3,1993,1.71666939429447,
2004,10,4,1993,1.07903350143133,-0.834858777103453
2004,10,1,1994,3.71363121496262,
2004,10,2,1994,2.48931020146674,
2004,10,3,1994,2.82179723957834,
2004,10,4,1994,3.06964038221829,2.37298300718296
2004,10,1,1995,2.40118969567709,
2004,10,2,1995,2.17062848664167,
2004,10,3,1995,0.622867033817398,
2004,10,4,1995,1.03837752579719,2.22853477871705
2004,10,1,1996,0.740177601121328,
2004,10,2,1996,2.86054362509312,
2004,10,3,1996,2.02916688215511,
2004,10,4,1996,0.667123863514751,1.42221324022862
2004,10,1,1997,0.912326279322606,
2004,10,2,1997,5.06102818895791,
2004,10,3,1997,2.86020886378324,
2004,10,4,1997,4.13039494078573,2.34161425448174
2004,10,1,1998,3.07246421812584,
2004,10,2,1998,1.77309153781124,
2004,10,3,1998,2.17841726942491,
2004,10,4,1998,1.00899052392576,2.87407624719467
2004,10,1,1999,3.45733584988486,
2004,10,2,1999,2.49452831188668,
2004,10,3,1999,5.14196516155936,
2004,10,4,1999,4.38440557433444,2.81844540952689
2004,10,1,2000,3.6306591001543,
2004,10,2,2000,3.57112429185211,
2004,10,3,2000,1.31939241211902,
2004,10,4,2000,2.24438248955336,3.49255405606685
2004,10,1,2001,2.9690134181739,
2004,10,2,2001,-0.0889844688081176,
2004,10,3,2001,0.881464945571064,
2004,10,4,2001,-0.676441047288967,1.59189321783026
2004,10,1,2002,1.6887493442667,
2004,10,2,2002,1.56659911416621,
2004,10,3,2002,1.10015265689487,
2004,10,4,2002,0.166797378309358,0.838027710274658
2004,10,1,2003,0.0439737281563879,
2004,10,2,2003,-0.708250639720265,
2004,10,3,2003,1.88518054621465,
2004,10,4,2003,1.4847535663677,0.469666079711639
2004,10,1,2004,2.60165794073493,
2004,10,2,2004,2.06106278369218,
2004,10,3,2004,,
2004,10,4,2004,,
2004,11,2,1991,1.27130803001545,
2004,11,3,1991,0.0360791384520498,
2004,11,4,1991,3.8751203068526,
2004,11,1,1992,6.10285553646228,
2004,11,2,1992,-3.04203644998905,
2004,11,3,1992,-1.08262542702986,
2004,11,4,1992,-0.893850098285542,
2004,11,1,1993,-2.68698616035156,
2004,11,2,1993,0.31118460467856,
2004,11,3,1993,1.72922362130457,
2004,11,4,1993,1.06179711340368,-0.836986372633575
2004,11,1,1994,3.72247770553864,
2004,11,2,1994,2.49084033464957,
2004,11,3,1994,2.83219302969537,
2004,11,4,1994,3.06755222432633,2.3749863518411
2004,11,1,1995,2.41165698112673,
2004,11,2,1995,2.1880868376349,
2004,11,3,1995,0.62787119083767,
2004,11,4,1995,1.06057172114293,2.23746520334096
2004,11,1,1996,0.772060080189019,
2004,11,2,1996,2.8941296143721,
2004,11,3,1996,2.03613872774726,
2004,11,4,1996,0.677107903672303,1.44384361503154
2004,11,1,1997,0.91314478035136,
2004,11,2,1997,5.07385234769131,
2004,11,3,1997,2.84492460187971,
2004,11,4,1997,4.12599286666646,2.34682385233536
2004,11,1,1998,3.04250281933156,
2004,11,2,1998,1.76903373805424,
2004,11,3,1998,2.17673628901147,
2004,11,4,1998,1.03173489701567,2.86513994791184
2004,11,1,1999,3.49736738911368,
2004,11,2,1999,2.52278387442311,
2004,11,3,1999,5.15126442765514,
2004,11,4,1999,4.38690632299099,2.83890178887658
2004,11,1,2000,3.6085309190228,
2004,11,2,2000,3.55877061143477,
2004,11,3,2000,1.30988499465576,
2004,11,4,2000,2.27014280996294,3.48848225719269
2004,11,1,2001,2.99723741571918,
2004,11,2,2001,-0.0791778720408587,
2004,11,3,2001,0.868902968391017,
2004,11,4,2001,-0.662916270505543,1.60285654979373
2004,11,1,2002,1.65984761010638,
2004,11,2,2002,1.57211675234106,
2004,11,3,2002,1.10577646839178,
2004,11,4,2002,0.209166650121606,0.836889765034798
2004,11,1,2003,0.115323539606549,
2004,11,2,2003,-0.712827603975397,
2004,11,3,2003,1.90679980480979,
2004,11,4,2003,1.50725670050251,0.499775378557366
2004,11,1,2004,2.76818296384049,
2004,11,2,2004,2.01176869063398,
2004,11,3,2004,,
2004,11,4,2004,,
2004,12,2,1991,1.28332327612886,
2004,12,3,1991,0.0292363517543137,
2004,12,4,1991,3.90981974285434,
2004,12,1,1992,6.05871799987516,
2004,12,2,1992,-3.02684794658533,
2004,12,3,1992,-1.05951084257945,
2004,12,4,1992,-0.918840844548408,
2004,12,1,1993,-2.68760211935175,
2004,12,2,1993,0.326989376122588,
2004,12,3,1993,1.73950320026239,
2004,12,4,1993,1.00954923137315,-0.836984469142432
2004,12,1,1994,3.73093606863679,
2004,12,2,1994,2.48617944480767,
2004,12,3,1994,2.88700394032764,
2004,12,4,1994,3.06004066161825,2.37497427542719
2004,12,1,1995,2.44371019239751,
2004,12,2,1995,2.14941121440939,
2004,12,3,1995,0.623041633615773,
2004,12,4,1995,0.987445890786409,2.23801776684638
2004,12,1,1996,0.832148776251995,
2004,12,2,1996,2.9202727964508,
2004,12,3,1996,2.04599657743592,
2004,12,4,1996,0.604506976203112,1.4436951677026
2004,12,1,1997,0.985423407290442,
2004,12,2,1997,5.07660621571597,
2004,12,3,1997,2.79052662032588,
2004,12,4,1997,4.11552857446031,2.34719076666154
2004,12,1,1998,3.11071623704349,
2004,12,2,1998,1.73016388805736,
2004,12,3,1998,2.19152898812269,
2004,12,4,1998,0.992064988927144,2.86560025225286
2004,12,1,1999,3.53537970065183,
2004,12,2,1999,2.49583611392219,
2004,12,3,1999,5.1635867230158,
2004,12,4,1999,4.41667583241758,2.83849013081043
2004,12,1,2000,3.60447594898305,
2004,12,2,2000,3.66119805546401,
2004,12,3,2000,1.30177862539724,
2004,12,4,2000,2.20148491494589,3.50662265384891
2004,12,1,2001,3.03428659405824,
2004,12,2,2001,-0.0770379037637214,
2004,12,3,2001,0.858322691728031,
2004,12,4,2001,-0.684862627554583,1.60211083809509
2004,12,1,2002,1.79276215971795,
2004,12,2,2002,1.57155778203508,
2004,12,3,2002,1.15860693520233,
2004,12,4,2002,0.0658142260164141,0.861917289878345
2004,12,1,2003,0.140985036248065,
2004,12,2,2003,-0.764662279887685,
2004,12,3,2003,2.16884475009511,
2004,12,4,2003,1.57924233343831,0.512762133141731
2004,12,1,2004,2.63475177555186,
2004,12,2,2004,1.88853716966877,
2004,12,3,2004,1.21526338263944,
2004,12,4,2004,,
2005,1,2,1991,1.27913537497737,
2005,1,3,1991,0.0775189729543158,
2005,1,4,1991,3.9121579693201,
2005,1,1,1992,6.00237740181573,
2005,1,2,1992,-3.00461526703194,
2005,1,3,1992,-0.989428438320394,
2005,1,4,1992,-1.01459593468755,
2005,1,1,1993,-2.64917631432506,
2005,1,2,1993,0.300287609749117,
2005,1,3,1993,1.71503933942885,
2005,1,4,1993,1.10581581672331,-0.836978209156492
2005,1,1,1994,3.68139344116585,
2005,1,2,1994,2.5037171664311,
2005,1,3,1994,2.92977905974812,
2005,1,4,1994,2.90214451543989,2.37497760880563
2005,1,1,1995,2.54272310330121,
2005,1,2,1995,2.11872837182963,
2005,1,3,1995,0.649698281381639,
2005,1,4,1995,0.997468379061739,2.23804117694468
2005,1,1,1996,0.889792928041455,
2005,1,2,1996,2.86559132536683,
2005,1,3,1996,1.98050483448378,
2005,1,4,1996,0.61205135490634,1.44369313166586
2005,1,1,1997,1.1093854354884,
2005,1,2,1997,4.97580749866213,
2005,1,3,1997,2.75263210112249,
2005,1,4,1997,4.14742416829503,2.34718661718911
2005,1,1,1998,3.11969375256518,
2005,1,2,1998,1.71279048749078,
2005,1,3,1998,2.25409890016837,
2005,1,4,1998,0.96189752014888,2.86561575765125
2005,1,1,1999,3.61357869839736,
2005,1,2,1999,2.41445692355493,
2005,1,3,1999,5.09379120863998,
2005,1,4,1999,4.47413500527272,2.83847808997457
2005,1,1,2000,3.60450107040111,
2005,1,2,2000,3.64488396197731,
2005,1,3,2000,1.37666468781024,
2005,1,4,2000,2.145124619288,3.50662982648056
2005,1,1,2001,3.04959479640878,
2005,1,2,2001,-0.0440630335024173,
2005,1,3,2001,0.768700947320089,
2005,1,4,2001,-0.609843073732963,1.60353345925384
2005,1,1,2002,1.81119159601986,
2005,1,2,2002,1.51393022747301,
2005,1,3,2002,1.18342359269559,
2005,1,4,2002,0.0411298073279331,0.862433037748334
2005,1,1,2003,0.134960954511709,
2005,1,2,2003,-0.696094923422297,
2005,1,3,2003,2.13934360587582,
2005,1,4,2003,1.58893831984304,0.516119538618209
2005,1,1,2004,2.65164831326712,
2005,1,2,2004,1.88795915541298,
2005,1,3,2004,1.06557062757231,
2005,1,4,2004,,
2005,1,1,2005,,
2005,1,2,2005,,
2005,1,3,2005,,
2005,1,4,2005,,
2005,2,2,1991,1.27913537497737,
2005,2,3,1991,0.0775189729543158,
2005,2,4,1991,3.9121579693201,
2005,2,1,1992,6.00237740181573,
2005,2,2,1992,-3.00461526703194,
2005,2,3,1992,-0.989428438320394,
2005,2,4,1992,-1.01459593468755,
2005,2,1,1993,-2.64917631432506,
2005,2,2,1993,0.300287609749117,
2005,2,3,1993,1.71503933942885,
2005,2,4,1993,1.10581581672331,-0.836978209156492
2005,2,1,1994,3.68139344116585,
2005,2,2,1994,2.5037171664311,
2005,2,3,1994,2.92977905974812,
2005,2,4,1994,2.90214451543989,2.37497760880563
2005,2,1,1995,2.54272310330121,
2005,2,2,1995,2.11872837182963,
2005,2,3,1995,0.649698281381639,
2005,2,4,1995,0.997468379061739,2.23804117694468
2005,2,1,1996,0.889792928041455,
2005,2,2,1996,2.86559132536683,
2005,2,3,1996,1.98050483448378,
2005,2,4,1996,0.61205135490634,1.44369313166586
2005,2,1,1997,1.1093854354884,
2005,2,2,1997,4.97580749866213,
2005,2,3,1997,2.75263210112249,
2005,2,4,1997,4.14742416829503,2.34718661718911
2005,2,1,1998,3.11969375256518,
2005,2,2,1998,1.71279048749078,
2005,2,3,1998,2.25409890016837,
2005,2,4,1998,0.96189752014888,2.86561575765125
2005,2,1,1999,3.61357869839736,
2005,2,2,1999,2.41445692355493,
2005,2,3,1999,5.09379120863998,
2005,2,4,1999,4.47413500527272,2.83847808997457
2005,2,1,2000,3.60450107040111,
2005,2,2,2000,3.64488396197731,
2005,2,3,2000,1.37666468781024,
2005,2,4,2000,2.145124619288,3.50662982648056
2005,2,1,2001,3.04959479640878,
2005,2,2,2001,-0.0440630335024173,
2005,2,3,2001,0.768700947320089,
2005,2,4,2001,-0.609843073732963,1.60353345925384
2005,2,1,2002,1.81119159601986,
2005,2,2,2002,1.51393022747301,
2005,2,3,2002,1.18342359269559,
2005,2,4,2002,0.0411298073279331,0.862433037748334
2005,2,1,2003,0.134960954511709,
2005,2,2,2003,-0.696094923422297,
2005,2,3,2003,2.13934360587582,
2005,2,4,2003,1.58893831984304,0.516119538618209
2005,2,1,2004,2.65164831326712,
2005,2,2,2004,1.88795915541298,
2005,2,3,2004,1.06557062757231,
2005,2,4,2004,,
2005,2,1,2005,,
2005,2,2,2005,,
2005,2,3,2005,,
2005,2,4,2005,,
2005,3,2,1991,1.33285741416211,
2005,3,3,1991,-0.010506202220173,
2005,3,4,1991,3.68862953925557,
2005,3,1,1992,5.5721037899473,
2005,3,2,1992,-3.25496649873057,
2005,3,3,1992,-1.09844742353213,
2005,3,4,1992,-0.974551812593016,
2005,3,1,1993,-2.5199208463267,
2005,3,2,1993,0.405561262522958,
2005,3,3,1993,1.76277759548074,
2005,3,4,1993,1.11653860998289,-0.800376570064076
2005,3,1,1994,3.63460260103852,
2005,3,2,1994,2.51689304194351,
2005,3,3,1994,2.96323628527713,
2005,3,4,1994,3.00108688040714,2.39101175866026
2005,3,1,1995,2.68666003513722,
2005,3,2,1995,2.18899153851,
2005,3,3,1995,0.65132927816578,
2005,3,4,1995,0.954686264444926,2.30791075842025
2005,3,1,1996,0.779656888334857,
2005,3,2,1996,2.81703212117148,
2005,3,3,1996,2.00079742211805,
2005,3,4,1996,0.671944699333626,1.40981545134149
2005,3,1,1997,1.23219791655247,
2005,3,2,1997,5.05928030093163,
2005,3,3,1997,2.75099158953993,
2005,3,4,1997,4.0788653058075,2.4000499336218
2005,3,1,1998,2.98587554365204,
2005,3,2,1998,1.59979819163958,
2005,3,3,1998,2.1604451331398,
2005,3,4,1998,0.83217157498019,2.78281646280441
2005,3,1,1999,3.46666348822131,
2005,3,2,1999,2.37565829950501,
2005,3,3,1999,5.14540581226022,
2005,3,4,1999,4.6106417679143,2.76601703592667
2005,3,1,2000,3.86674277091756,
2005,3,2,2000,3.78627388855615,
2005,3,3,2000,1.44753557012531,
2005,3,4,2000,2.21212186015762,3.64111708893757
2005,3,1,2001,3.03758424935339,
2005,3,2,2001,-0.032213011915927,
2005,3,3,2001,0.783854306386256,
2005,3,4,2001,-0.613511576617765,1.63436925299918
2005,3,1,2002,1.88459815755868,
2005,3,2,2002,1.51818637730896,
2005,3,3,2002,1.22145178178157,
2005,3,4,2002,0.0385163064533511,0.887932021023064
2005,3,1,2003,0.0497633757587268,
2005,3,2,2003,-0.640239752528582,
2005,3,3,2003,2.26144607063163,
2005,3,4,2003,1.71356265213307,0.532622489689461
2005,3,1,2004,2.95925320794399,
2005,3,2,2004,1.89901692412835,
2005,3,3,2004,0.983808670774189,
2005,3,4,2004,0.619556677607136,1.81686465767719
2005,3,1,2005,,
2005,3,2,2005,,
2005,3,3,2005,,
2005,3,4,2005,,
2005,4,2,1991,1.33285741416211,
2005,4,3,1991,-0.010506202220173,
2005,4,4,1991,3.68862953925557,
2005,4,1,1992,5.5721037899473,
2005,4,2,1992,-3.25496649873057,
2005,4,3,1992,-1.09844742353213,
2005,4,4,1992,-0.974551812593016,
2005,4,1,1993,-2.5199208463267,
2005,4,2,1993,0.405561262522958,
2005,4,3,1993,1.76277759548074,
2005,4,4,1993,1.11653860998289,-0.800376570064076
2005,4,1,1994,3.63460260103852,
2005,4,2,1994,2.51689304194351,
2005,4,3,1994,2.96323628527713,
2005,4,4,1994,3.00108688040714,2.39101175866026
2005,4,1,1995,2.68666003513722,
2005,4,2,1995,2.18899153851,
2005,4,3,1995,0.65132927816578,
2005,4,4,1995,0.954686264444926,2.30791075842025
2005,4,1,1996,0.779656888334857,
2005,4,2,1996,2.81703212117148,
2005,4,3,1996,2.00079742211805,
2005,4,4,1996,0.671944699333626,1.40981545134149
2005,4,1,1997,1.23219791655247,
2005,4,2,1997,5.05928030093163,
2005,4,3,1997,2.75099158953993,
2005,4,4,1997,4.0788653058075,2.4000499336218
2005,4,1,1998,2.98587554365204,
2005,4,2,1998,1.59979819163958,
2005,4,3,1998,2.1604451331398,
2005,4,4,1998,0.83217157498019,2.78281646280441
2005,4,1,1999,3.46666348822131,
2005,4,2,1999,2.37565829950501,
2005,4,3,1999,5.14540581226022,
2005,4,4,1999,4.6106417679143,2.76601703592667
2005,4,1,2000,3.86674277091756,
2005,4,2,2000,3.78627388855615,
2005,4,3,2000,1.44753557012531,
2005,4,4,2000,2.21212186015762,3.64111708893757
2005,4,1,2001,3.03758424935339,
2005,4,2,2001,-0.032213011915927,
2005,4,3,2001,0.783854306386256,
2005,4,4,2001,-0.613511576617765,1.63436925299918
2005,4,1,2002,1.88459815755868,
2005,4,2,2002,1.51818637730896,
2005,4,3,2002,1.22145178178157,
2005,4,4,2002,0.0385163064533511,0.887932021023064
2005,4,1,2003,0.0497633757587268,
2005,4,2,2003,-0.640239752528582,
2005,4,3,2003,2.26144607063163,
2005,4,4,2003,1.71356265213307,0.532622489689461
2005,4,1,2004,2.95925320794399,
2005,4,2,2004,1.89901692412835,
2005,4,3,2004,0.983808670774189,
2005,4,4,2004,0.619556677607136,1.81686465767719
2005,4,1,2005,,
2005,4,2,2005,,
2005,4,3,2005,,
2005,4,4,2005,,
2005,5,2,1991,1.32730552969824,
2005,5,3,1991,-0.00989136913881472,
2005,5,4,1991,3.6874790378107,
2005,5,1,1992,5.56913459571129,
2005,5,2,1992,-3.24931833171196,
2005,5,3,1992,-1.09671404950729,
2005,5,4,1992,-0.976517346110306,
2005,5,1,1993,-2.51714174283306,
2005,5,2,1993,0.402069847367237,
2005,5,3,1993,1.76052046754207,
2005,5,4,1993,1.11648163529066,-0.800383232769453
2005,5,1,1994,3.63509045457195,
2005,5,2,1994,2.5185084677573,
2005,5,3,1994,2.96395407092978,
2005,5,4,1994,3.00088373664442,2.39099737208799
2005,5,1,1995,2.68608470793115,
2005,5,2,1995,2.18884944011568,
2005,5,3,1995,0.651728250787742,
2005,5,4,1995,0.954268871085806,2.30791558617662
2005,5,1,1996,0.781018825907265,
2005,5,2,1996,2.81521751299116,
2005,5,3,1996,2.00081819871867,
2005,5,4,1996,0.671624096548973,1.4097667046086
2005,5,1,1997,1.23566759538072,
2005,5,2,1997,5.05213416994685,
2005,5,3,1997,2.7532244972156,
2005,5,4,1997,4.08470502060205,2.4000890426241
2005,5,1,1998,2.97928080418541,
2005,5,2,1998,1.59839181570882,
2005,5,3,1998,2.16535310505472,
2005,5,4,1998,0.838320126392578,2.78283975868974
2005,5,1,1999,3.46155196485403,
2005,5,2,1999,2.37022065078718,
2005,5,3,1999,5.15026351492123,
2005,5,4,1999,4.6100854066089,2.76598377695125
2005,5,1,2000,3.86483063901413,
2005,5,2,2000,3.77860634233844,
2005,5,3,2000,1.46115732692553,
2005,5,4,2000,2.21270312522885,3.64113562389885
2005,5,1,2001,3.03471726835818,
2005,5,2,2001,-0.044513927480172,
2005,5,3,2001,0.79778740326617,
2005,5,4,2001,-0.615344719824207,1.63429680306366
2005,5,1,2002,1.89999236659002,
2005,5,2,2002,1.50595591005263,
2005,5,3,2002,1.27980657091091,
2005,5,4,2002,0.0126784223657639,0.895731870664163
2005,5,1,2003,0.0863352103286363,
2005,5,2,2003,-0.658404010451552,
2005,5,3,2003,2.29143656797417,
2005,5,4,2003,1.59140964244777,0.536069991163846
2005,5,1,2004,2.91329083724003,
2005,5,2,2004,1.82283980819367,
2005,5,3,2004,1.02457601864663,
2005,5,4,2004,0.644328771397618,1.77758870105391
2005,5,1,2005,,
2005,5,2,2005,,
2005,5,3,2005,,
2005,5,4,2005,,
2005,6,2,1991,0.541124603453502,
2005,6,3,1991,0.27912463626989,
2005,6,4,1991,3.85583135018199,
2005,6,1,1992,4.8664327605936,
2005,6,2,1992,-2.40252242113969,
2005,6,3,1992,-0.606628903219808,
2005,6,4,1992,-1.11833291344036,
2005,6,1,1993,-3.0108678211238,
2005,6,2,1993,0.697203086368048,
2005,6,3,1993,1.84815559577822,
2005,6,4,1993,1.18887553142994,-0.767246109722686
2005,6,1,1994,3.44656698253387,
2005,6,2,1994,2.94272226448968,
2005,6,3,1994,3.21704230292432,
2005,6,4,1994,3.14708100547239,2.50825780032724
2005,6,1,1995,2.65837908815787,
2005,6,2,1995,2.71104510309643,
2005,6,3,1995,1.06438818806187,
2005,6,4,1995,0.607625003606338,2.51398945404224
2005,6,1,1996,0.624449994319321,
2005,6,2,1996,3.15347690048162,
2005,6,3,1996,1.98783463004952,
2005,6,4,1996,0.829850455559078,1.45988285928982
2005,6,1,1997,1.69100020617468,
2005,6,2,1997,5.22819830623735,
2005,6,3,1997,2.83472551689219,
2005,6,4,1997,4.15151990780855,2.61123085102293
2005,6,1,1998,3.18910686336713,
2005,6,2,1998,1.46432207368554,
2005,6,3,1998,2.1134815306413,
2005,6,4,1998,0.526664321114834,2.81611263574819
2005,6,1,1999,3.59301614324132,
2005,6,2,1999,2.41154618911648,
2005,6,3,1999,5.02083712679906,
2005,6,4,1999,4.86035527581958,2.7315606234432
2005,6,1,2000,4.13019295358603,
2005,6,2,2000,3.58892495786929,
2005,6,3,2000,1.77552623809774,
2005,6,4,2000,2.69507493921932,3.77571384892659
2005,6,1,2001,2.77733462411243,
2005,6,2,2001,0.358468558504921,
2005,6,3,2001,0.74316268893555,
2005,6,4,2001,-0.158317749618542,1.78685268483412
2005,6,1,2002,1.42566686680083,
2005,6,2,2002,1.56137800466665,
2005,6,3,2002,1.64646368462364,
2005,6,4,2002,0.209191517873775,0.951825598034572
2005,6,1,2003,0.178296437548298,
2005,6,2,2003,-0.452055062732815,
2005,6,3,2003,2.08651895826584,
2005,6,4,2003,1.89307016591618,0.67751518170982
2005,6,1,2004,2.64074004221071,
2005,6,2,2004,1.65907440163384,
2005,6,3,2004,1.12874963733787,
2005,6,4,2004,0.602261658850067,1.73404951798493
2005,6,1,2005,2.00869283449305,
2005,6,2,2005,,
2005,6,3,2005,,
2005,6,4,2005,,
2005,7,2,1991,0.541124603453502,
2005,7,3,1991,0.27912463626989,
2005,7,4,1991,3.85583135018199,
2005,7,1,1992,4.8664327605936,
2005,7,2,1992,-2.40252242113969,
2005,7,3,1992,-0.606628903219808,
2005,7,4,1992,-1.11833291344036,
2005,7,1,1993,-3.0108678211238,
2005,7,2,1993,0.697203086368048,
2005,7,3,1993,1.84815559577822,
2005,7,4,1993,1.18887553142994,-0.767246109722686
2005,7,1,1994,3.44656698253387,
2005,7,2,1994,2.94272226448968,
2005,7,3,1994,3.21704230292432,
2005,7,4,1994,3.14708100547239,2.50825780032724
2005,7,1,1995,2.65837908815787,
2005,7,2,1995,2.71104510309643,
2005,7,3,1995,1.06438818806187,
2005,7,4,1995,0.607625003606338,2.51398945404224
2005,7,1,1996,0.624449994319321,
2005,7,2,1996,3.15347690048162,
2005,7,3,1996,1.98783463004952,
2005,7,4,1996,0.829850455559078,1.45988285928982
2005,7,1,1997,1.69100020617468,
2005,7,2,1997,5.22819830623735,
2005,7,3,1997,2.83472551689219,
2005,7,4,1997,4.15151990780855,2.61123085102293
2005,7,1,1998,3.18910686336713,
2005,7,2,1998,1.46432207368554,
2005,7,3,1998,2.1134815306413,
2005,7,4,1998,0.526664321114834,2.81611263574819
2005,7,1,1999,3.59301614324132,
2005,7,2,1999,2.41154618911648,
2005,7,3,1999,5.02083712679906,
2005,7,4,1999,4.86035527581958,2.7315606234432
2005,7,1,2000,4.13019295358603,
2005,7,2,2000,3.58892495786929,
2005,7,3,2000,1.77552623809774,
2005,7,4,2000,2.69507493921932,3.77571384892659
2005,7,1,2001,2.77733462411243,
2005,7,2,2001,0.358468558504921,
2005,7,3,2001,0.74316268893555,
2005,7,4,2001,-0.158317749618542,1.78685268483412
2005,7,1,2002,1.42566686680083,
2005,7,2,2002,1.56137800466665,
2005,7,3,2002,1.64646368462364,
2005,7,4,2002,0.209191517873775,0.951825598034572
2005,7,1,2003,0.178296437548298,
2005,7,2,2003,-0.452055062732815,
2005,7,3,2003,2.08651895826584,
2005,7,4,2003,1.89307016591618,0.67751518170982
2005,7,1,2004,2.64074004221071,
2005,7,2,2004,1.65907440163384,
2005,7,3,2004,1.12874963733787,
2005,7,4,2004,0.602261658850067,1.73404951798493
2005,7,1,2005,2.00869283449305,
2005,7,2,2005,,
2005,7,3,2005,,
2005,7,4,2005,,
2005,8,2,1991,0.555829759834237,
2005,8,3,1991,0.296261452433755,
2005,8,4,1991,3.87576254396107,
2005,8,1,1992,4.89136523476013,
2005,8,2,1992,-2.39345629860318,
2005,8,3,1992,-0.608309681043406,
2005,8,4,1992,-1.13752716507233,
2005,8,1,1993,-3.01518385683892,
2005,8,2,1993,0.680608744046563,
2005,8,3,1993,1.84101582700162,
2005,8,4,1993,1.17911957977415,-0.776142228422883
2005,8,1,1994,3.42899631889366,
2005,8,2,1994,2.93515729548695,
2005,8,3,1994,3.21281346530455,
2005,8,4,1994,3.12297189955981,2.49664675065073
2005,8,1,1995,2.63917478257767,
2005,8,2,1995,2.69906306233525,
2005,8,3,1995,1.04656414774773,
2005,8,4,1995,0.589162778556318,2.49803765746421
2005,8,1,1996,0.615285007396804,
2005,8,2,1996,3.14422367794056,
2005,8,3,1996,1.98712591104626,
2005,8,4,1996,0.826203917035095,1.44909141032468
2005,8,1,1997,1.69818680555398,
2005,8,2,1997,5.20720115204942,
2005,8,3,1997,2.83169607188007,
2005,8,4,1997,4.14297255653191,2.60691588291913
2005,8,1,1998,3.17609355353814,
2005,8,2,1998,1.47396073086428,
2005,8,3,1998,2.12779108832082,
2005,8,4,1998,0.547435433158694,2.81463487620128
2005,8,1,1999,3.59399741031847,
2005,8,2,1999,2.41271258048044,
2005,8,3,1999,5.00902962771845,
2005,8,4,1999,4.8435749861323,2.73589312213609
2005,8,1,2000,4.07957972216386,
2005,8,2,2000,3.59614320618509,
2005,8,3,2000,1.80509870140875,
2005,8,4,2000,2.7476058706901,3.76713437251746
2005,8,1,2001,2.88104582094595,
2005,8,2,2001,0.377922592959989,
2005,8,3,2001,0.848695362697249,
2005,8,4,2001,-0.120566383516596,1.84582117156007
2005,8,1,2002,1.36700778434078,
2005,8,2,2002,1.55431279161309,
2005,8,3,2002,1.58795443564599,
2005,8,4,2002,0.205420741082629,0.949951051881315
2005,8,1,2003,0.259075370679263,
2005,8,2,2003,-0.459103763114865,
2005,8,3,2003,2.01975573367639,
2005,8,4,2003,1.84493231198462,0.676844282249123
2005,8,1,2004,2.56176655545857,
2005,8,2,2004,1.84322005210154,
2005,8,3,2004,1.0659378528894,
2005,8,4,2004,0.637208690560165,1.72560891361648
2005,8,1,2005,1.89246134441026,
2005,8,2,2005,,
2005,8,3,2005,,
2005,8,4,2005,,
2005,9,2,1991,0.509716751563483,
2005,9,3,1991,0.398855550964083,
2005,9,4,1991,4.25431127440576,
2005,9,1,1992,5.46195820346251,
2005,9,2,1992,-2.20728313459675,
2005,9,3,1992,-0.80269483519837,
2005,9,4,1992,-1.60708295050731,
2005,9,1,1993,-3.94847254439386,
2005,9,2,1993,0.231727142165461,
2005,9,3,1993,1.7266100342876,
2005,9,4,1993,1.54519049994866,-1.19104481448631
2005,9,1,1994,4.23566811832123,
2005,9,2,1994,3.34447873720758,
2005,9,3,1994,3.48063540711912,
2005,9,4,1994,3.25408150521374,2.84099816589793
2005,9,1,1995,2.61681509685756,
2005,9,2,1995,2.69969406450097,
2005,9,3,1995,1.06087956241394,
2005,9,4,1995,0.602088097358533,2.57763208621769
2005,9,1,1996,0.541244235806726,
2005,9,2,1996,3.2432653935083,
2005,9,3,1996,1.95818060721968,
2005,9,4,1996,0.841532904653697,1.45035327223417
2005,9,1,1997,1.67277807728781,
2005,9,2,1997,5.23829869186094,
2005,9,3,1997,2.80139060850269,
2005,9,4,1997,4.18000970635974,2.61011585668058
2005,9,1,1998,3.11813705480351,
2005,9,2,1998,1.50320573232057,
2005,9,3,1998,2.13066321054067,
2005,9,4,1998,0.547549995024022,2.81106671933877
2005,9,1,1999,3.36226417307473,
2005,9,2,1999,2.56210725093757,
2005,9,3,1999,5.19272186096027,
2005,9,4,1999,4.89657043362257,2.73478983979252
2005,9,1,2000,4.01519178177199,
2005,9,2,2000,3.67388521278502,
2005,9,3,2000,1.6860133267288,
2005,9,4,2000,2.48143661005358,3.77500407840468
2005,9,1,2001,2.73624248917166,
2005,9,2,2001,0.349956294125686,
2005,9,3,2001,0.700334656509338,
2005,9,4,2001,-0.0216357115121801,1.73277701167229
2005,9,1,2002,1.02606609003115,
2005,9,2,2002,1.61253385593603,
2005,9,3,2002,1.57360220021714,
2005,9,4,2002,0.352855517100226,0.881754098893639
2005,9,1,2003,0.0624920165577914,
2005,9,2,2003,-0.46163351353411,
2005,9,3,2003,2.32515305484051,
2005,9,4,2003,1.86622075910565,0.695576048372981
2005,9,1,2004,2.57203281309089,
2005,9,2,2004,1.83000898050296,
2005,9,3,2004,1.04510855922899,
2005,9,4,2004,0.720573288795445,1.7700315807136
2005,9,1,2005,1.50460027059351,
2005,9,2,2005,1.17100512102082,
2005,9,3,2005,,
2005,9,4,2005,,
2005,10,2,1991,0.509716751563483,
2005,10,3,1991,0.398855550964083,
2005,10,4,1991,4.25431127440576,
2005,10,1,1992,5.46195820346251,
2005,10,2,1992,-2.20728313459675,
2005,10,3,1992,-0.80269483519837,
2005,10,4,1992,-1.60708295050731,
2005,10,1,1993,-3.94847254439386,
