fredbec/spf-europe/output/filter_spf/consensus_mean/002_run.csv
target_quarter,target_year,spf_filter_cy,spf_filter_ny,origin_quarter,origin_year
2,1991,1.22035149261859,1.22035149289275,1,2001
3,1991,0.242686548220704,0.242686548220705,1,2001
4,1991,3.9019132783761,3.9019132783761,1,2001
1,1992,5.67949033371342,5.67949033371342,1,2001
2,1992,-2.15845385305231,-2.15845385305231,1,2001
3,1992,-1.28747712943088,-1.28747712943088,1,2001
4,1992,-0.889854327095996,-0.889854327095996,1,2001
1,1993,-2.76785324946042,-2.76785324946042,1,2001
2,1993,0.30894852636647,0.30894852636647,1,2001
3,1993,1.22447410419595,1.22447410419595,1,2001
4,1993,1.4903550775744,1.4903550775744,1,2001
1,1994,4.05992642595303,4.05992642595303,1,2001
2,1994,2.07549720979923,2.07549720979923,1,2001
3,1994,2.73678377932585,2.73678377932585,1,2001
4,1994,3.37393012264526,3.37393012264526,1,2001
1,1995,2.43561441206268,2.43561441206268,1,2001
2,1995,2.10065976966085,2.10065976966085,1,2001
3,1995,0.40745099421633,0.40745099421633,1,2001
4,1995,0.923318769291126,0.923318769291126,1,2001
1,1996,0.975795507589483,0.975795507589483,1,2001
2,1996,2.58868091543496,2.58868091543496,1,2001
3,1996,2.27653823417493,2.27653823417493,1,2001
4,1996,0.847520542300018,0.847520542300018,1,2001
1,1997,0.707462962374183,0.707462962374184,1,2001
2,1997,4.9673476350411,4.9673476350411,1,2001
3,1997,2.90482768543348,2.90482768543348,1,2001
4,1997,3.39029458423401,3.39029458423401,1,2001
1,1998,3.44358337696575,3.44358337696575,1,2001
2,1998,1.3529405317863,1.3529405317863,1,2001
3,1998,2.1617340502966,2.1617340502966,1,2001
4,1998,1.08394753321359,1.08394753321359,1,2001
1,1999,3.07501228384053,3.07501228384053,1,2001
2,1999,2.31828188277918,2.31828188277918,1,2001
3,1999,3.89934161643468,3.89934161643468,1,2001
4,1999,3.92760695631864,3.92760695631864,1,2001
1,2000,3.71508896273649,3.71508896273649,1,2001
2,2000,3.33240467802769,3.33240467802769,1,2001
3,2000,2.73217648097268,2.73217648097268,1,2001
4,2000,2.70272113187874,2.68042118262341,1,2001
1,2001,2.68006317103724,2.6554654848489,1,2001
2,2001,2.66646839453234,2.66624258784073,1,2001
3,2001,2.65967100627989,2.69979577239848,1,2001
4,2001,2.65740521019574,2.74316831932173,1,2001
1,2002,,2.78340350941007,1,2001
2,2002,,2.80754462346308,1,2001
3,2002,,2.81961518048958,1,2001
4,2002,,2.82363869949841,1,2001
2,1991,1.03380705413862,1.03380705413862,2,2001
3,1991,0.221951484942905,0.221951484942907,2,2001
4,1991,3.86633767332045,3.86633767332045,2,2001
1,1992,5.86906539211933,5.86906539211933,2,2001
2,1992,-2.35096919690088,-2.35096919690088,2,2001
3,1992,-1.08865822184565,-1.08865822184565,2,2001
4,1992,-1.08937515191143,-1.08937515191143,2,2001
1,1993,-2.74514395996807,-2.74514395996807,2,2001
2,1993,0.155283009133944,0.155283009133944,2,2001
3,1993,1.5729998786215,1.5729998786215,2,2001
4,1993,1.56781798588088,1.56781798588088,2,2001
1,1994,3.61303084986029,3.61303084986029,2,2001
2,1994,2.32065514073023,2.32065514073023,2,2001
3,1994,2.95413091159094,2.95413091159094,2,2001
4,1994,3.18283271645303,3.18283271645303,2,2001
1,1995,2.35210954829024,2.35210954829024,2,2001
2,1995,2.0844020883876,2.0844020883876,2,2001
3,1995,0.377715613502793,0.377715613502794,2,2001
4,1995,1.02426197502647,1.02426197502647,2,2001
1,1996,1.14641432399198,1.14641432399198,2,2001
2,1996,2.213971591817,2.213971591817,2,2001
3,1996,2.4763225923129,2.4763225923129,2,2001
4,1996,0.690128817546776,0.690128817546776,2,2001
1,1997,1.16309018329293,1.16309018329293,2,2001
2,1997,4.70743652207279,4.70743652207279,2,2001
3,1997,2.76266170244552,2.76266170244552,2,2001
4,1997,3.59973205362374,3.59973205362374,2,2001
1,1998,3.56629010829461,3.56629010829461,2,2001
2,1998,1.2979694127919,1.2979694127919,2,2001
3,1998,2.32838326100828,2.32838326100828,2,2001
4,1998,1.031845155816,1.031845155816,2,2001
1,1999,3.14396944211055,3.14396944211055,2,2001
2,1999,2.19943459981997,2.19943459981997,2,2001
3,1999,4.07845750807045,4.07845750807045,2,2001
4,1999,4.02089109551278,4.02089109551278,2,2001
1,2000,3.7440865434178,3.7440865434178,2,2001
2,2000,3.06382008204198,3.06382008204198,2,2001
3,2000,2.23845215236032,2.23845215236032,2,2001
4,2000,2.84977351479012,2.84977351479012,2,2001
1,2001,2.52459783586891,2.42348896636271,2,2001
2,2001,2.32949242851619,2.28524760045225,2,2001
3,2001,2.23193972483982,2.34467465843795,2,2001
4,2001,2.1994221569477,2.511395381699,2,2001
1,2002,,2.69503501161461,2,2001
2,2002,,2.80521878956397,2,2001
3,2002,,2.86031067853865,2,2001
4,2002,,2.87867464153021,2,2001
2,1991,1.051216739026,1.0512167390363,3,2001
3,1991,-0.00996940672730706,-0.00996940672730462,3,2001
4,1991,3.9205399913538,3.9205399913538,3,2001
1,1992,5.99421609034667,5.99421609034667,3,2001
2,1992,-2.49120673522403,-2.49120673522403,3,2001
3,1992,-0.937605519471374,-0.937605519471374,3,2001
4,1992,-1.15104916961237,-1.15104916961237,3,2001
1,1993,-2.88262496431672,-2.88262496431672,3,2001
2,1993,0.314659308714549,0.314659308714549,3,2001
3,1993,1.60944996498464,1.60944996498464,3,2001
4,1993,1.62043889784009,1.62043889784009,3,2001
1,1994,3.51688399695422,3.51688399695422,3,2001
2,1994,2.32002058474339,2.32002058474339,3,2001
3,1994,2.83021061053559,2.83021061053559,3,2001
4,1994,3.40629517199069,3.40629517199069,3,2001
1,1995,2.21391989285327,2.21391989285327,3,2001
2,1995,2.15905713703166,2.15905713703166,3,2001
3,1995,0.379495896299086,0.379495896299087,3,2001
4,1995,0.93747579658503,0.93747579658503,3,2001
1,1996,1.32324665575336,1.32324665575336,3,2001
2,1996,2.05471436340903,2.05471436340903,3,2001
3,1996,2.49460789548872,2.49460789548872,3,2001
4,1996,0.606355068013964,0.606355068013964,3,2001
1,1997,1.15901880189271,1.15901880189271,3,2001
2,1997,4.82842628678435,4.82842628678435,3,2001
3,1997,2.82310645558797,2.82310645558797,3,2001
4,1997,3.51580695634033,3.51580695634033,3,2001
1,1998,3.91281199136773,3.91281199136773,3,2001
2,1998,1.33558559800491,1.33558559800491,3,2001
3,1998,2.2249500460034,2.2249500460034,3,2001
4,1998,0.91129612092513,0.911296120925131,3,2001
1,1999,3.29251087836839,3.29251087836839,3,2001
2,1999,2.1866755556742,2.1866755556742,3,2001
3,1999,4.11598662193462,4.11598662193462,3,2001
4,1999,4.00286635529183,4.00286635529183,3,2001
1,2000,3.84502351856724,3.84502351856724,3,2001
2,2000,3.02277283784982,3.02277283784982,3,2001
3,2000,2.39410547984213,2.39410547984213,3,2001
4,2000,2.43192810853234,2.43192810853234,3,2001
1,2001,2.20515515349451,2.20515515349451,3,2001
2,2001,1.62006195972461,1.36077741773179,3,2001
3,2001,1.32751536283965,1.38298465919057,3,2001
4,2001,1.22999983054467,1.89826834082746,3,2001
1,2002,,2.53311992559909,3,2001
2,2002,,2.91403087646207,3,2001
3,2002,,3.10448635189355,3,2001
4,2002,,3.16797151037072,3,2001
2,1991,0.841332714400411,0.841332714680616,4,2001
3,1991,0.292186238986236,0.292186238986236,4,2001
4,1991,3.68470964114307,3.68470964114307,4,2001
1,1992,6.06693048044398,6.06693048044398,4,2001
2,1992,-2.72207460449393,-2.72207460449393,4,2001
3,1992,-0.626125724150328,-0.626125724150328,4,2001
4,1992,-1.35108610362086,-1.35108610362086,4,2001
1,1993,-2.72852484101649,-2.72852484101649,4,2001
2,1993,0.161374048233709,0.161374048233709,4,2001
3,1993,1.79007511522771,1.79007511522771,4,2001
4,1993,1.41953252002818,1.41953252002818,4,2001
1,1994,3.41086556010453,3.41086556010453,4,2001
2,1994,2.32592621854888,2.32592621854888,4,2001
3,1994,2.98886113363803,2.98886113363803,4,2001
4,1994,3.30255754421043,3.30255754421043,4,2001
1,1995,2.14354500889271,2.14354500889271,4,2001
2,1995,2.49469266604576,2.49469266604576,4,2001
3,1995,0.404027558746245,0.404027558746245,4,2001
4,1995,0.827940929629678,0.827940929629678,4,2001
1,1996,1.12207578076406,1.12207578076406,4,2001
2,1996,2.40174720864823,2.40174720864823,4,2001
3,1996,2.32072270311448,2.32072270311448,4,2001
4,1996,0.683361866531751,0.683361866531751,4,2001
1,1997,1.11341834296861,1.11341834296861,4,2001
2,1997,4.76930198987045,4.76930198987045,4,2001
3,1997,2.69049087496911,2.69049087496911,4,2001
4,1997,3.92622136013234,3.92622136013234,4,2001
1,1998,3.56600240421159,3.56600240421159,4,2001
2,1998,1.52315176565991,1.52315176565991,4,2001
3,1998,2.05970231992401,2.05970231992401,4,2001
4,1998,0.639755161962263,0.639755161962263,4,2001
1,1999,3.92114602390967,3.92114602390967,4,2001
2,1999,2.02195374370384,2.02195374370384,4,2001
3,1999,4.48486091449987,4.48486091449987,4,2001
4,1999,3.97973979890973,3.97973979890973,4,2001
1,2000,3.96621216858499,3.96621216858499,4,2001
2,2000,3.122870020304,3.122870020304,4,2001
3,2000,2.0006956078134,2.0006956078134,4,2001
4,2000,2.41662200697821,2.41662200697821,4,2001
1,2001,2.06303883718004,2.06303883718004,4,2001
2,2001,0.201769249791095,0.201769249791095,4,2001
3,2001,0.415020796155954,0.211458424965189,4,2001
4,2001,0.48610464494424,0.896127444768526,4,2001
1,2002,,1.74792656320016,4,2001
2,2002,,2.25900603425914,4,2001
3,2002,,2.51454576978863,4,2001
4,2002,,2.59972568163179,4,2001
2,1991,0.786385002418832,0.786385002418832,1,2002
3,1991,0.288195043804129,0.288195043804129,1,2002
4,1991,3.69325564874532,3.69325564874532,1,2002
1,1992,5.97145724898835,5.97145724898835,1,2002
2,1992,-2.79774822990261,-2.79774822990261,1,2002
3,1992,-0.723737344476427,-0.723737344476427,1,2002
4,1992,-0.948044383700275,-0.948044383700275,1,2002
1,1993,-2.87990289662321,-2.87990289662321,1,2002
2,1993,0.0643690235962784,0.0643690235962779,1,2002
3,1993,1.82521421678954,1.82521421678954,1,2002
4,1993,1.54027352980426,1.54027352980426,1,2002
1,1994,3.58471206957427,3.58471206957427,1,2002
2,1994,1.84282664278237,1.84282664278237,1,2002
3,1994,2.93809189475087,2.93809189475087,1,2002
4,1994,3.38692934308438,3.38692934308438,1,2002
1,1995,2.00543866781941,2.00543866781941,1,2002
2,1995,2.71771075129093,2.71771075129093,1,2002
3,1995,0.605258348529514,0.605258348529514,1,2002
4,1995,0.725899239844985,0.725899239844985,1,2002
1,1996,0.88695654637565,0.88695654637565,1,2002
2,1996,2.71309327189351,2.71309327189351,1,2002
3,1996,2.14173184003821,2.14173184003821,1,2002
4,1996,0.804261679394935,0.804261679394935,1,2002
1,1997,1.37415590078684,1.37415590078684,1,2002
2,1997,4.48490669018675,4.48490669018675,1,2002
3,1997,2.53794313508893,2.53794313508893,1,2002
4,1997,4.19256644987249,4.19256644987249,1,2002
1,1998,3.59520478034243,3.59520478034243,1,2002
2,1998,1.6559111335777,1.6559111335777,1,2002
3,1998,2.08758882679774,2.08758882679774,1,2002
4,1998,0.486926641901331,0.486926641901331,1,2002
1,1999,3.68906050600992,3.68906050600992,1,2002
2,1999,2.52550991846712,2.52550991846712,1,2002
3,1999,4.41874542105116,4.41874542105116,1,2002
4,1999,3.94443374673268,3.94443374673268,1,2002
1,2000,3.60552915185686,3.60552915185686,1,2002
2,2000,3.55783336618241,3.55783336618241,1,2002
3,2000,1.65103910582047,1.65103910582047,1,2002
4,2000,2.35250056722371,2.35250056722371,1,2002
1,2001,2.32500340291779,2.32500340291779,1,2002
2,2001,0.252532341855338,0.252532341855338,1,2002
3,2001,0.496624005674784,0.496624005674784,1,2002
4,2001,1.06017093006866,0.932231560905045,1,2002
1,2002,1.4936685642178,1.3525457342976,1,2002
2,2002,1.75376714470728,1.75246873190654,1,2002
3,2002,1.88381643495202,2.11401483305693,1,2002
4,2002,1.92716619836693,2.41919831707382,1,2002
1,2003,,2.65003346328227,1,2002
2,2003,,2.78853455100735,1,2002
3,2003,,2.85778509486988,1,2002
4,2003,,2.88086860949073,1,2002
2,1991,0.776908418114077,0.776908417843236,2,2002
3,1991,0.225689915502468,0.225689915502468,2,2002
4,1991,3.71561726558081,3.71561726558081,2,2002
1,1992,6.01893356468819,6.01893356468819,2,2002
2,1992,-2.81194330843926,-2.81194330843926,2,2002
3,1992,-0.770033722316831,-0.770033722316832,2,2002
4,1992,-0.936530950474158,-0.936530950474157,2,2002
1,1993,-2.83792400619181,-2.83792400619181,2,2002
2,1993,0.0324479751942826,0.032447975194283,2,2002
3,1993,1.83991390890552,1.83991390890552,2,2002
4,1993,1.51358535541912,1.51358535541912,2,2002
1,1994,3.60233648005317,3.60233648005317,2,2002
2,1994,1.86559523521346,1.86559523521346,2,2002
3,1994,2.88508884116343,2.88508884116343,2,2002
4,1994,3.43945734810545,3.43945734810545,2,2002
1,1995,1.99937686420095,1.99937686420095,2,2002
2,1995,2.72954032024495,2.72954032024495,2,2002
3,1995,0.558504595099341,0.558504595099342,2,2002
4,1995,0.744095366510211,0.744095366510211,2,2002
1,1996,0.780341221206848,0.780341221206848,2,2002
2,1996,2.85991541894535,2.85991541894535,2,2002
3,1996,2.10998531818669,2.10998531818669,2,2002
4,1996,0.885786834255153,0.885786834255153,2,2002
1,1997,1.23804014289481,1.23804014289481,2,2002
2,1997,4.52495430723028,4.52495430723028,2,2002
3,1997,2.5092033556706,2.5092033556706,2,2002
4,1997,4.33538722378974,4.33538722378974,2,2002
1,1998,3.53989334836493,3.53989334836493,2,2002
2,1998,1.57094190546569,1.57094190546569,2,2002
3,1998,2.02485233533483,2.02485233533483,2,2002
4,1998,0.645572083094482,0.645572083094482,2,2002
1,1999,3.66898844239227,3.66898844239227,2,2002
2,1999,2.35397182857779,2.35397182857779,2,2002
3,1999,4.45215706398308,4.45215706398308,2,2002
4,1999,4.16833169045137,4.16833169045137,2,2002
1,2000,3.47137380775711,3.47137380775711,2,2002
2,2000,3.49191228614774,3.49191228614774,2,2002
3,2000,1.62286699920469,1.62286699920469,2,2002
4,2000,2.6009432289396,2.6009432289396,2,2002
1,2001,2.05083219419673,2.05083219419673,2,2002
2,2001,0.288494506647409,0.288494506647409,2,2002
3,2001,0.757582858574812,0.757582858574812,2,2002
4,2001,-0.660316880827815,-0.660316880827815,2,2002
1,2002,1.32976489590893,1.46854490380802,2,2002
2,2002,2.52381396195098,2.58454641311016,2,2002
3,2002,3.12083849497201,2.96610827239318,2,2002
4,2002,3.31984667264568,2.89165110697166,2,2002
1,2003,,2.63959554216016,2,2002
2,2003,,2.48836220327326,2,2002
3,2003,,2.41274553382981,2,2002
4,2003,,2.38753997734866,2,2002
2,1991,0.667291044705221,0.667291044890474,3,2002
3,1991,0.306184198387238,0.306184198387237,3,2002
4,1991,3.54926970265108,3.54926970265108,3,2002
1,1992,5.99779741645703,5.99779741645703,3,2002
2,1992,-2.85420737178148,-2.85420737178148,3,2002
3,1992,-0.45906078336696,-0.459060783366959,3,2002
4,1992,-0.950638774360657,-0.950638774360657,3,2002
1,1993,-3.0240936913276,-3.0240936913276,3,2002
2,1993,0.178850920303454,0.178850920303454,3,2002
3,1993,1.90925973917375,1.90925973917375,3,2002
4,1993,1.46421617396748,1.46421617396748,3,2002
1,1994,3.45342580787114,3.45342580787114,3,2002
2,1994,2.07736416364273,2.07736416364273,3,2002
3,1994,2.94263239608419,2.94263239608419,3,2002
4,1994,3.44290711466555,3.44290711466555,3,2002
1,1995,1.85697704427168,1.85697704427168,3,2002
2,1995,2.56535102147619,2.56535102147619,3,2002
3,1995,0.752675748222509,0.752675748222508,3,2002
4,1995,0.988278789111274,0.988278789111274,3,2002
1,1996,0.537155187826954,0.537155187826954,3,2002
2,1996,2.82662062212806,2.82662062212806,3,2002
3,1996,2.15523863275591,2.15523863275591,3,2002
4,1996,0.835145577286078,0.835145577286078,3,2002
1,1997,1.30502380744921,1.30502380744921,3,2002
2,1997,4.46873552964069,4.46873552964069,3,2002
3,1997,2.52134936572452,2.52134936572452,3,2002
4,1997,4.30342612208166,4.30342612208166,3,2002
1,1998,3.30733470002604,3.30733470002604,3,2002
2,1998,1.75028353311579,1.75028353311579,3,2002
3,1998,2.1789257400268,2.1789257400268,3,2002
4,1998,0.839328696405639,0.839328696405638,3,2002
1,1999,3.31138388193228,3.31138388193228,3,2002
2,1999,2.57883287392817,2.57883287392817,3,2002
3,1999,4.84087533194024,4.84087533194024,3,2002
4,1999,4.16247388400284,4.16247388400284,3,2002
1,2000,3.70303378882957,3.70303378882957,3,2002
2,2000,3.56384715335505,3.56384715335505,3,2002
3,2000,1.66434112720715,1.66434112720715,3,2002
4,2000,2.78226191301132,2.78226191301132,3,2002
1,2001,2.03645957584742,2.03645957584742,3,2002
2,2001,0.123589630967458,0.123589630967457,3,2002
3,2001,0.393459944241004,0.393459944241004,3,2002
4,2001,-1.15449083883461,-1.15449083883461,3,2002
1,2002,0.871087304173601,0.8710873041736,3,2002
2,2002,2.53376906306096,2.7737806091494,3,2002
3,2002,3.36510994250464,3.31377738981134,3,2002
4,2002,3.64222356898587,3.02366217746899,3,2002
1,2003,,2.43601950343191,3,2002
2,2003,,2.08343389900966,3,2002
3,2003,,1.90714109679853,3,2002
4,2003,,1.84837682939482,3,2002
2,1991,0.60702079998507,0.60702079998507,4,2002
3,1991,0.0836117815028459,0.0836117815028459,4,2002
4,1991,3.61804415517151,3.61804415517151,4,2002
1,1992,5.8793902782831,5.8793902782831,4,2002
2,1992,-2.62666452122354,-2.62666452122354,4,2002
3,1992,-0.546466672417323,-0.546466672417323,4,2002
4,1992,-0.725766871994915,-0.725766871994915,4,2002
1,1993,-3.15681221590003,-3.15681221590003,4,2002
2,1993,0.237570472707205,0.237570472707204,4,2002
3,1993,1.66410641550967,1.66410641550967,4,2002
4,1993,1.57998932792636,1.57998932792636,4,2002
1,1994,3.3871397463765,3.3871397463765,4,2002
2,1994,2.19380037143457,2.19380037143457,4,2002
3,1994,2.93210432307678,2.93210432307678,4,2002
4,1994,3.45730011421375,3.45730011421375,4,2002
1,1995,1.77094457775338,1.77094457775338,4,2002
2,1995,2.56818889106962,2.56818889106962,4,2002
3,1995,0.856135151610049,0.856135151610049,4,2002
4,1995,0.977816676388255,0.977816676388255,4,2002
1,1996,0.485973311548271,0.485973311548271,4,2002
2,1996,2.81518079667107,2.81518079667107,4,2002
3,1996,2.22324799912992,2.22324799912992,4,2002
4,1996,0.762095992150824,0.762095992150824,4,2002
1,1997,1.26672231784526,1.26672231784526,4,2002
2,1997,4.51657681923865,4.51657681923865,4,2002
3,1997,2.62711197964616,2.62711197964616,4,2002
4,1997,4.20162610169879,4.20162610169879,4,2002
1,1998,3.31635061646964,3.31635061646964,4,2002
2,1998,1.57135994170547,1.57135994170547,4,2002
3,1998,2.26976557395602,2.26976557395602,4,2002
4,1998,1.19869291015544,1.19869291015544,4,2002
1,1999,3.30661004054929,3.30661004054929,4,2002
2,1999,2.17536995105485,2.17536995105485,4,2002
3,1999,5.2634970393816,5.2634970393816,4,2002
4,1999,4.54149394751691,4.54149394751691,4,2002
1,2000,3.31864532175232,3.31864532175232,4,2002
2,2000,3.44350359552477,3.44350359552477,4,2002
3,2000,1.60348148430327,1.60348148430327,4,2002
4,2000,2.6360078233264,2.6360078233264,4,2002
1,2001,2.04880247153765,2.04880247153765,4,2002
2,2001,0.152702882643929,0.152702882643929,4,2002
3,2001,0.653891626050895,0.653891626050895,4,2002
4,2001,-1.15549315344257,-1.15549315344257,4,2002
1,2002,1.42688514205365,1.42688514205365,4,2002
2,2002,1.36578692645493,1.36578692645493,4,2002
3,2002,1.7655730731727,1.7733076650217,4,2002
4,2002,1.89883512207862,1.88323342578148,4,2002
1,2003,,1.85084031899505,4,2002
2,2003,,1.83140445492319,4,2002
3,2003,,1.82168652288726,4,2002
4,2003,,1.81844721220862,4,2002
2,1991,0.683422226631092,0.683422226631092,1,2003
3,1991,0.0744866685875811,0.0744866685875817,1,2003
4,1991,3.60613285395734,3.60613285395734,1,2003
1,1992,5.80772156509459,5.80772156509459,1,2003
2,1992,-2.54042372302762,-2.54042372302762,1,2003
3,1992,-0.567098993853776,-0.567098993853776,1,2003
4,1992,-0.763202840495125,-0.763202840495125,1,2003
1,1993,-3.12221982898301,-3.12221982898301,1,2003
2,1993,0.22984826916872,0.22984826916872,1,2003
3,1993,1.6934752047437,1.6934752047437,1,2003
4,1993,1.48765505069377,1.48765505069377,1,2003
1,1994,3.46985389852437,3.46985389852437,1,2003
2,1994,2.18773149888778,2.18773149888778,1,2003
3,1994,2.91816157471634,2.91816157471634,1,2003
4,1994,3.38338820275335,3.38338820275335,1,2003
1,1995,1.83345995364335,1.83345995364335,1,2003
2,1995,2.54409002322173,2.54409002322173,1,2003
3,1995,0.895086507557297,0.895086507557297,1,2003
4,1995,0.872250865781132,0.872250865781132,1,2003
1,1996,0.652234207714653,0.652234207714653,1,2003
2,1996,2.66584020657428,2.66584020657428,1,2003
3,1996,2.29586630671899,2.29586630671899,1,2003
4,1996,0.719857938622104,0.719857938622104,1,2003
1,1997,1.29397003277454,1.29397003277454,1,2003
2,1997,4.49299406491981,4.49299406491981,1,2003
3,1997,2.66738810806315,2.66738810806315,1,2003
4,1997,4.18385119121205,4.18385119121205,1,2003
1,1998,3.34505273367811,3.34505273367811,1,2003
2,1998,1.55523125435177,1.55523125435177,1,2003
3,1998,2.30788285724444,2.30788285724444,1,2003
4,1998,1.24627531809944,1.24627531809944,1,2003
1,1999,3.39549454985537,3.39549454985537,1,2003
2,1999,2.12431250170135,2.12431250170135,1,2003
3,1999,5.37698625154328,5.37698625154328,1,2003
4,1999,4.40776707903494,4.40776707903494,1,2003
1,2000,3.49404357887917,3.49404357887917,1,2003
2,2000,3.31769449027597,3.31769449027597,1,2003
3,2000,1.57374923813369,1.57374923813369,1,2003
4,2000,2.51364637527973,2.51364637527973,1,2003
1,2001,2.09705843459236,2.09705843459236,1,2003
2,2001,0.0622739895228763,0.0622739895228763,1,2003
3,2001,0.657811301346722,0.657811301346722,1,2003
4,2001,-1.01615065718587,-1.01615065718587,1,2003
1,2002,1.66111836738001,1.66111836738001,1,2003
2,2002,1.15935294903087,1.15935294903087,1,2003
3,2002,1.32682913773279,1.32682913773279,1,2003
4,2002,1.39144534185666,1.2285498164728,1,2003
1,2003,1.44115011425964,1.26146975971838,1,2003
2,2003,1.47097297770142,1.46932205563805,1,2003
3,2003,1.48588440942232,1.77898293950511,1,2003
4,2003,1.49085488666261,2.11732864659286,1,2003
1,2004,,2.41123541217461,1,2003
2,2004,,2.58757947152366,1,2003
3,2004,,2.67575150119819,1,2003
4,2004,,2.70514217775636,1,2003
2,1991,0.661409088953163,0.661409089111453,2,2003
3,1991,0.10719872286542,0.107198722865421,2,2003
4,1991,3.61150841305884,3.61150841305884,2,2003
1,1992,5.81065426800631,5.81065426800631,2,2003
2,1992,-2.5503035659349,-2.5503035659349,2,2003
3,1992,-0.569569956135196,-0.569569956135196,2,2003
4,1992,-0.797734029685127,-0.797734029685127,2,2003
1,1993,-3.06350742607352,-3.06350742607352,2,2003
2,1993,0.201849786532438,0.201849786532438,2,2003
3,1993,1.67076383277862,1.67076383277862,2,2003
4,1993,1.49377188837201,1.49377188837201,2,2003
1,1994,3.41744168619424,3.41744168619424,2,2003
2,1994,2.28449578704559,2.28449578704559,2,2003
3,1994,2.91184575999728,2.91184575999728,2,2003
4,1994,3.36729425891873,3.36729425891873,2,2003
1,1995,2.01696049753626,2.01696049753626,2,2003
2,1995,2.33012645657373,2.33012645657373,2,2003
3,1995,0.893099384687845,0.893099384687845,2,2003
4,1995,0.840839103229918,0.840839103229918,2,2003
1,1996,0.68887980751815,0.68887980751815,2,2003
2,1996,2.64253195708866,2.64253195708866,2,2003
3,1996,2.30963535450863,2.30963535450863,2,2003
4,1996,0.902997582425602,0.902997582425602,2,2003
1,1997,1.12091264210641,1.12091264210641,2,2003
2,1997,4.51922831462348,4.51922831462348,2,2003
3,1997,2.69508832329282,2.69508832329282,2,2003
4,1997,4.22319369515163,4.22319369515163,2,2003
1,1998,3.23656386715965,3.23656386715965,2,2003
2,1998,1.55418894213297,1.55418894213297,2,2003
3,1998,2.33656427032545,2.33656427032545,2,2003
4,1998,1.28563297544471,1.28563297544471,2,2003
1,1999,3.35852928776432,3.35852928776432,2,2003
2,1999,2.16988051129676,2.16988051129676,2,2003
3,1999,5.36113576350736,5.36113576350736,2,2003
4,1999,4.32558034449801,4.32558034449801,2,2003
1,2000,3.65056242144108,3.65056242144108,2,2003
2,2000,3.28090443766098,3.28090443766098,2,2003
3,2000,1.73604020732794,1.73604020732794,2,2003
4,2000,2.40267335448872,2.40267335448872,2,2003
1,2001,2.21309050353962,2.21309050353962,2,2003
2,2001,-0.0373905785937314,-0.0373905785937323,2,2003
3,2001,0.574680267060757,0.574680267060757,2,2003
4,2001,-0.903051255713049,-0.90305125571305,2,2003
1,2002,1.56427636927152,1.56427636927152,2,2003
2,2002,1.31103400431281,1.31103400431281,2,2003
3,2002,1.56915219567277,1.56915219567277,2,2003
4,2002,0.67982324380218,0.67982324380218,2,2003
1,2003,0.891976332838944,0.658385025849918,2,2003
2,2003,1.019268186261,0.917047829845282,2,2003
3,2003,1.08291411297203,1.34336050424407,2,2003
4,2003,1.10412942187571,1.82487189750206,2,2003
1,2004,,2.24913085807507,2,2003
2,2004,,2.50368623441887,2,2003
3,2004,,2.63096392259077,2,2003
4,2004,,2.67338981864807,2,2003
2,1991,0.664828714508846,0.664828714505548,3,2003
3,1991,0.053063055651336,0.053063055651336,3,2003
4,1991,3.63603450103813,3.63603450103813,3,2003
1,1992,5.87671484707535,5.87671484707535,3,2003
2,1992,-2.63457834356003,-2.63457834356003,3,2003
3,1992,-0.528222963846948,-0.528222963846947,3,2003
4,1992,-0.837194098036798,-0.837194098036798,3,2003
1,1993,-2.99276584220347,-2.99276584220347,3,2003
2,1993,0.0806831367059053,0.0806831367059058,3,2003
3,1993,1.82048086998403,1.82048086998403,3,2003
4,1993,1.39204251337042,1.39204251337042,3,2003
1,1994,3.38244782777244,3.38244782777244,3,2003
2,1994,2.39589506499676,2.39589506499676,3,2003
3,1994,2.83133841037806,2.83133841037806,3,2003
4,1994,3.46221215821649,3.46221215821649,3,2003
1,1995,1.97702639926309,1.97702639926309,3,2003
2,1995,2.30520798808505,2.30520798808505,3,2003
3,1995,0.931404891038423,0.931404891038423,3,2003
4,1995,0.771497220763684,0.771497220763684,3,2003
1,1996,0.830870715667609,0.830870715667609,3,2003
2,1996,2.47648348408296,2.47648348408296,3,2003
3,1996,2.31237439127119,2.31237439127119,3,2003
4,1996,0.959839050563294,0.959839050563294,3,2003
1,1997,1.04743535399277,1.04743535399277,3,2003
2,1997,4.70585273571558,4.70585273571558,3,2003
3,1997,2.5726669449146,2.5726669449146,3,2003
4,1997,4.22823013885052,4.22823013885052,3,2003
1,1998,3.27851687194112,3.27851687194112,3,2003
2,1998,1.59032098687864,1.59032098687864,3,2003
3,1998,2.23896357194273,2.23896357194273,3,2003
4,1998,1.22581878458201,1.22581878458201,3,2003
1,1999,3.52160423593368,3.52160423593368,3,2003
2,1999,2.18645894188847,2.18645894188847,3,2003
3,1999,5.25056472502949,5.25056472502949,3,2003
4,1999,4.32329012708403,4.32329012708403,3,2003
1,2000,3.85516062526246,3.85516062526246,3,2003
2,2000,3.20328714534273,3.20328714534273,3,2003
3,2000,1.49947549776155,1.49947549776155,3,2003
4,2000,2.53221302620594,2.53221302620594,3,2003
1,2001,2.38971592778376,2.38971592778376,3,2003
2,2001,-0.00523271282226689,-0.00523271282226778,3,2003
3,2001,0.62730883847204,0.62730883847204,3,2003
4,2001,-0.713947849500418,-0.713947849500419,3,2003
1,2002,1.69226394821267,1.69226394821267,3,2003
2,2002,1.56720075437216,1.56720075437216,3,2003
3,2002,1.29445495035709,1.29445495035709,3,2003
4,2002,0.268894358114991,0.268894358114991,3,2003
1,2003,0.0381512951699526,0.0381512951699524,3,2003
2,2003,0.699173139215359,0.566123288576355,3,2003
3,2003,1.02968406123806,1.05814996271836,3,2003
4,2003,1.13985436857896,1.48277677117195,3,2003
1,2004,,1.8085491675131,3,2003
2,2004,,2.00401260531779,3,2003
3,2004,,2.10174432422014,3,2003
4,2004,,2.13432156385425,3,2003
2,1991,0.714034957638798,0.714034957203351,4,2003
3,1991,-0.0529986475845344,-0.0529986475845355,4,2003
4,1991,3.64209704612297,3.64209704612297,4,2003
1,1992,6.10838209809597,6.10838209809597,4,2003
2,1992,-2.71923376768584,-2.71923376768584,4,2003
3,1992,-0.769192563157872,-0.769192563157871,4,2003
4,1992,-0.986080467159189,-0.986080467159189,4,2003
1,1993,-2.58536869170797,-2.58536869170797,4,2003
2,1993,0.0656800988148465,0.0656800988148465,4,2003
3,1993,1.58121964688334,1.58121964688334,4,2003
4,1993,1.228840526176,1.228840526176,4,2003
1,1994,3.70895198817318,3.70895198817318,4,2003
2,1994,2.43536120749381,2.43536120749381,4,2003
3,1994,2.8147426443925,2.8147426443925,4,2003
4,1994,3.07355223717043,3.07355223717043,4,2003
1,1995,2.36836477924534,2.36836477924534,4,2003
2,1995,2.14142112563229,2.14142112563229,4,2003
3,1995,0.931692154144392,0.931692154144392,4,2003
4,1995,0.646516848958068,0.646516848958068,4,2003
1,1996,1.20684630852563,1.20684630852563,4,2003
2,1996,2.34258920221477,2.34258920221477,4,2003
3,1996,2.2072135359273,2.2072135359273,4,2003
4,1996,0.586724767094271,0.586724767094271,4,2003
1,1997,1.04870757189552,1.04870757189552,4,2003
2,1997,5.09386233101923,5.09386233101923,4,2003
3,1997,2.77505626274068,2.77505626274068,4,2003
4,1997,4.11238816569866,4.11238816569866,4,2003
1,1998,3.09645979291362,3.09645979291362,4,2003
2,1998,1.68702452223675,1.68702452223675,4,2003
3,1998,2.29565248927188,2.29565248927188,4,2003
4,1998,1.1544424181581,1.1544424181581,4,2003
1,1999,3.41802194191425,3.41802194191425,4,2003
2,1999,2.34837128704102,2.34837128704102,4,2003
3,1999,5.29082281508979,5.29082281508979,4,2003
4,1999,4.16155318682769,4.16155318682769,4,2003
1,2000,3.86165585761649,3.86165585761649,4,2003
2,2000,3.31164025737438,3.31164025737438,4,2003
3,2000,1.46404791180312,1.46404791180312,4,2003
4,2000,2.36150464555163,2.36150464555163,4,2003
1,2001,2.6111060203373,2.6111060203373,4,2003
2,2001,-0.131169119953412,-0.131169119953413,4,2003
3,2001,0.64824979231739,0.648249792317391,4,2003
4,2001,-0.601390033779636,-0.601390033779637,4,2003
1,2002,1.64688254039083,1.64688254039083,4,2003
2,2002,1.60441684910662,1.60441684910662,4,2003
3,2002,1.28436339620088,1.28436339620088,4,2003
4,2002,0.277758705885933,0.277758705885933,4,2003
1,2003,0.244369759874719,0.244369759874719,4,2003
2,2003,-0.181283707073288,-0.181283707073288,4,2003
3,2003,0.555978316873322,0.375196237266318,4,2003
4,2003,0.801732324855525,1.16614498688405,4,2003
1,2004,,1.92296428043138,4,2003
2,2004,,2.37705585655977,4,2003
3,2004,,2.60410164462397,4,2003
4,2004,,2.6797835739787,4,2003
2,1991,1.22462516939418,1.22462516828305,1,2004
3,1991,-0.174501747286094,-0.174501747286093,1,2004
4,1991,3.9371339834976,3.9371339834976,1,2004
1,1992,6.03125118469714,6.03125118469714,1,2004
2,1992,-2.94837097121151,-2.94837097121151,1,2004
3,1992,-0.95198977520884,-0.951989775208839,1,2004
4,1992,-0.924639791189197,-0.924639791189197,1,2004
1,1993,-2.49333156229895,-2.49333156229895,1,2004
2,1993,0.0685509282315029,0.0685509282315029,1,2004
3,1993,1.52290768458867,1.52290768458867,1,2004
4,1993,1.16732067252214,1.16732067252214,1,2004
1,1994,3.91610658125969,3.91610658125969,1,2004
2,1994,2.40386039320955,2.40386039320955,1,2004
3,1994,2.64283742536864,2.64283742536864,1,2004
4,1994,3.2543906145061,3.2543906145061,1,2004
1,1995,2.20246423446824,2.20246423446824,1,2004
2,1995,2.30757917068762,2.30757917068762,1,2004
3,1995,0.808025537727831,0.80802553772783,1,2004
4,1995,0.937154627471237,0.937154627471237,1,2004
1,1996,0.624755352555218,0.624755352555217,1,2004
2,1996,2.87364262634646,2.87364262634646,1,2004
3,1996,2.15489038003454,2.15489038003454,1,2004
4,1996,0.639712559832129,0.639712559832129,1,2004
1,1997,0.987385063001446,0.987385063001445,1,2004
2,1997,4.97753896610953,4.97753896610953,1,2004
3,1997,2.76334643120155,2.76334643120155,1,2004
4,1997,4.08611400680923,4.08611400680923,1,2004
1,1998,3.28069062729561,3.28069062729561,1,2004
2,1998,1.60423574392428,1.60423574392428,1,2004
3,1998,2.18041285671575,2.18041285671575,1,2004
4,1998,1.08979743280149,1.08979743280149,1,2004
1,1999,3.69311646855288,3.69311646855288,1,2004
2,1999,2.24416343074623,2.24416343074623,1,2004
3,1999,5.06079316073709,5.06079316073709,1,2004
4,1999,4.2853662387603,4.2853662387603,1,2004
1,2000,3.91382373155496,3.91382373155496,1,2004
2,2000,3.48627013361058,3.48627013361058,1,2004
3,2000,1.29223237528315,1.29223237528315,1,2004
4,2000,2.48146560297824,2.48146560297824,1,2004
1,2001,2.72978752152275,2.72978752152275,1,2004
2,2001,0.126259099937088,0.126259099937088,1,2004
3,2001,0.726808480988872,0.726808480988872,1,2004
4,2001,-0.484601300956721,-0.484601300956722,1,2004
1,2002,1.52959987370918,1.52959987370918,1,2004
2,2002,1.92616009065669,1.92616009065669,1,2004
3,2002,0.943580847423742,0.943580847423742,1,2004
4,2002,0.0711949777058243,0.0711949777058242,1,2004
1,2003,-0.0711620818534043,-0.0711620818534042,1,2004
2,2003,-0.417243324275761,-0.417243324275762,1,2004
3,2003,1.54216770682993,1.54216770682993,1,2004
4,2003,1.78832633467628,1.77564581398127,1,2004
1,2004,1.97767912532732,1.96369191599576,1,2004
2,2004,2.09129079971795,2.09116201116113,1,2004
3,2004,2.14809663691326,2.17091222088391,1,2004
4,2004,2.16703191597836,2.21579866657068,1,2004
1,2005,,2.23867746962798,1,2004
2,2005,,2.25240475146236,1,2004
3,2005,,2.25926839237954,1,2004
4,2005,,2.26155627268527,1,2004
2,1991,1.22298441220732,1.22298441220732,2,2004
3,1991,-0.176185150616116,-0.176185150616115,2,2004
4,1991,3.91398123811415,3.91398123811415,2,2004
1,1992,6.05705341424436,6.05705341424436,2,2004
2,1992,-2.93855106466615,-2.93855106466615,2,2004
3,1992,-0.959471272404688,-0.959471272404688,2,2004
4,1992,-0.965368413904588,-0.965368413904588,2,2004
1,1993,-2.46837005939173,-2.46837005939173,2,2004
2,1993,0.0771523143741737,0.0771523143741737,2,2004
3,1993,1.53479347912469,1.53479347912469,2,2004
4,1993,1.14399862276771,1.14399862276771,2,2004
1,1994,3.93807772545574,3.93807772545574,2,2004
2,1994,2.38117399207389,2.38117399207389,2,2004
3,1994,2.66669036966347,2.66669036966347,2,2004
4,1994,3.22628492863208,3.22628492863208,2,2004
1,1995,2.20233030656991,2.20233030656991,2,2004
2,1995,2.30945216709078,2.30945216709078,2,2004
3,1995,0.827532975043654,0.827532975043654,2,2004
4,1995,0.950313658013169,0.950313658013169,2,2004
1,1996,0.57147206418906,0.57147206418906,2,2004
2,1996,2.90008733123313,2.90008733123313,2,2004
3,1996,2.17165994499655,2.17165994499655,2,2004
4,1996,0.662638380728131,0.662638380728131,2,2004
1,1997,0.940950289247898,0.940950289247899,2,2004
2,1997,4.98073174206768,4.98073174206768,2,2004
3,1997,2.77960187305868,2.77960187305868,2,2004
4,1997,4.10249885314156,4.10249885314156,2,2004
1,1998,3.26214681515864,3.26214681515864,2,2004
2,1998,1.5982399697569,1.5982399697569,2,2004
3,1998,2.18139631548289,2.18139631548289,2,2004
4,1998,1.09613941279445,1.09613941279445,2,2004
1,1999,3.63914588722736,3.63914588722736,2,2004
2,1999,2.29415075655977,2.29415075655977,2,2004
3,1999,5.07242433811022,5.07242433811022,2,2004
4,1999,4.30930369156488,4.30930369156488,2,2004
1,2000,3.76740369160826,3.76740369160826,2,2004
2,2000,3.56389811138931,3.56389811138931,2,2004
3,2000,1.22555043764698,1.22555043764698,2,2004
4,2000,2.47154440175974,2.47154440175974,2,2004
1,2001,2.72705464165655,2.72705464165655,2,2004
2,2001,0.140826700524621,0.140826700524621,2,2004
3,2001,0.712008090876215,0.712008090876215,2,2004
4,2001,-0.528307517940174,-0.528307517940174,2,2004
1,2002,1.52101284942108,1.52101284942108,2,2004
2,2002,2.01956722313039,2.01956722313039,2,2004
3,2002,0.923696449975009,0.923696449975009,2,2004
4,2002,0.00456240145008102,0.00456240145008113,2,2004
1,2003,-0.0570022396637503,-0.0570022396637504,2,2004
2,2003,-0.350421416123714,-0.350421416123714,2,2004
3,2003,1.55394005415075,1.55394005415075,2,2004
4,2003,1.24123691900133,1.24123691900133,2,2004
1,2004,1.72758858668605,1.74201034197423,2,2004
2,2004,2.01939958729689,2.02571031596735,2,2004
3,2004,2.16530508760231,2.14922459069292,2,2004
4,2004,2.21394025437078,2.16944091586316,2,2004
1,2005,,2.14324704119031,2,2004
2,2005,,2.12753071638659,2,2004
3,2005,,2.11967255398474,2,2004
4,2005,,2.11705316651745,2,2004
2,1991,1.19345738833483,1.19345738763876,3,2004
3,1991,-0.110461623318069,-0.11046162331807,3,2004
4,1991,3.85861376388277,3.85861376388277,3,2004
1,1992,6.17632015723351,6.17632015723351,3,2004
2,1992,-3.01851872238129,-3.01851872238129,3,2004
3,1992,-1.11541873342903,-1.11541873342903,3,2004
4,1992,-0.797438459107813,-0.797438459107813,3,2004
1,1993,-2.69768655969261,-2.69768655969261,3,2004
2,1993,0.297037800842825,0.297037800842825,3,2004
3,1993,1.66878901236494,1.66878901236494,3,2004
4,1993,1.0515539788533,1.0515539788533,3,2004
1,1994,3.75829992148429,3.75829992148429,3,2004
2,1994,2.51468094643317,2.51468094643317,3,2004
3,1994,2.72104894865002,2.72104894865002,3,2004
4,1994,3.21168444187441,3.21168444187441,3,2004
1,1995,2.19052812109859,2.19052812109859,3,2004
2,1995,2.26254420786167,2.26254420786167,3,2004
3,1995,0.781056351684306,0.781056351684306,3,2004
4,1995,1.03526317471869,1.03526317471869,3,2004
1,1996,0.670223881824383,0.670223881824383,3,2004
2,1996,2.83564488865313,2.83564488865313,3,2004
3,1996,1.98627484219218,1.98627484219218,3,2004
4,1996,0.708926347909289,0.708926347909289,3,2004
1,1997,0.887826265078417,0.887826265078417,3,2004
2,1997,5.0780136856438,5.0780136856438,3,2004
3,1997,2.87208348124859,2.87208348124859,3,2004
4,1997,4.13907364673085,4.13907364673085,3,2004
1,1998,3.06114331645786,3.06114331645786,3,2004
2,1998,1.71941677224947,1.71941677224947,3,2004
3,1998,2.20920382638696,2.20920382638696,3,2004
4,1998,1.08772019941763,1.08772019941763,3,2004
1,1999,3.46813323065152,3.46813323065152,3,2004
2,1999,2.47574860914424,2.47574860914424,3,2004
3,1999,5.02728741405072,5.02728741405072,3,2004
4,1999,4.37736364134076,4.37736364134076,3,2004
1,2000,3.66968532826999,3.66968532826999,3,2004
2,2000,3.48331352690401,3.48331352690401,3,2004
3,2000,1.40739909299132,1.40739909299132,3,2004
4,2000,2.43143508532899,2.43143508532899,3,2004
1,2001,2.65146004735855,2.65146004735855,3,2004
2,2001,0.142783216409015,0.142783216409015,3,2004
3,2001,0.91315875139848,0.91315875139848,3,2004
4,2001,-0.795270050918429,-0.795270050918429,3,2004
1,2002,1.68396955202887,1.68396955202887,3,2004
2,2002,1.97477059905009,1.97477059905009,3,2004
3,2002,0.792483792295839,0.792483792295839,3,2004
4,2002,0.13261700179914,0.13261700179914,3,2004
1,2003,-0.0360122930470941,-0.0360122930470941,3,2004
2,2003,-0.320051242018582,-0.320051242018582,3,2004
3,2003,1.65244117537877,1.65244117537877,3,2004
4,2003,1.49186166378825,1.49186166378825,3,2004
1,2004,2.31179840937314,2.31179840937314,3,2004
2,2004,2.02769726521884,1.95999728433755,3,2004
3,2004,1.88564669314169,1.9001299034946,3,2004
4,2004,1.83829650244931,2.0127834603658,3,2004
1,2005,,2.17854514847271,3,2004
2,2005,,2.27800216133685,3,2004
3,2005,,2.32773066776893,3,2004
4,2005,,2.34430683657962,3,2004
2,1991,1.20481980085028,1.20481980049285,4,2004
3,1991,-0.0720633628526146,-0.0720633628526146,4,2004
4,1991,3.89990879039976,3.89990879039976,4,2004
1,1992,6.06458349695251,6.06458349695251,4,2004
2,1992,-2.9444686551965,-2.9444686551965,4,2004
3,1992,-1.1254704306828,-1.1254704306828,4,2004
4,1992,-0.791187312154518,-0.791187312154518,4,2004
1,1993,-2.70751732880534,-2.70751732880534,4,2004
2,1993,0.286551075644015,0.286551075644014,4,2004
3,1993,1.65841135486269,1.65841135486269,4,2004
4,1993,1.06853233634536,1.06853233634536,4,2004
1,1994,3.76675260977311,3.76675260977311,4,2004
2,1994,2.47230940771093,2.47230940771093,4,2004
3,1994,2.73556453115444,2.73556453115444,4,2004
4,1994,3.25645358643454,3.25645358643454,4,2004
1,1995,2.1327853565889,2.1327853565889,4,2004
2,1995,2.28963247908589,2.28963247908589,4,2004
3,1995,0.792983897373967,0.792983897373967,4,2004
4,1995,1.04128338093847,1.04128338093847,4,2004
1,1996,0.633086665157623,0.633086665157623,4,2004
2,1996,2.88566209997347,2.88566209997347,4,2004
3,1996,1.96390262546313,1.96390262546313,4,2004
4,1996,0.686483661395476,0.686483661395476,4,2004
1,1997,0.96249301597362,0.96249301597362,4,2004
2,1997,5.00646957821864,5.00646957821864,4,2004
3,1997,2.86657265195309,2.86657265195309,4,2004
4,1997,4.12105558533187,4.12105558533187,4,2004
1,1998,3.11489910127047,3.11489910127047,4,2004
2,1998,1.71161840023251,1.71161840023251,4,2004
3,1998,2.21116077438785,2.21116077438785,4,2004
4,1998,1.02739473604325,1.02739473604325,4,2004
1,1999,3.45473143712363,3.45473143712363,4,2004
2,1999,2.46005296519909,2.46005296519909,4,2004
3,1999,5.14085854187154,5.14085854187154,4,2004
4,1999,4.44119484155119,4.44119484155119,4,2004
1,2000,3.5251130280664,3.5251130280664,4,2004
2,2000,3.55178096788709,3.55178096788709,4,2004
3,2000,1.4352537272408,1.4352537272408,4,2004
4,2000,2.35294860824353,2.35294860824353,4,2004
1,2001,2.65251321679645,2.65251321679645,4,2004
2,2001,0.188711192602464,0.188711192602464,4,2004
3,2001,0.901674260143004,0.901674260143004,4,2004
4,2001,-0.789993522596955,-0.789993522596955,4,2004
1,2002,1.73859702068373,1.73859702068373,4,2004
2,2002,1.84326142852482,1.84326142852482,4,2004
3,2002,0.862579821135734,0.862579821135734,4,2004
4,2002,0.155296646434477,0.155296646434477,4,2004
1,2003,0.0370349875334908,0.0370349875334908,4,2004
2,2003,-0.502886836210292,-0.502886836210292,4,2004
3,2003,1.73993831357775,1.73993831357775,4,2004
4,2003,1.51481498853732,1.51481498853732,4,2004
1,2004,2.5409912595127,2.5409912595127,4,2004
2,2004,2.05686311441093,2.05686311441093,4,2004
3,2004,2.10739762666478,2.12398410916872,4,2004
4,2004,2.12424246408274,2.09080771372596,4,2004
1,2005,,2.02137013827343,4,2004
2,2005,,1.97970759300192,4,2004
3,2005,,1.95887632036616,4,2004
4,2005,,1.95193256282091,4,2004
2,1991,1.2833232757958,1.28332327578963,1,2005
3,1991,0.0292363517543126,0.0292363517543144,1,2005
4,1991,3.90981974285434,3.90981974285434,1,2005
1,1992,6.05871799987516,6.05871799987516,1,2005
2,1992,-3.02684794658533,-3.02684794658533,1,2005
3,1992,-1.05951084257945,-1.05951084257945,1,2005
4,1992,-0.918840844548408,-0.918840844548408,1,2005
1,1993,-2.68760211935175,-2.68760211935175,1,2005
2,1993,0.326989376122588,0.326989376122588,1,2005
3,1993,1.73950320026239,1.73950320026239,1,2005
4,1993,1.00954923137315,1.00954923137315,1,2005
1,1994,3.73093606863679,3.73093606863679,1,2005
2,1994,2.48617944480767,2.48617944480767,1,2005
3,1994,2.88700394032764,2.88700394032764,1,2005
4,1994,3.06004066161825,3.06004066161825,1,2005
1,1995,2.44371019239751,2.44371019239751,1,2005
2,1995,2.14941121440939,2.14941121440939,1,2005
3,1995,0.623041633615773,0.623041633615773,1,2005
4,1995,0.987445890786409,0.987445890786409,1,2005
1,1996,0.832148776251995,0.832148776251995,1,2005
2,1996,2.9202727964508,2.9202727964508,1,2005
3,1996,2.04599657743592,2.04599657743592,1,2005
4,1996,0.604506976203112,0.604506976203112,1,2005
1,1997,0.985423407290441,0.985423407290441,1,2005
2,1997,5.07660621571597,5.07660621571597,1,2005
3,1997,2.79052662032588,2.79052662032588,1,2005
4,1997,4.11552857446031,4.11552857446031,1,2005
1,1998,3.11071623704349,3.11071623704349,1,2005
2,1998,1.73016388805736,1.73016388805736,1,2005
3,1998,2.19152898812269,2.19152898812269,1,2005
4,1998,0.992064988927143,0.992064988927143,1,2005
1,1999,3.53537970065183,3.53537970065183,1,2005
2,1999,2.49583611392219,2.49583611392219,1,2005
3,1999,5.1635867230158,5.1635867230158,1,2005
4,1999,4.41667583241758,4.41667583241758,1,2005
1,2000,3.60447594898305,3.60447594898305,1,2005
2,2000,3.66119805546401,3.66119805546401,1,2005
3,2000,1.30177862539724,1.30177862539724,1,2005
4,2000,2.20148491494589,2.20148491494589,1,2005
1,2001,3.03428659405824,3.03428659405824,1,2005
2,2001,-0.0770379037637219,-0.0770379037637219,1,2005
3,2001,0.858322691728031,0.858322691728032,1,2005
4,2001,-0.684862627554584,-0.684862627554584,1,2005
1,2002,1.79276215971795,1.79276215971795,1,2005
2,2002,1.57155778203508,1.57155778203508,1,2005
3,2002,1.15860693520233,1.15860693520233,1,2005
4,2002,0.0658142260164139,0.0658142260164139,1,2005
1,2003,0.140985036248065,0.140985036248065,1,2005
2,2003,-0.764662279887686,-0.764662279887686,1,2005
3,2003,2.16884475009511,2.16884475009511,1,2005
4,2003,1.57924233343831,1.57924233343831,1,2005
1,2004,2.63475177555186,2.63475177555186,1,2005
2,2004,1.88853716966877,1.88853716966877,1,2005
3,2004,1.21526338263944,1.21526338263944,1,2005
4,2004,1.56250105284238,1.55350723307815,1,2005
1,2005,1.82960695299849,1.81968631316014,1,2005
2,2005,1.98987049309216,1.9897790327665,1,2005
3,2005,2.07000226313899,2.08618428333534,1,2005
4,2005,2.0967128531546,2.13130095630475,1,2005
1,2006,,2.14752794311283,1,2005
2,2006,,2.15726413519767,1,2005
3,2006,,2.1621322312401,1,2005
4,2006,,2.1637549299209,1,2005
2,1991,1.33285741491959,1.33285741493301,2,2005
3,1991,-0.0105062022201723,-0.0105062022201718,2,2005
4,1991,3.68862953925557,3.68862953925557,2,2005
1,1992,5.5721037899473,5.5721037899473,2,2005
2,1992,-3.25496649873057,-3.25496649873057,2,2005
3,1992,-1.09844742353213,-1.09844742353213,2,2005
4,1992,-0.974551812593016,-0.974551812593016,2,2005
1,1993,-2.5199208463267,-2.5199208463267,2,2005
2,1993,0.405561262522958,0.405561262522958,2,2005
3,1993,1.76277759548074,1.76277759548074,2,2005
4,1993,1.11653860998289,1.11653860998289,2,2005
1,1994,3.63460260103852,3.63460260103852,2,2005
2,1994,2.51689304194351,2.51689304194351,2,2005
3,1994,2.96323628527713,2.96323628527713,2,2005
4,1994,3.00108688040714,3.00108688040714,2,2005
1,1995,2.68666003513722,2.68666003513722,2,2005
2,1995,2.18899153851,2.18899153851,2,2005
3,1995,0.65132927816578,0.651329278165781,2,2005
4,1995,0.954686264444926,0.954686264444926,2,2005
1,1996,0.779656888334857,0.779656888334858,2,2005
2,1996,2.81703212117148,2.81703212117148,2,2005
3,1996,2.00079742211805,2.00079742211805,2,2005
4,1996,0.671944699333626,0.671944699333627,2,2005
1,1997,1.23219791655247,1.23219791655247,2,2005
2,1997,5.05928030093163,5.05928030093163,2,2005
3,1997,2.75099158953993,2.75099158953993,2,2005
4,1997,4.0788653058075,4.0788653058075,2,2005
1,1998,2.98587554365204,2.98587554365204,2,2005
2,1998,1.59979819163958,1.59979819163958,2,2005
3,1998,2.1604451331398,2.1604451331398,2,2005
4,1998,0.832171574980191,0.832171574980191,2,2005
1,1999,3.46666348822131,3.46666348822131,2,2005
2,1999,2.37565829950501,2.37565829950501,2,2005
3,1999,5.14540581226022,5.14540581226022,2,2005
4,1999,4.6106417679143,4.6106417679143,2,2005
1,2000,3.86674277091756,3.86674277091756,2,2005
2,2000,3.78627388855615,3.78627388855615,2,2005
3,2000,1.44753557012531,1.44753557012531,2,2005
4,2000,2.21212186015762,2.21212186015762,2,2005
1,2001,3.03758424935339,3.03758424935339,2,2005
2,2001,-0.0322130119159265,-0.0322130119159261,2,2005
3,2001,0.783854306386256,0.783854306386255,2,2005
4,2001,-0.613511576617764,-0.613511576617764,2,2005
1,2002,1.88459815755868,1.88459815755868,2,2005
2,2002,1.51818637730896,1.51818637730896,2,2005
3,2002,1.22145178178157,1.22145178178157,2,2005
4,2002,0.0385163064533514,0.0385163064533516,2,2005
1,2003,0.0497633757587267,0.0497633757587267,2,2005
2,2003,-0.640239752528581,-0.640239752528581,2,2005
3,2003,2.26144607063163,2.26144607063163,2,2005
4,2003,1.71356265213307,1.71356265213307,2,2005
1,2004,2.95925320794399,2.95925320794399,2,2005
2,2004,1.89901692412835,1.89901692412835,2,2005
3,2004,0.983808670774189,0.983808670774189,2,2005
4,2004,0.619556677607136,0.619556677607136,2,2005
1,2005,1.51601043317397,1.60509334026434,2,2005
2,2005,2.05388268651407,2.09286501081565,2,2005
3,2005,2.32281881318412,2.22349267588801,2,2005
4,2005,2.4124641887408,2.13759732210838,2,2005
1,2006,,1.97579993610368,2,2005
2,2006,,1.87872150450086,2,2005
3,2006,,1.83018228869945,2,2005
4,2006,,1.81400255009898,2,2005
2,1991,0.541124603453502,0.541124603269533,3,2005
3,1991,0.27912463626989,0.27912463626989,3,2005
4,1991,3.85583135018199,3.85583135018199,3,2005
1,1992,4.8664327605936,4.8664327605936,3,2005
2,1992,-2.40252242113969,-2.40252242113969,3,2005
3,1992,-0.606628903219808,-0.606628903219808,3,2005
4,1992,-1.11833291344036,-1.11833291344036,3,2005
1,1993,-3.0108678211238,-3.0108678211238,3,2005
2,1993,0.697203086368048,0.697203086368048,3,2005
3,1993,1.84815559577822,1.84815559577822,3,2005
4,1993,1.18887553142994,1.18887553142994,3,2005
1,1994,3.44656698253387,3.44656698253387,3,2005
2,1994,2.94272226448968,2.94272226448968,3,2005
3,1994,3.21704230292432,3.21704230292432,3,2005
4,1994,3.14708100547239,3.14708100547239,3,2005
1,1995,2.65837908815787,2.65837908815787,3,2005
2,1995,2.71104510309643,2.71104510309643,3,2005
3,1995,1.06438818806187,1.06438818806187,3,2005
4,1995,0.607625003606338,0.607625003606338,3,2005
1,1996,0.624449994319321,0.624449994319321,3,2005
2,1996,3.15347690048162,3.15347690048162,3,2005
3,1996,1.98783463004952,1.98783463004952,3,2005
4,1996,0.829850455559078,0.829850455559078,3,2005
1,1997,1.69100020617468,1.69100020617468,3,2005
2,1997,5.22819830623735,5.22819830623735,3,2005
3,1997,2.83472551689219,2.83472551689219,3,2005
4,1997,4.15151990780855,4.15151990780855,3,2005
1,1998,3.18910686336713,3.18910686336713,3,2005
2,1998,1.46432207368554,1.46432207368554,3,2005
3,1998,2.1134815306413,2.1134815306413,3,2005
4,1998,0.526664321114834,0.526664321114834,3,2005
1,1999,3.59301614324132,3.59301614324132,3,2005
2,1999,2.41154618911648,2.41154618911648,3,2005
3,1999,5.02083712679906,5.02083712679906,3,2005
4,1999,4.86035527581958,4.86035527581958,3,2005
1,2000,4.13019295358603,4.13019295358603,3,2005
2,2000,3.58892495786929,3.58892495786929,3,2005
3,2000,1.77552623809774,1.77552623809774,3,2005
4,2000,2.69507493921932,2.69507493921932,3,2005
1,2001,2.77733462411243,2.77733462411243,3,2005
2,2001,0.358468558504921,0.358468558504921,3,2005
3,2001,0.74316268893555,0.74316268893555,3,2005
4,2001,-0.158317749618542,-0.158317749618542,3,2005
1,2002,1.42566686680083,1.42566686680083,3,2005
2,2002,1.56137800466665,1.56137800466665,3,2005
3,2002,1.64646368462364,1.64646368462364,3,2005
4,2002,0.209191517873775,0.209191517873775,3,2005
1,2003,0.178296437548298,0.178296437548298,3,2005
2,2003,-0.452055062732815,-0.452055062732815,3,2005
3,2003,2.08651895826584,2.08651895826584,3,2005
4,2003,1.89307016591618,1.89307016591618,3,2005
1,2004,2.64074004221071,2.64074004221071,3,2005
2,2004,1.65907440163384,1.65907440163384,3,2005
3,2004,1.12874963733787,1.12874963733787,3,2005
4,2004,0.602261658850067,0.602261658850067,3,2005
1,2005,2.00869283449305,2.00869283449305,3,2005
2,2005,1.47366449455444,1.32193453767999,3,2005
3,2005,1.20615032458513,1.23866072353894,3,2005
4,2005,1.11697893459536,1.50816602465247,3,2005
1,2006,,1.87974507360315,3,2005
2,2006,,2.10269250297356,3,2005
3,2006,,2.21416621765876,3,2005
4,2006,,2.25132412255383,3,2005
2,1991,0.509716751635789,0.50971675163705,4,2005
3,1991,0.398855550964082,0.398855550964083,4,2005
4,1991,4.25431127440576,4.25431127440576,4,2005
1,1992,5.46195820346251,5.46195820346251,4,2005
2,1992,-2.20728313459675,-2.20728313459675,4,2005
3,1992,-0.80269483519837,-0.80269483519837,4,2005
4,1992,-1.60708295050731,-1.60708295050731,4,2005
1,1993,-3.94847254439386,-3.94847254439386,4,2005
2,1993,0.231727142165461,0.231727142165462,4,2005
3,1993,1.7266100342876,1.7266100342876,4,2005
4,1993,1.54519049994866,1.54519049994866,4,2005
1,1994,4.23566811832123,4.23566811832123,4,2005
2,1994,3.34447873720758,3.34447873720758,4,2005
3,1994,3.48063540711912,3.48063540711912,4,2005
4,1994,3.25408150521374,3.25408150521374,4,2005
1,1995,2.61681509685756,2.61681509685756,4,2005
2,1995,2.69969406450097,2.69969406450097,4,2005
3,1995,1.06087956241394,1.06087956241394,4,2005
4,1995,0.602088097358533,0.602088097358533,4,2005
1,1996,0.541244235806726,0.541244235806726,4,2005
2,1996,3.2432653935083,3.2432653935083,4,2005
3,1996,1.95818060721968,1.95818060721968,4,2005
4,1996,0.841532904653697,0.841532904653696,4,2005
1,1997,1.67277807728781,1.67277807728781,4,2005
2,1997,5.23829869186094,5.23829869186094,4,2005
3,1997,2.80139060850269,2.80139060850269,4,2005
4,1997,4.18000970635974,4.18000970635974,4,2005
1,1998,3.11813705480351,3.11813705480351,4,2005
2,1998,1.50320573232057,1.50320573232057,4,2005
3,1998,2.13066321054067,2.13066321054067,4,2005
4,1998,0.547549995024022,0.547549995024021,4,2005
1,1999,3.36226417307473,3.36226417307473,4,2005
2,1999,2.56210725093757,2.56210725093757,4,2005
3,1999,5.19272186096027,5.19272186096027,4,2005
4,1999,4.89657043362257,4.89657043362257,4,2005
1,2000,4.01519178177199,4.01519178177199,4,2005
2,2000,3.67388521278502,3.67388521278502,4,2005
3,2000,1.6860133267288,1.6860133267288,4,2005
4,2000,2.48143661005358,2.48143661005358,4,2005
1,2001,2.73624248917166,2.73624248917166,4,2005
2,2001,0.349956294125686,0.349956294125685,4,2005
3,2001,0.700334656509338,0.700334656509338,4,2005
4,2001,-0.0216357115121801,-0.0216357115121806,4,2005
1,2002,1.02606609003115,1.02606609003115,4,2005
2,2002,1.61253385593603,1.61253385593603,4,2005
3,2002,1.57360220021714,1.57360220021714,4,2005
4,2002,0.352855517100226,0.352855517100226,4,2005
1,2003,0.0624920165577914,0.0624920165577914,4,2005
2,2003,-0.46163351353411,-0.461633513534111,4,2005
3,2003,2.32515305484051,2.32515305484051,4,2005
4,2003,1.86622075910565,1.86622075910565,4,2005
1,2004,2.57203281309089,2.57203281309089,4,2005
2,2004,1.83000898050296,1.83000898050296,4,2005
3,2004,1.04510855922899,1.04510855922899,4,2005
4,2004,0.720573288795445,0.720573288795445,4,2005
1,2005,1.50460027059351,1.50460027059351,4,2005
2,2005,1.17100512102082,1.17100512102082,4,2005
3,2005,1.72646720511019,1.74727921045947,4,2005
4,2005,1.91162123313998,1.86958617243794,4,2005
1,2006,,1.78235567097824,4,2005
2,2006,,1.73001737010242,4,2005
3,2006,,1.70384821966452,4,2005
4,2006,,1.69512516951855,4,2005
2,1991,0.472542366568138,0.472542366566725,1,2006
3,1991,0.248231853097014,0.248231853097014,1,2006
4,1991,3.8897978104617,3.8897978104617,1,2006
1,1992,4.90857609945596,4.90857609945596,1,2006
2,1992,-2.32958000905685,-2.32958000905685,1,2006
3,1992,-0.669839967683961,-0.669839967683961,1,2006
4,1992,-1.12894134611107,-1.12894134611107,1,2006
1,1993,-3.0057641213536,-3.0057641213536,1,2006
2,1993,0.674577159691947,0.674577159691948,1,2006
3,1993,1.74997477897223,1.74997477897223,1,2006
4,1993,1.22017253227869,1.22017253227869,1,2006
1,1994,3.43288683394709,3.43288683394709,1,2006
2,1994,2.88271984399262,2.88271984399262,1,2006
3,1994,3.25830290892175,3.25830290892175,1,2006
4,1994,3.23611547498819,3.23611547498819,1,2006
1,1995,2.74021940548166,2.74021940548166,1,2006
2,1995,2.72827593688654,2.72827593688654,1,2006
3,1995,1.29134419922841,1.29134419922841,1,2006
4,1995,0.474010013035198,0.474010013035198,1,2006
1,1996,0.720684842838004,0.720684842838004,1,2006
2,1996,3.21056328382627,3.21056328382627,1,2006
3,1996,2.04403616442896,2.04403616442896,1,2006
4,1996,0.762270403319021,0.76227040331902,1,2006
1,1997,1.77479488257273,1.77479488257273,1,2006
2,1997,5.19836558931284,5.19836558931284,1,2006
3,1997,2.905328664044,2.905328664044,1,2006
4,1997,4.31941408543739,4.31941408543739,1,2006
1,1998,2.77787952869073,2.77787952869073,1,2006
2,1998,1.73970427486156,1.73970427486156,1,2006
3,1998,2.32094803586962,2.32094803586962,1,2006
4,1998,0.599562461620319,0.599562461620317,1,2006
1,1999,3.47419845702752,3.47419845702752,1,2006
2,1999,2.62034180607147,2.62034180607147,1,2006
3,1999,5.2100938999716,5.2100938999716,1,2006
4,1999,4.92075993953272,4.92075993953272,1,2006
1,2000,4.41172684270519,4.41172684270519,1,2006
2,2000,3.41967799247924,3.41967799247924,1,2006
3,2000,1.85277834364226,1.85277834364226,1,2006
4,2000,2.67526577389057,2.67526577389057,1,2006
1,2001,2.97132269988358,2.97132269988358,1,2006
2,2001,0.589131742452564,0.589131742452563,1,2006
3,2001,0.833290284978827,0.833290284978827,1,2006
4,2001,0.0685328060066495,0.0685328060066488,1,2006
1,2002,1.19660929811711,1.19660929811711,1,2006
2,2002,1.57878843060455,1.57878843060455,1,2006
3,2002,1.5288107620854,1.5288107620854,1,2006
4,2002,0.377841453040961,0.377841453040961,1,2006
1,2003,0.272160153823786,0.272160153823786,1,2006
2,2003,-0.44425169767619,-0.444251697676191,1,2006
3,2003,2.26445364766514,2.26445364766514,1,2006
4,2003,1.78317000912611,1.78317000912611,1,2006
1,2004,2.83690645871355,2.83690645871355,1,2006
2,2004,1.75684111186687,1.75684111186687,1,2006
3,2004,1.14550270644633,1.14550270644633,1,2006
4,2004,0.764393995438017,0.764393995438017,1,2006
1,2005,1.30163345547498,1.30163345547498,1,2006
2,2005,1.60047991701739,1.60047991701739,1,2006
3,2005,2.55445183200291,2.55445183200291,1,2006
4,2005,2.20115354330148,2.15325191808662,1,2006
1,2006,1.92938562891576,1.87654921217071,1,2006
2,2006,1.76632488028433,1.76584278358865,1,2006
3,2006,1.68479450596861,1.7709905637933,1,2006
4,2006,1.65761771453004,1.84185048423754,1,2006
1,2007,,1.92828047637422,1,2006
2,2007,,1.98013847165624,1,2006
3,2007,,2.00606746929724,1,2006
4,2007,,2.01471046851091,1,2006
2,1991,0.472542148356703,0.472542148522605,2,2006
3,1991,0.248231839187984,0.248231839187985,2,2006
4,1991,3.88979776137965,3.88979776137965,2,2006
1,1992,4.90857613207749,4.90857613207749,2,2006
2,1992,-2.32957985206096,-2.32957985206096,2,2006
3,1992,-0.669840070936989,-0.669840070936989,2,2006
4,1992,-1.12894120603166,-1.12894120603166,2,2006
1,1993,-3.00576423971767,-3.00576423971767,2,2006
2,1993,0.674577310596901,0.674577310596902,2,2006
3,1993,1.74997454526191,1.74997454526191,2,2006
4,1993,1.22017254096978,1.22017254096978,2,2006
1,1994,3.43288694156636,3.43288694156636,2,2006
2,1994,2.88271991629148,2.88271991629148,2,2006
3,1994,3.25830273947281,3.25830273947281,2,2006
4,1994,3.23611567773709,3.23611567773709,2,2006
1,1995,2.74021929361845,2.74021929361845,2,2006
2,1995,2.78992571342016,2.78992571342016,2,2006
3,1995,1.26357514311268,1.26357514311268,2,2006
4,1995,0.47044148160289,0.47044148160289,2,2006
1,1996,0.4626802354172,0.462680235417201,2,2006
2,1996,3.25645880088747,3.25645880088747,2,2006
3,1996,2.01486376058964,2.01486376058964,2,2006
4,1996,0.776132910938677,0.776132910938676,2,2006
1,1997,1.68599219094026,1.68599219094026,2,2006
2,1997,5.19168190965609,5.19168190965609,2,2006
3,1997,2.86990585730837,2.86990585730837,2,2006
4,1997,4.31270278816551,4.31270278816551,2,2006
1,1998,2.55661147471518,2.55661147471518,2,2006
2,1998,1.73614391897308,1.73614391897308,2,2006
3,1998,2.27942061051223,2.27942061051223,2,2006
4,1998,0.609107989994985,0.609107989994984,2,2006
1,1999,3.59402348719797,3.59402348719797,2,2006
2,1999,2.66457816103955,2.66457816103955,2,2006
3,1999,5.22007789198553,5.22007789198553,2,2006
4,1999,5.00224732329964,5.00224732329964,2,2006
1,2000,4.67379057444781,4.67379057444781,2,2006
2,2000,3.50304194831674,3.50304194831674,2,2006
3,2000,1.82590828957776,1.82590828957776,2,2006
4,2000,2.67287957599611,2.67287957599611,2,2006
1,2001,2.99460386435011,2.99460386435011,2,2006
2,2001,0.585958420375343,0.585958420375343,2,2006
3,2001,0.773366063018055,0.773366063018055,2,2006
4,2001,0.0768756201272371,0.0768756201272369,2,2006
1,2002,1.20962650310661,1.20962650310661,2,2006
2,2002,1.61152665533955,1.61152665533955,2,2006
3,2002,1.49071106038685,1.49071106038685,2,2006
4,2002,0.404282385513,0.404282385513,2,2006
1,2003,0.297729439107464,0.297729439107464,2,2006
2,2003,-0.42803304215735,-0.42803304215735,2,2006
3,2003,2.218303298405,2.218303298405,2,2006
4,2003,1.79555585707345,1.79555585707345,2,2006
1,2004,2.82319770299755,2.82319770299755,2,2006
2,2004,1.80773830654322,1.80773830654322,2,2006
3,2004,1.0543108811129,1.0543108811129,2,2006
4,2004,0.821008500716114,0.821008500716114,2,2006
1,2005,1.3103293236534,1.3103293236534,2,2006
2,2005,1.66852741223982,1.66852741223982,2,2006
3,2005,2.61752747356161,2.61752747356161,2,2006
4,2005,1.24577709009654,1.24577709009654,2,2006
1,2006,1.94589438206411,2.11121059021462,2,2006
2,2006,2.36596475724466,2.4382974670768,2,2006
3,2006,2.57599994483493,2.39165144262341,2,2006
4,2006,2.64601167403169,2.13588623879478,2,2006
1,2007,,1.83561557753124,2,2006
2,2007,,1.65545318077311,2,2006
3,2007,,1.56537198239405,2,2006
4,2007,,1.5353449162677,2,2006
2,1991,0.472542366308094,0.472542366392892,3,2006
3,1991,0.248231965975522,0.248231965975521,3,2006
4,1991,3.88979773008391,3.88979773008391,3,2006
1,1992,4.90857610566926,4.90857610566926,3,2006
2,1992,-2.32958011265123,-2.32958011265123,3,2006
3,1992,-0.669839863343391,-0.669839863343391,3,2006
4,1992,-1.12894125987366,-1.12894125987366,3,2006
1,1993,-3.00576410121189,-3.00576410121189,3,2006
2,1993,0.674576941385308,0.674576941385308,3,2006
3,1993,1.74997499401071,1.74997499401071,3,2006
4,1993,1.2201724941117,1.2201724941117,3,2006
1,1994,3.43288680907552,3.43288680907552,3,2006
2,1994,2.88271970996792,2.88271970996792,3,2006
3,1994,3.25830301027974,3.25830301027974,3,2006
4,1994,3.23611551683578,3.23611551683578,3,2006
1,1995,2.74021932293944,2.74021932293944,3,2006
2,1995,2.70671436607426,2.70671436607426,3,2006
3,1995,1.4000773148058,1.4000773148058,3,2006
4,1995,0.750503955407633,0.750503955407633,3,2006
1,1996,0.220048187848664,0.220048187848665,3,2006
2,1996,3.28896403747385,3.28896403747385,3,2006
3,1996,1.94778192069567,1.94778192069567,3,2006
4,1996,0.723150453385801,0.723150453385801,3,2006
1,1997,2.36222628581906,2.36222628581906,3,2006
2,1997,4.33226284285322,4.33226284285322,3,2006
3,1997,2.88856092156318,2.88856092156318,3,2006
4,1997,4.02844257812505,4.02844257812505,3,2006
1,1998,2.81637694379893,2.81637694379893,3,2006
2,1998,1.566801846333,1.566801846333,3,2006
3,1998,2.3274624758262,2.3274624758262,3,2006
4,1998,0.691330275444079,0.69133027544408,3,2006
1,1999,3.65327859447917,3.65327859447917,3,2006
2,1999,2.66737521047629,2.66737521047629,3,2006
3,1999,5.23166824025361,5.23166824025361,3,2006
4,1999,4.88811111706007,4.88811111706007,3,2006
1,2000,4.79815883544805,4.79815883544805,3,2006
2,2000,3.74591456687419,3.74591456687419,3,2006
3,2000,1.81931027169466,1.81931027169466,3,2006
4,2000,2.87566939077837,2.87566939077837,3,2006
1,2001,3.3193900089572,3.3193900089572,3,2006
2,2001,0.39573000896036,0.39573000896036,3,2006
3,2001,0.389486214507162,0.389486214507162,3,2006
4,2001,0.163880620169321,0.163880620169321,3,2006
1,2002,1.35191483539951,1.35191483539951,3,2006
2,2002,1.63759106591503,1.63759106591503,3,2006
3,2002,1.57334101710527,1.57334101710527,3,2006
4,2002,0.173351640997854,0.173351640997854,3,2006
1,2003,0.577269440795059,0.577269440795059,3,2006
2,2003,-0.274326260847325,-0.274326260847324,3,2006
3,2003,2.04817005150921,2.04817005150921,3,2006
4,2003,1.7947534804732,1.7947534804732,3,2006
1,2004,3.12009718920208,3.12009718920208,3,2006
2,2004,1.66307163471104,1.66307163471104,3,2006
3,2004,1.00703682804604,1.00703682804604,3,2006
4,2004,0.541635302135957,0.541635302135957,3,2006
1,2005,1.42747897290487,1.42747897290487,3,2006
2,2005,1.62728145759283,1.62728145759283,3,2006
3,2005,2.64159974737459,2.64159974737459,3,2006
4,2005,1.15674651996744,1.15674651996744,3,2006
1,2006,2.37170284882551,2.37170284882551,3,2006
2,2006,2.41917705869034,2.5592816332756,3,2006
3,2006,2.44291416362275,2.41287748499614,3,2006
4,2006,2.45082653193356,2.08956919880259,3,2006
1,2007,,1.74643556951044,3,2006
2,2007,,1.54055539193514,3,2006
3,2007,,1.4376153031475,3,2006
4,2007,,1.40330194021828,3,2006
2,1991,0.472542423877154,0.472542424055016,4,2006
3,1991,0.248231736612836,0.248231736612836,4,2006
4,1991,3.88979786939752,3.88979786939752,4,2006
1,1992,4.90857610632414,4.90857610632414,4,2006
2,1992,-2.32957997679664,-2.32957997679664,4,2006
3,1992,-0.669840020873169,-0.669840020873169,4,2006
4,1992,-1.12894121997055,-1.12894121997055,4,2006
1,1993,-3.00576420123838,-3.00576420123838,4,2006
2,1993,0.674577165475188,0.674577165475188,4,2006
3,1993,1.7499747201825,1.7499747201825,4,2006
4,1993,1.22017262521048,1.22017262521048,4,2006
1,1994,3.43288683889891,3.43288683889891,4,2006
2,1994,2.88271983759207,2.88271983759207,4,2006
3,1994,3.2583029855827,3.2583029855827,4,2006
4,1994,3.23611545494098,3.23611545494098,4,2006
1,1995,2.74021929118449,2.74021929118449,4,2006
2,1995,2.58256403611274,2.58256403611274,4,2006
3,1995,1.47093449062998,1.47093449062998,4,2006
4,1995,0.906579985762557,0.906579985762557,4,2006
1,1996,0.031001555357757,0.0310015553577568,4,2006
2,1996,3.32188690482629,3.32188690482629,4,2006
3,1996,1.94842119185874,1.94842119185874,4,2006
4,1996,0.869746546089556,0.869746546089556,4,2006
1,1997,2.2648689651098,2.2648689651098,4,2006
2,1997,4.3489085735493,4.3489085735493,4,2006
3,1997,2.85571151985009,2.85571151985009,4,2006
4,1997,4.04044355034765,4.04044355034765,4,2006
1,1998,2.76251307662991,2.76251307662991,4,2006
2,1998,1.57594754667567,1.57594754667567,4,2006
3,1998,2.39427533742969,2.39427533742969,4,2006
4,1998,0.83010353367774,0.83010353367774,4,2006
1,1999,3.49647251215484,3.49647251215484,4,2006
2,1999,2.74199405075839,2.74199405075839,4,2006
3,1999,5.11351690845443,5.11351690845443,4,2006
4,1999,4.90464151148293,4.90464151148293,4,2006
1,2000,4.69799991699675,4.69799991699675,4,2006
2,2000,3.84924576937644,3.84924576937644,4,2006
3,2000,1.91686346711899,1.91686346711899,4,2006
4,2000,2.84085259748339,2.84085259748339,4,2006
1,2001,3.20032882297914,3.20032882297914,4,2006
2,2001,0.508107341960806,0.508107341960806,4,2006
3,2001,0.259891977681437,0.259891977681437,4,2006
4,2001,0.326514719270965,0.326514719270965,4,2006
1,2002,1.14262045074665,1.14262045074665,4,2006
2,2002,1.74855893947652,1.74855893947652,4,2006
3,2002,1.65862051872139,1.65862051872139,4,2006
4,2002,0.146665036632143,0.146665036632143,4,2006
1,2003,0.384794434780456,0.384794434780456,4,2006
2,2003,-0.170891764364733,-0.170891764364733,4,2006
3,2003,2.06677048510504,2.06677048510504,4,2006
4,2003,1.89042639890633,1.89042639890633,4,2006
1,2004,3.05095544278109,3.05095544278109,4,2006
2,2004,1.71415934563037,1.71415934563037,4,2006
3,2004,0.917160455562005,0.917160455562005,4,2006
4,2004,0.582884460355593,0.582884460355593,4,2006
1,2005,1.48915908821676,1.48915908821676,4,2006
2,2005,1.68825125661056,1.68825125661056,4,2006
3,2005,2.48244376567803,2.48244376567803,4,2006
4,2005,1.12022702173018,1.12022702173018,4,2006
1,2006,2.52638186666592,2.52638186666592,4,2006
2,2006,3.59448506164404,3.59448506164404,4,2006
3,2006,3.41185880292139,3.66279084286038,4,2006
4,2006,3.35098338334718,2.84354544652476,4,2006
1,2007,,1.79102795893176,4,2006
2,2007,,1.15951746637596,4,2006
3,2007,,0.843762220098062,4,2006
4,2007,,0.738510471338762,4,2006
2,1991,0.472542313070745,0.472542313247502,1,2007
3,1991,0.248231985425917,0.248231985425917,1,2007
4,1991,3.88979770750419,3.88979770750419,1,2007
1,1992,4.90857630381707,4.90857630381707,1,2007
2,1992,-2.32958020862601,-2.32958020862601,1,2007
3,1992,-0.669839937294936,-0.669839937294936,1,2007
4,1992,-1.12894122166923,-1.12894122166923,1,2007
1,1993,-3.00576405822554,-3.00576405822554,1,2007
2,1993,0.674577047987124,0.674577047987123,1,2007
3,1993,1.74997475719323,1.74997475719323,1,2007
4,1993,1.22017256203744,1.22017256203744,1,2007
1,1994,3.43288681680074,3.43288681680074,1,2007
2,1994,2.88271978927441,2.88271978927441,1,2007
3,1994,3.25830288708053,3.25830288708053,1,2007
4,1994,3.23611557641754,3.23611557641754,1,2007
1,1995,2.74021937618287,2.74021937618287,1,2007
2,1995,2.52261835980097,2.52261835980097,1,2007
3,1995,1.49332617602751,1.49332617602751,1,2007
4,1995,0.931767663482685,0.931767663482685,1,2007
1,1996,0.114869366849679,0.114869366849679,1,2007
2,1996,3.12764013047828,3.12764013047828,1,2007
3,1996,2.01875451373501,2.01875451373501,1,2007
4,1996,0.870305210092748,0.870305210092748,1,2007
1,1997,2.09637072407465,2.09637072407465,1,2007
2,1997,4.50591317801796,4.50591317801796,1,2007
3,1997,2.9077704599473,2.9077704599473,1,2007
4,1997,4.01336388479348,4.01336388479348,1,2007
1,1998,2.74035798133943,2.74035798133943,1,2007
2,1998,1.50845960321344,1.50845960321344,1,2007
3,1998,2.41843216977911,2.41843216977911,1,2007
4,1998,0.945344222907218,0.945344222907218,1,2007
1,1999,3.56766189105429,3.56766189105429,1,2007
2,1999,2.63666167313834,2.63666167313834,1,2007
3,1999,5.09308703547917,5.09308703547917,1,2007
4,1999,5.03455031765485,5.03455031765485,1,2007
1,2000,4.78305787955504,4.78305787955504,1,2007
2,2000,3.60634927213199,3.60634927213199,1,2007
3,2000,1.89778482881855,1.89778482881855,1,2007
4,2000,2.87901111916593,2.87901111916593,1,2007
1,2001,3.10520849943263,3.10520849943263,1,2007
2,2001,0.472878583748315,0.472878583748316,1,2007
3,2001,0.203719490393439,0.203719490393439,1,2007
4,2001,0.400009857900763,0.400009857900763,1,2007
1,2002,0.901421155089754,0.901421155089754,1,2007
2,2002,1.62884279286328,1.62884279286328,1,2007
3,2002,1.62021258775467,1.62021258775467,1,2007
4,2002,0.150390794070354,0.150390794070354,1,2007
1,2003,0.589777113371159,0.589777113371159,1,2007
2,2003,-0.457709446914367,-0.457709446914367,1,2007
3,2003,2.19209358757595,2.19209358757595,1,2007
4,2003,1.85268032473349,1.85268032473349,1,2007
1,2004,2.97292285802229,2.97292285802229,1,2007
2,2004,1.29431236811193,1.29431236811193,1,2007
3,2004,0.920359373914525,0.920359373914525,1,2007
4,2004,0.845168208506242,0.845168208506242,1,2007
1,2005,1.62976186096111,1.62976186096111,1,2007
2,2005,1.47348470344426,1.47348470344426,1,2007
3,2005,2.57347619846042,2.57347619846042,1,2007
4,2005,1.44771932892329,1.44771932892329,1,2007
1,2006,3.36020697257504,3.36020697257504,1,2007
2,2006,4.02996310545538,4.02996310545538,1,2007
3,2006,2.08971247466958,2.08971247466958,1,2007
4,2006,2.04705138305961,2.02030213478897,1,2007
1,2007,2.01423515874425,1.9847302665287,1,2007
2,2007,1.99454542415504,1.99427636042887,1,2007
3,2007,1.98470055686043,2.03283448612807,1,2007
4,2007,1.98141893442889,2.0842987132649,1,2007
1,2008,,2.13256311147793,1,2007
2,2008,,2.16152175040574,1,2007
3,2008,,2.17600106986965,1,2007
4,2008,,2.18082750969095,1,2007
2,1991,0.472542366361065,0.472542366186812,2,2007
3,1991,0.248231853509284,0.248231853509284,2,2007
4,1991,3.88979781074119,3.88979781074119,2,2007
1,1992,4.90857610083129,4.90857610083129,2,2007
2,1992,-2.3295800113778,-2.3295800113778,2,2007
3,1992,-0.669839967387031,-0.669839967387031,2,2007
4,1992,-1.12894134415841,-1.12894134415841,2,2007
1,1993,-3.00576412228848,-3.00576412228848,2,2007
2,1993,0.674577159232315,0.674577159232315,2,2007
3,1993,1.74997477779124,1.74997477779124,2,2007
4,1993,1.22017253426245,1.22017253426245,2,2007
1,1994,3.43288683359684,3.43288683359684,2,2007
2,1994,2.88271984280215,2.88271984280215,2,2007
3,1994,3.25830290877462,3.25830290877462,2,2007
4,1994,3.23611547722147,3.23611547722147,2,2007
1,1995,2.74021940435196,2.74021940435196,2,2007
2,1995,2.62303409558338,2.62303409558338,2,2007
3,1995,1.35143925481125,1.35143925481125,2,2007
4,1995,1.01314743864627,1.01314743864627,2,2007
1,1996,0.0788587317985146,0.078858731798515,2,2007
2,1996,3.21524584126724,3.21524584126724,2,2007
3,1996,1.93698448134869,1.93698448134869,2,2007
4,1996,0.90426106671615,0.90426106671615,2,2007
1,1997,2.01119216700891,2.01119216700891,2,2007
2,1997,4.58555091847521,4.58555091847521,2,2007
3,1997,2.92574260982461,2.92574260982461,2,2007
4,1997,4.03625404942358,4.03625404942358,2,2007
1,1998,2.59012982250899,2.59012982250899,2,2007
2,1998,1.6567564017314,1.6567564017314,2,2007
3,1998,2.45251635692938,2.45251635692938,2,2007
4,1998,0.899450701489535,0.899450701489535,2,2007
1,1999,3.51347121777741,3.51347121777741,2,2007
2,1999,2.70671689658466,2.70671689658466,2,2007
3,1999,5.03611310312329,5.03611310312329,2,2007
4,1999,4.96815238469512,4.96815238469512,2,2007
1,2000,4.84247662209796,4.84247662209796,2,2007
2,2000,3.62772448456297,3.62772448456297,2,2007
3,2000,1.87414267620254,1.87414267620254,2,2007
4,2000,2.8777662999429,2.8777662999429,2,2007
1,2001,3.10028072304458,3.10028072304458,2,2007
2,2001,0.46763915978929,0.46763915978929,2,2007
3,2001,0.240454050845784,0.240454050845784,2,2007
4,2001,0.429888654807531,0.429888654807531,2,2007
1,2002,0.79584366113663,0.79584366113663,2,2007
2,2002,1.7011918749348,1.7011918749348,2,2007
3,2002,1.6419534119561,1.6419534119561,2,2007
4,2002,0.175814476696101,0.175814476696101,2,2007
1,2003,0.457047088728202,0.457047088728202,2,2007
2,2003,-0.377571706942992,-0.377571706942992,2,2007
3,2003,2.21134818611028,2.21134818611028,2,2007
4,2003,1.88728780546157,1.88728780546157,2,2007
1,2004,2.91670646727356,2.91670646727356,2,2007
2,2004,1.35546188067712,1.35546188067712,2,2007
3,2004,0.991052564690431,0.991052564690431,2,2007
4,2004,0.90138845778478,0.90138845778478,2,2007
1,2005,1.6399570825065,1.6399570825065,2,2007
2,2005,1.49603716369595,1.49603716369595,2,2007
3,2005,2.57422161909338,2.57422161909338,2,2007
4,2005,1.38302183555001,1.38302183555001,2,2007
1,2006,3.34008589313244,3.34008589313244,2,2007
2,2006,3.91728719610516,3.91728719610516,2,2007
3,2006,2.281311316781,2.281311316781,2,2007
4,2006,3.5905790431354,3.5905790431354,2,2007
1,2007,2.51545120742106,2.33493768665637,2,2007
2,2007,1.87037450599246,1.79139570693989,2,2007
3,2007,1.54783615527816,1.74914031695611,2,2007
4,2007,1.44032337170673,1.9973587296752,2,2007
1,2008,,2.32523815806729,2,2007
2,2008,,2.52196581510255,2,2007
3,2008,,2.62032964362018,2,2007
4,2008,,2.65311758645939,2,2007
2,1991,0.472542367913843,0.472542367916597,3,2007
3,1991,0.248231853796343,0.248231853796344,3,2007
4,1991,3.88979781079915,3.88979781079915,3,2007
1,1992,4.90857609692299,4.90857609692299,3,2007
2,1992,-2.32958000732851,-2.32958000732851,3,2007
3,1992,-0.669839968852493,-0.669839968852493,3,2007
4,1992,-1.12894134416554,-1.12894134416554,3,2007
1,1993,-3.00576412195293,-3.00576412195293,3,2007
2,1993,0.674577157633106,0.674577157633105,3,2007
3,1993,1.7499747799856,1.7499747799856,3,2007
4,1993,1.22017253115438,1.22017253115438,3,2007
1,1994,3.43288683480183,3.43288683480183,3,2007
2,1994,2.88271984513331,2.88271984513331,3,2007
3,1994,3.25830290835503,3.25830290835503,3,2007
4,1994,3.23611547553799,3.23611547553799,3,2007
1,1995,2.74021940497011,2.74021940497011,3,2007
2,1995,2.58612498222712,2.58612498222712,3,2007
3,1995,1.5158091695276,1.5158091695276,3,2007
4,1995,1.18126558053309,1.18126558053309,3,2007
1,1996,-0.105902690138361,-0.10590269013836,3,2007
2,1996,3.14555882584004,3.14555882584004,3,2007
3,1996,2.08989306567215,2.08989306567215,3,2007
4,1996,0.870608346352397,0.870608346352397,3,2007
1,1997,1.89533945025755,1.89533945025755,3,2007
2,1997,4.80992912924971,4.80992912924971,3,2007
3,1997,2.83328424015106,2.83328424015106,3,2007
4,1997,4.03828447234773,4.03828447234773,3,2007
1,1998,2.52682202747492,2.52682202747492,3,2007
2,1998,1.75102962155653,1.75102962155653,3,2007
3,1998,2.44126939416645,2.44126939416645,3,2007
4,1998,0.938849665166018,0.938849665166019,3,2007
1,1999,3.52098193623835,3.52098193623835,3,2007
2,1999,2.80449772354203,2.80449772354203,3,2007
3,1999,4.99773784120898,4.99773784120898,3,2007
4,1999,4.93688419420377,4.93688419420377,3,2007
1,2000,4.78355100577501,4.78355100577501,3,2007
2,2000,3.67696661320973,3.67696661320973,3,2007
3,2000,1.82707056133518,1.82707056133518,3,2007
4,2000,2.75762404032025,2.75762404032025,3,2007
1,2001,3.17446120136513,3.17446120136513,3,2007
2,2001,0.386080755337658,0.386080755337659,3,2007
3,2001,0.365774094225024,0.365774094225024,3,2007
4,2001,0.539462754282072,0.539462754282072,3,2007
1,2002,0.770882662823924,0.770882662823924,3,2007
2,2002,1.65402253775999,1.65402253775999,3,2007
3,2002,1.5609418745903,1.5609418745903,3,2007
4,2002,0.168137332053542,0.168137332053542,3,2007
1,2003,0.584647485848255,0.584647485848255,3,2007
2,2003,-0.35739396546859,-0.357393965468589,3,2007
3,2003,2.09628787554732,2.09628787554732,3,2007
4,2003,1.99218797406,1.99218797406,3,2007
1,2004,2.99264262856809,2.99264262856809,3,2007
2,2004,1.31570902247296,1.31570902247296,3,2007
3,2004,1.16045867626071,1.16045867626071,3,2007
4,2004,0.992225395017976,0.992225395017976,3,2007
1,2005,1.8090405852162,1.8090405852162,3,2007
2,2005,1.736531395792,1.736531395792,3,2007
3,2005,2.5491200696248,2.5491200696248,3,2007
4,2005,1.58801031953841,1.58801031953841,3,2007
1,2006,3.58281910129272,3.58281910129272,3,2007
2,2006,3.79394589710509,3.79394589710509,3,2007
3,2006,2.4029770505611,2.4029770505611,3,2007
4,2006,3.50756736019355,3.50756736019355,3,2007
1,2007,2.43408060520518,2.43408060520518,3,2007
2,2007,2.44173652377374,2.46437373680061,3,2007
3,2007,2.44556448305801,2.44070974727955,3,2007
4,2007,2.44684046948611,2.38846683040821,3,2007
1,2008,,2.33302317995281,3,2007
2,2008,,2.29975698967957,3,2007
3,2008,,2.28312389454295,3,2007
4,2008,,2.27757952949741,3,2007
2,1991,0.472542367915145,0.472542367917878,4,2007
3,1991,0.248231853796344,0.248231853796344,4,2007
4,1991,3.88979781079915,3.88979781079915,4,2007
1,1992,4.90857609692299,4.90857609692299,4,2007
2,1992,-2.32958000732851,-2.32958000732851,4,2007
3,1992,-0.669839968852493,-0.669839968852493,4,2007
4,1992,-1.12894134416554,-1.12894134416554,4,2007
1,1993,-3.00576412195293,-3.00576412195293,4,2007
2,1993,0.674577157633105,0.674577157633105,4,2007
3,1993,1.7499747799856,1.7499747799856,4,2007
4,1993,1.22017253115438,1.22017253115438,4,2007
1,1994,3.43288683480183,3.43288683480183,4,2007
2,1994,2.88271984513331,2.88271984513331,4,2007
3,1994,3.25830290835503,3.25830290835503,4,2007
4,1994,3.23611547553799,3.23611547553799,4,2007
1,1995,2.74021940497011,2.74021940497011,4,2007
2,1995,2.51072345915697,2.51072345915697,4,2007
3,1995,1.49554537485648,1.49554537485648,4,2007
4,1995,1.02911986354242,1.02911986354242,4,2007
1,1996,0.0791875919796467,0.0791875919796459,4,2007
2,1996,2.97829453355947,2.97829453355947,4,2007
3,1996,2.16353278613202,2.16353278613202,4,2007
4,1996,0.99967716357785,0.99967716357785,4,2007
1,1997,1.70590429606901,1.70590429606901,4,2007
2,1997,4.9906883181607,4.9906883181607,4,2007
3,1997,2.7420244454756,2.7420244454756,4,2007
4,1997,4.05915681156439,4.05915681156439,4,2007
1,1998,2.5363294482015,2.5363294482015,4,2007
2,1998,1.79962050987919,1.79962050987919,4,2007
3,1998,2.22633367767606,2.22633367767606,4,2007
4,1998,1.08431148007044,1.08431148007044,4,2007
1,1999,3.65488908082363,3.65488908082363,4,2007
2,1999,2.69320158769346,2.69320158769346,4,2007
3,1999,4.95045663639753,4.95045663639753,4,2007
4,1999,4.85405077594951,4.85405077594951,4,2007
1,2000,4.65615498371892,4.65615498371892,4,2007
2,2000,3.90852222734808,3.90852222734808,4,2007
3,2000,1.9181914810277,1.9181914810277,4,2007
4,2000,2.74322822733144,2.74322822733144,4,2007
1,2001,3.17587539888267,3.17587539888267,4,2007
2,2001,0.344488006710498,0.344488006710497,4,2007
3,2001,0.321868793246938,0.321868793246938,4,2007
4,2001,0.432794937941461,0.432794937941461,4,2007
1,2002,0.866242028593156,0.866242028593156,4,2007
2,2002,1.82399430538034,1.82399430538034,4,2007
3,2002,1.44811705020205,1.44811705020205,4,2007
4,2002,-0.0374002674032647,-0.0374002674032645,4,2007
1,2003,0.550855748519274,0.550855748519274,4,2007
2,2003,-0.183213484999045,-0.183213484999045,4,2007
3,2003,2.20418525072896,2.20418525072896,4,2007
4,2003,1.83960505485046,1.83960505485046,4,2007
1,2004,2.6314542554539,2.6314542554539,4,2007
2,2004,1.5821962351529,1.5821962351529,4,2007
3,2004,1.36381930758498,1.36381930758498,4,2007
4,2004,0.94004368447107,0.94004368447107,4,2007
1,2005,1.30435274777789,1.30435274777789,4,2007
2,2005,2.11944937914363,2.11944937914363,4,2007
3,2005,2.66192493842548,2.66192493842548,4,2007
4,2005,1.44672165498265,1.44672165498265,4,2007
1,2006,3.57584924867835,3.57584924867835,4,2007
2,2006,3.98696595102985,3.98696595102985,4,2007
3,2006,2.2931759977123,2.2931759977123,4,2007
4,2006,3.54201104964755,3.54201104964755,4,2007
1,2007,2.85699624824367,2.85699624824367,4,2007
2,2007,1.40449548281325,1.40449548281325,4,2007
3,2007,2.00297394566373,2.01159381957245,4,2007
4,2007,2.20246676661388,2.18500404871708,4,2007
1,2008,,2.14880919483154,4,2007
2,2008,,2.12709228250021,4,2007
3,2008,,2.11623382633455,4,2007
4,2008,,2.112614340946,4,2007
2,1991,0.472542367737017,0.472542367916056,1,2008
3,1991,0.248231853796344,0.248231853796344,1,2008
4,1991,3.88979781079915,3.88979781079915,1,2008
1,1992,4.90857609692299,4.90857609692299,1,2008
2,1992,-2.32958000732851,-2.32958000732851,1,2008
3,1992,-0.669839968852493,-0.669839968852493,1,2008
4,1992,-1.12894134416554,-1.12894134416554,1,2008
1,1993,-3.00576412195293,-3.00576412195293,1,2008
2,1993,0.674577157633104,0.674577157633105,1,2008
3,1993,1.7499747799856,1.7499747799856,1,2008
4,1993,1.22017253115438,1.22017253115438,1,2008
1,1994,3.43288683480183,3.43288683480183,1,2008
2,1994,2.88271984513331,2.88271984513331,1,2008
3,1994,3.25830290835503,3.25830290835503,1,2008
4,1994,3.23611547553799,3.23611547553799,1,2008
1,1995,2.74021940497011,2.74021940497011,1,2008
2,1995,2.29227693141039,2.29227693141039,1,2008
3,1995,1.27252218204337,1.27252218204337,1,2008
4,1995,1.09427856411299,1.09427856411299,1,2008
1,1996,0.258154032341285,0.258154032341285,1,2008
2,1996,2.92632302418461,2.92632302418461,1,2008
3,1996,2.16929929391183,2.16929929391183,1,2008
4,1996,1.07589125865739,1.07589125865739,1,2008
1,1997,1.66718333630587,1.66718333630587,1,2008
2,1997,5.07157841044368,5.07157841044368,1,2008
3,1997,2.64822015609285,2.64822015609285,1,2008
4,1997,3.88947984665773,3.88947984665773,1,2008
1,1998,2.78410857679556,2.78410857679556,1,2008
2,1998,1.71267166294851,1.71267166294851,1,2008
3,1998,2.21882764914818,2.21882764914818,1,2008
4,1998,0.903969749674617,0.903969749674616,1,2008
1,1999,3.83367901610394,3.83367901610394,1,2008
2,1999,2.57479910467524,2.57479910467524,1,2008
3,1999,5.11272194881498,5.11272194881498,1,2008
4,1999,4.76453002588282,4.76453002588282,1,2008
1,2000,4.56388247641577,4.56388247641577,1,2008
2,2000,4.02542952581659,4.02542952581659,1,2008
3,2000,1.88640069144208,1.88640069144208,1,2008
4,2000,2.81079242293736,2.81079242293736,1,2008
1,2001,3.23220254195293,3.23220254195293,1,2008
2,2001,0.253503608813045,0.253503608813044,1,2008
3,2001,0.255167471718609,0.255167471718609,1,2008
4,2001,0.426995254887474,0.426995254887474,1,2008
1,2002,0.978108605627792,0.978108605627792,1,2008
2,2002,1.7206806742752,1.7206806742752,1,2008
3,2002,1.53800242341475,1.53800242341475,1,2008
4,2002,0.0252114728376278,0.0252114728376271,1,2008
1,2003,0.419660687442969,0.419660687442969,1,2008
2,2003,-0.0709759950336167,-0.0709759950336176,1,2008
3,2003,2.13279077056125,2.13279077056125,1,2008
4,2003,2.17982033385733,2.17982033385733,1,2008
1,2004,2.39760990857079,2.39760990857079,1,2008
2,2004,1.56275422531009,1.56275422531009,1,2008
3,2004,1.26178211229433,1.26178211229433,1,2008
4,2004,1.06469980845259,1.06469980845259,1,2008
1,2005,1.23043785703527,1.23043785703527,1,2008
2,2005,2.30188482054126,2.30188482054126,1,2008
3,2005,2.475273912107,2.475273912107,1,2008
4,2005,1.61724826348875,1.61724826348875,1,2008
1,2006,3.60612244857639,3.60612244857639,1,2008
2,2006,3.93806689425906,3.93806689425906,1,2008
3,2006,2.29967920188319,2.29967920188319,1,2008
4,2006,3.32868834882787,3.32868834882787,1,2008
1,2007,3.15491870603757,3.15491870603757,1,2008
2,2007,1.24444698102402,1.24444698102402,1,2008
3,2007,2.88606542835221,2.88606542835221,1,2008
4,2007,2.26228004273793,2.11883906842694,1,2008
1,2008,1.78244513072694,1.62422743924535,1,2008
2,2008,1.49454418352035,1.49310211772197,1,2008
3,2008,1.35059370991706,1.60871001819452,1,2008
4,2008,1.30261021871596,1.85429805500069,1,2008
1,2009,,2.11311314247817,1,2008
2,2009,,2.26840219496466,1,2008
3,2009,,2.3460467212079,1,2008
4,2009,,2.37192822995565,1,2008
2,1991,0.472542367737017,0.472542367915082,2,2008
3,1991,0.248231853796343,0.248231853796344,2,2008
4,1991,3.88979781079915,3.88979781079915,2,2008
1,1992,4.90857609692299,4.90857609692299,2,2008
2,1992,-2.32958000732851,-2.32958000732851,2,2008
3,1992,-0.669839968852493,-0.669839968852493,2,2008
4,1992,-1.12894134416554,-1.12894134416554,2,2008
1,1993,-3.00576412195293,-3.00576412195293,2,2008
2,1993,0.674577157633105,0.674577157633105,2,2008
3,1993,1.7499747799856,1.7499747799856,2,2008
4,1993,1.22017253115438,1.22017253115438,2,2008
1,1994,3.43288683480183,3.43288683480183,2,2008
2,1994,2.88271984513331,2.88271984513331,2,2008
3,1994,3.25830290835503,3.25830290835503,2,2008
4,1994,3.23611547553799,3.23611547553799,2,2008
1,1995,2.74021940497011,2.74021940497011,2,2008
2,1995,2.25627860331998,2.25627860331998,2,2008
3,1995,1.2948177534239,1.2948177534239,2,2008
4,1995,1.14570054313627,1.14570054313627,2,2008
1,1996,0.201971159115798,0.201971159115799,2,2008
2,1996,2.96873316354627,2.96873316354627,2,2008
3,1996,2.15932042310278,2.15932042310278,2,2008
4,1996,1.06012484853093,1.06012484853093,2,2008
1,1997,1.66883852838977,1.66883852838977,2,2008
2,1997,5.01373203140243,5.01373203140243,2,2008
3,1997,2.64012716151243,2.64012716151243,2,2008
4,1997,3.92017482337257,3.92017482337257,2,2008
1,1998,2.77066117393965,2.77066117393965,2,2008
2,1998,1.7902357391975,1.7902357391975,2,2008
3,1998,2.18777603758968,2.18777603758968,2,2008
4,1998,0.838440871479529,0.838440871479529,2,2008
1,1999,3.91317621930163,3.91317621930163,2,2008
2,1999,2.51802018904461,2.51802018904461,2,2008
3,1999,5.09956918247951,5.09956918247951,2,2008
4,1999,4.79080000110868,4.79080000110868,2,2008
1,2000,4.56950195205079,4.56950195205079,2,2008
2,2000,4.04743379737742,4.04743379737742,2,2008
3,2000,1.82801368001295,1.82801368001295,2,2008
4,2000,2.86596952132221,2.86596952132221,2,2008
1,2001,3.18288268672862,3.18288268672862,2,2008
2,2001,0.292365276682682,0.292365276682682,2,2008
3,2001,0.33157575149918,0.33157575149918,2,2008
4,2001,0.323370085856656,0.323370085856656,2,2008
1,2002,1.10404500782908,1.10404500782908,2,2008
2,2002,1.73662069766261,1.73662069766261,2,2008
3,2002,1.49270141890288,1.49270141890288,2,2008
4,2002,0.0315029382028209,0.0315029382028211,2,2008
1,2003,0.388858951079052,0.388858951079052,2,2008
2,2003,-0.0783272937840751,-0.0783272937840748,2,2008
3,2003,2.16038485002528,2.16038485002528,2,2008
4,2003,2.22046500470647,2.22046500470647,2,2008
1,2004,2.44350542758347,2.44350542758347,2,2008
2,2004,1.73320856065635,1.73320856065635,2,2008
3,2004,1.33479348046737,1.33479348046737,2,2008
4,2004,1.13131111759723,1.13131111759723,2,2008
1,2005,1.32853056705888,1.32853056705888,2,2008
2,2005,2.36679027922229,2.36679027922229,2,2008
3,2005,2.54465752616211,2.54465752616211,2,2008
4,2005,1.7021059992542,1.7021059992542,2,2008
1,2006,3.53466090805648,3.53466090805648,2,2008
2,2006,3.92776893852851,3.92776893852851,2,2008
3,2006,2.24098272701225,2.24098272701225,2,2008
4,2006,3.12264374375373,3.12264374375373,2,2008
1,2007,3.19412611019112,3.19412611019112,2,2008
2,2007,1.09882775247476,1.09882775247476,2,2008
3,2007,3.03258536582636,3.03258536582636,2,2008
4,2007,1.53682611137846,1.53682611137846,2,2008
1,2008,1.42059193068479,1.34173307537621,2,2008
2,2008,1.35085142226859,1.31634871508898,2,2008
3,2008,1.31598116806049,1.40392219575766,2,2008
4,2008,1.30435774999113,1.5477026826232,2,2008
1,2009,,1.69093934092649,2,2008
2,2009,,1.77688133590847,2,2008
3,2009,,1.81985233339946,2,2008
4,2009,,1.83417599922979,2,2008
2,1991,0.472542367737017,0.472542367737017,3,2008
3,1991,0.248231853796344,0.248231853796344,3,2008
4,1991,3.88979781079915,3.88979781079915,3,2008
1,1992,4.90857609692299,4.90857609692299,3,2008
2,1992,-2.32958000732851,-2.32958000732851,3,2008
3,1992,-0.669839968852493,-0.669839968852493,3,2008
4,1992,-1.12894134416554,-1.12894134416554,3,2008
1,1993,-3.00576412195293,-3.00576412195293,3,2008
2,1993,0.674577157633105,0.674577157633105,3,2008
3,1993,1.7499747799856,1.7499747799856,3,2008
4,1993,1.22017253115438,1.22017253115438,3,2008
1,1994,3.43288683480183,3.43288683480183,3,2008
2,1994,2.88271984513331,2.88271984513331,3,2008
3,1994,3.25830290835503,3.25830290835503,3,2008
4,1994,3.23611547553799,3.23611547553799,3,2008
1,1995,2.74021940497011,2.74021940497011,3,2008
2,1995,4.06502222408331,4.06502222408331,3,2008
3,1995,1.88668930570874,1.88668930570874,3,2008
4,1995,2.09036734344261,2.09036734344261,3,2008
1,1996,-0.979847764051522,-0.979847764051522,3,2008
2,1996,2.94552019433247,2.94552019433247,3,2008
3,1996,2.09807829275261,2.09807829275261,3,2008
4,1996,1.26104425066307,1.26104425066307,3,2008
1,1997,1.59392400992586,1.59392400992586,3,2008
2,1997,4.89848175978382,4.89848175978382,3,2008
3,1997,2.70202618578375,2.70202618578375,3,2008
4,1997,3.96695916375955,3.96695916375955,3,2008
1,1998,2.77970777415733,2.77970777415733,3,2008
2,1998,1.77125831295841,1.77125831295841,3,2008
3,1998,2.10487253937608,2.10487253937608,3,2008
4,1998,0.819704749059769,0.819704749059769,3,2008
1,1999,3.73990687861188,3.73990687861188,3,2008
2,1999,2.37939237506126,2.37939237506126,3,2008
3,1999,5.05916981194867,5.05916981194867,3,2008
4,1999,4.89979500754412,4.89979500754412,3,2008
1,2000,4.60618737992098,4.60618737992098,3,2008
2,2000,3.9142948610039,3.9142948610039,3,2008
3,2000,1.94158595755565,1.94158595755565,3,2008
4,2000,3.19367716745442,3.19367716745442,3,2008
1,2001,2.94100055305013,2.94100055305013,3,2008
2,2001,0.269910131533657,0.269910131533657,3,2008
3,2001,0.241331456939387,0.241331456939387,3,2008
4,2001,0.445139316068266,0.445139316068266,3,2008
1,2002,1.09252905427677,1.09252905427677,3,2008
2,2002,1.75964290905137,1.75964290905137,3,2008
3,2002,1.34567642792933,1.34567642792933,3,2008
4,2002,0.302311646569797,0.302311646569797,3,2008
1,2003,0.327865103976488,0.327865103976488,3,2008
2,2003,-0.0789849312874291,-0.0789849312874291,3,2008
3,2003,2.05603016902032,2.05603016902032,3,2008
4,2003,2.41766535516095,2.41766535516095,3,2008
1,2004,2.28346141130338,2.28346141130338,3,2008
2,2004,1.67488395169759,1.67488395169759,3,2008
3,2004,1.37894850310971,1.37894850310971,3,2008
4,2004,1.43427178637794,1.43427178637794,3,2008
1,2005,1.19348563591462,1.19348563591462,3,2008
2,2005,2.45079599105891,2.45079599105891,3,2008
3,2005,2.54713650865321,2.54713650865321,3,2008
4,2005,1.97397162197368,1.97397162197368,3,2008
1,2006,3.308761903784,3.308761903784,3,2008
2,2006,4.01496638682344,4.01496638682344,3,2008
3,2006,2.31789163224359,2.31789163224359,3,2008
4,2006,3.36552237793655,3.36552237793655,3,2008
1,2007,3.16058540390567,3.16058540390567,3,2008
2,2007,1.49308736951683,1.49308736951683,3,2008
3,2007,2.66476618797091,2.66476618797091,3,2008
4,2007,1.25374675913799,1.25374675913799,3,2008
1,2008,3.222998120353,3.222998120353,3,2008
2,2008,1.03994015160666,0.679236150185285,3,2008
3,2008,-0.0515888327665142,0.0257070647405175,3,2008
4,2008,-0.415431827557571,0.514551921560747,3,2008
1,2009,,1.39791177818802,3,2008
2,2009,,1.92792769216438,3,2008
3,2009,,2.19293564915257,3,2008
4,2009,,2.28127163481529,3,2008
2,1991,0.472542367908262,0.472542367910678,4,2008
3,1991,0.248231853796344,0.248231853796344,4,2008
4,1991,3.88979781079915,3.88979781079915,4,2008
1,1992,4.90857609692299,4.90857609692299,4,2008
2,1992,-2.32958000732851,-2.32958000732851,4,2008
3,1992,-0.669839968852493,-0.669839968852493,4,2008
4,1992,-1.12894134416554,-1.12894134416554,4,2008
1,1993,-3.00576412195293,-3.00576412195293,4,2008
2,1993,0.674577157633104,0.674577157633105,4,2008
3,1993,1.7499747799856,1.7499747799856,4,2008
4,1993,1.22017253115438,1.22017253115438,4,2008
1,1994,3.43288683480183,3.43288683480183,4,2008
2,1994,2.88271984513331,2.88271984513331,4,2008
3,1994,3.25830290835503,3.25830290835503,4,2008
4,1994,3.23611547553799,3.23611547553799,4,2008
1,1995,2.74021940497011,2.74021940497011,4,2008
2,1995,2.27215293492566,2.27215293492566,4,2008
3,1995,1.32959219420465,1.32959219420465,4,2008
4,1995,1.50294952734369,1.50294952734369,4,2008
1,1996,0.0274139980991128,0.0274139980991133,4,2008
2,1996,3.02616012779891,3.02616012779891,4,2008
3,1996,2.12527477660553,2.12527477660553,4,2008
4,1996,1.30522630093994,1.30522630093994,4,2008
1,1997,1.46778420180345,1.46778420180345,4,2008
2,1997,4.98489510810014,4.98489510810014,4,2008
3,1997,2.73789664692798,2.73789664692798,4,2008
4,1997,4.00973872763588,4.00973872763588,4,2008
1,1998,2.7611411936405,2.7611411936405,4,2008
2,1998,1.6892887174512,1.6892887174512,4,2008
3,1998,2.20275699816701,2.20275699816701,4,2008
4,1998,0.654142904084566,0.654142904084566,4,2008
1,1999,3.80304517962717,3.80304517962717,4,2008
2,1999,2.50156564391764,2.50156564391764,4,2008
3,1999,5.01445738519339,5.01445738519339,4,2008
4,1999,4.74809120310553,4.74809120310553,4,2008
1,2000,4.76504744556261,4.76504744556261,4,2008
2,2000,3.95035411568128,3.95035411568128,4,2008
3,2000,1.94046986253869,1.94046986253869,4,2008
4,2000,2.94602758225362,2.94602758225362,4,2008
1,2001,3.0502395893713,3.0502395893713,4,2008
2,2001,0.289381934803147,0.289381934803147,4,2008
3,2001,0.292894562317891,0.292894562317891,4,2008
4,2001,0.508061837430018,0.508061837430018,4,2008
1,2002,0.954451974327064,0.954451974327064,4,2008
2,2002,1.9300635790412,1.9300635790412,4,2008
3,2002,1.39950127547763,1.39950127547763,4,2008
4,2002,0.314610083857358,0.314610083857358,4,2008
1,2003,0.0656103747016745,0.0656103747016745,4,2008
2,2003,0.0882846908353722,0.088284690835372,4,2008
3,2003,2.09257379723036,2.09257379723036,4,2008
4,2003,2.4190709314031,2.4190709314031,4,2008
1,2004,2.24202334406889,2.24202334406889,4,2008
2,2004,1.95265943516176,1.95265943516176,4,2008
3,2004,1.37425177316204,1.37425177316204,4,2008
4,2004,1.36327459760031,1.36327459760031,4,2008
1,2005,1.06381165876777,1.06381165876777,4,2008
2,2005,2.92875381703541,2.92875381703541,4,2008
3,2005,2.49927577403681,2.49927577403681,4,2008
4,2005,1.87310787462749,1.87310787462749,4,2008
1,2006,3.2789224725174,3.2789224725174,4,2008
2,2006,4.36845522040494,4.36845522040494,4,2008
3,2006,2.18476022182026,2.18476022182026,4,2008
4,2006,3.38174525120285,3.38174525120285,4,2008
1,2007,2.97922848782575,2.97922848782575,4,2008
2,2007,1.83953775554457,1.83953775554457,4,2008
3,2007,2.30586807907405,2.30586807907405,4,2008
4,2007,1.44283296428203,1.44283296428203,4,2008
1,2008,2.68012846637393,2.68012846637393,4,2008
2,2008,-0.784561275048445,-0.784561275048444,4,2008
3,2008,-0.0725733546214389,-0.117473056383907,4,2008
4,2008,0.164755952187563,0.255499677232655,4,2008
1,2009,,0.443762169809801,4,2008
2,2009,,0.556719665356088,4,2008
3,2009,,0.613198413129232,4,2008
4,2009,,0.632024662386946,4,2008
2,1991,0.472542367737017,0.472542367737017,1,2009
3,1991,0.248231853796344,0.248231853796344,1,2009
4,1991,3.88979781079915,3.88979781079915,1,2009
1,1992,4.90857609692299,4.90857609692299,1,2009
2,1992,-2.32958000732851,-2.32958000732851,1,2009
3,1992,-0.669839968852493,-0.669839968852493,1,2009
4,1992,-1.12894134416554,-1.12894134416554,1,2009
1,1993,-3.00576412195293,-3.00576412195293,1,2009
2,1993,0.674577157633105,0.674577157633105,1,2009
3,1993,1.7499747799856,1.7499747799856,1,2009
4,1993,1.22017253115438,1.22017253115438,1,2009
1,1994,3.43288683480183,3.43288683480183,1,2009
2,1994,2.88271984513331,2.88271984513331,1,2009
3,1994,3.25830290835503,3.25830290835503,1,2009
4,1994,3.23611547553799,3.23611547553799,1,2009
1,1995,2.74021940497011,2.74021940497011,1,2009
2,1995,2.27760150129035,2.27760150129035,1,2009
3,1995,1.31171975146311,1.31171975146311,1,2009
4,1995,1.48314107418728,1.48314107418728,1,2009
1,1996,0.0115329457686331,0.0115329457686337,1,2009
2,1996,3.00730288344233,3.00730288344233,1,2009
3,1996,2.09061136528563,2.09061136528563,1,2009
4,1996,1.34085099173464,1.34085099173464,1,2009
1,1997,1.50960984533848,1.50960984533848,1,2009
2,1997,4.97715370155949,4.97715370155949,1,2009
3,1997,2.74873116162535,2.74873116162535,1,2009
4,1997,4.04113761678662,4.04113761678662,1,2009
1,1998,2.72914644556543,2.72914644556543,1,2009
2,1998,1.71399152749112,1.71399152749112,1,2009
3,1998,2.21971071990463,2.21971071990463,1,2009
4,1998,0.65548070337933,0.65548070337933,1,2009
1,1999,3.81557601115152,3.81557601115152,1,2009
2,1999,2.52706324251419,2.52706324251419,1,2009
3,1999,4.97048487250975,4.97048487250975,1,2009
4,1999,4.79304733825408,4.79304733825408,1,2009
1,2000,4.74769451814674,4.74769451814674,1,2009
2,2000,3.9236186014266,3.9236186014266,1,2009
3,2000,1.93274162689625,1.93274162689625,1,2009
4,2000,2.96287966501614,2.96287966501614,1,2009
1,2001,3.06049703899864,3.06049703899864,1,2009
2,2001,0.181067991857954,0.181067991857953,1,2009
3,2001,0.305398438519888,0.305398438519888,1,2009
4,2001,0.481413338214165,0.481413338214165,1,2009
1,2002,0.984272060314573,0.984272060314573,1,2009
2,2002,1.90611437664854,1.90611437664854,1,2009
3,2002,1.36769412770232,1.36769412770232,1,2009
4,2002,0.344024979467084,0.344024979467084,1,2009
1,2003,0.103239151012957,0.103239151012957,1,2009
2,2003,0.0875118318771184,0.0875118318771184,1,2009
3,2003,2.09796137104563,2.09796137104563,1,2009
4,2003,2.42574943095852,2.42574943095852,1,2009
1,2004,2.2829797544792,2.2829797544792,1,2009
2,2004,1.93857466618441,1.93857466618441,1,2009
3,2004,1.41031154360916,1.41031154360916,1,2009
4,2004,1.382378668579,1.382378668579,1,2009
1,2005,1.01251303806202,1.01251303806202,1,2009
2,2005,2.93168107943207,2.93168107943207,1,2009
3,2005,2.52769343291059,2.52769343291059,1,2009
4,2005,1.80680236375101,1.80680236375101,1,2009
1,2006,3.35890068033795,3.35890068033795,1,2009
2,2006,4.40728940002921,4.40728940002921,1,2009
3,2006,2.20305705755728,2.20305705755728,1,2009
4,2006,3.29706413861448,3.29706413861448,1,2009
1,2007,2.91107182635764,2.91107182635764,1,2009
2,2007,1.86143826795899,1.86143826795899,1,2009
3,2007,2.39125166319785,2.39125166319785,1,2009
4,2007,1.33772506427452,1.33772506427452,1,2009
1,2008,2.73077021547596,2.73077021547596,1,2009
2,2008,-0.698674434728697,-0.698674434728697,1,2009
3,2008,-0.812353714729852,-0.812353714729852,1,2009
4,2008,-1.411338967423,-1.99824047330847,1,2009
1,2009,-1.87209685411003,-2.5194613187179,1,2009
2,2009,-2.14855158612225,-2.15446094656842,1,2009
3,2009,-2.28677895212836,-1.23069042365524,1,2009
4,2009,-2.33285474079706,-0.0756008167735969,1,2009
1,2010,,0.983356807281308,1,2009
2,2010,,1.61873138171425,1,2009
3,2010,,1.93641866893072,1,2009
4,2010,,2.04231443133621,1,2009
2,1991,0.472542367737017,0.472542367889611,2,2009
3,1991,0.248231853796344,0.248231853796345,2,2009
4,1991,3.88979781079915,3.88979781079915,2,2009
1,1992,4.90857609692299,4.90857609692299,2,2009
2,1992,-2.32958000732851,-2.32958000732851,2,2009
3,1992,-0.669839968852493,-0.669839968852493,2,2009
4,1992,-1.12894134416554,-1.12894134416554,2,2009
1,1993,-3.00576412195293,-3.00576412195293,2,2009
2,1993,0.674577157633105,0.674577157633104,2,2009
3,1993,1.7499747799856,1.7499747799856,2,2009
4,1993,1.22017253115438,1.22017253115438,2,2009
1,1994,3.43288683480183,3.43288683480183,2,2009
2,1994,2.88271984513331,2.88271984513331,2,2009
3,1994,3.25830290835503,3.25830290835503,2,2009
4,1994,3.23611547553799,3.23611547553799,2,2009
1,1995,2.74021940497011,2.74021940497011,2,2009
2,1995,2.26548496860386,2.26548496860386,2,2009
3,1995,1.26911944123622,1.26911944123622,2,2009
4,1995,1.44333699267041,1.44333699267041,2,2009
1,1996,0.133098350168659,0.13309835016866,2,2009
2,1996,3.02983759139865,3.02983759139865,2,2009
3,1996,2.03693081368819,2.03693081368819,2,2009
4,1996,1.32803846534078,1.32803846534078,2,2009
1,1997,1.63659104267169,1.63659104267169,2,2009
2,1997,4.92977764816887,4.92977764816887,2,2009
3,1997,2.70639871160787,2.70639871160787,2,2009
4,1997,3.97297993658587,3.97297993658587,2,2009
1,1998,2.90398587072218,2.90398587072218,2,2009
2,1998,1.65237939929332,1.65237939929332,2,2009
3,1998,2.1773776609292,2.1773776609292,2,2009
4,1998,0.622041797095729,0.62204179709573,2,2009
1,1999,3.95738166563506,3.95738166563506,2,2009
2,1999,2.45117908726504,2.45117908726504,2,2009
3,1999,4.88286711183037,4.88286711183037,2,2009
4,1999,4.71981072801673,4.71981072801673,2,2009
1,2000,4.91674881718875,4.91674881718875,2,2009
2,2000,3.88065374752109,3.88065374752109,2,2009
3,2000,1.87996612880537,1.87996612880537,2,2009
4,2000,2.92908941553276,2.92908941553276,2,2009
1,2001,3.12047947723264,3.12047947723264,2,2009
2,2001,0.186243047818913,0.186243047818913,2,2009
3,2001,0.338869440067047,0.338869440067047,2,2009
4,2001,0.505290342281906,0.505290342281906,2,2009
1,2002,0.967852148871184,0.967852148871184,2,2009
2,2002,1.89839375954173,1.89839375954173,2,2009
3,2002,1.41872412665982,1.41872412665982,2,2009
4,2002,0.3576072608104,0.3576072608104,2,2009
1,2003,0.146668754268342,0.146668754268342,2,2009
2,2003,0.0862598349649746,0.0862598349649751,2,2009
3,2003,2.06131713400175,2.06131713400175,2,2009
4,2003,2.44061648857652,2.44061648857652,2,2009
1,2004,2.32119290210007,2.32119290210007,2,2009
2,2004,1.92134074943677,1.92134074943677,2,2009
3,2004,1.42637211938992,1.42637211938992,2,2009
4,2004,1.40760515264082,1.40760515264082,2,2009
1,2005,1.05961749858121,1.05961749858121,2,2009
2,2005,2.9814832453581,2.9814832453581,2,2009
3,2005,2.58990064098597,2.58990064098597,2,2009
4,2005,1.89725402423819,1.89725402423819,2,2009
1,2006,3.41392216962824,3.41392216962824,2,2009
2,2006,4.41986533765688,4.41986533765688,2,2009
3,2006,2.23347963073648,2.23347963073648,2,2009
4,2006,3.52809124865825,3.52809124865825,2,2009
1,2007,2.86722512132993,2.86722512132993,2,2009
2,2007,1.83195221383152,1.83195221383152,2,2009
3,2007,2.42214942201309,2.42214942201309,2,2009
4,2007,1.6574225521218,1.6574225521218,2,2009
1,2008,2.7933285298944,2.7933285298944,2,2009
2,2008,-0.952240082465938,-0.952240082465937,2,2009
3,2008,-0.950611302499893,-0.950611302499894,2,2009
4,2008,-5.75165103511995,-5.75165103511995,2,2009
1,2009,-4.15342047347822,-4.8201623005419,2,2009
2,2009,-3.19448213649318,-3.48622542659741,2,2009
