fredbec/spf-europe/data/filter_spf_data.csv
target_quarter,target_year,spf_filter_cy,spf_filter_ny,origin_quarter,origin_year
1,1992,2.73861301311956,2.73861300896889,1,2001
2,1992,1.87029524680096,1.87029524680096,1,2001
3,1992,1.47929780325962,1.47929780325962,1,2001
4,1992,0.288490794150187,0.288490794150187,1,2001
1,1993,-1.77865273073338,-1.77865273073338,1,2001
2,1993,-1.16517909187389,-1.16517909187389,1,2001
3,1993,-0.542325821430945,-0.542325821430945,1,2001
4,1993,0.0495094021288225,0.0495094021288224,1,2001
1,1994,1.7614703344693,1.7614703344693,1,2001
2,1994,2.20657378328584,2.20657378328584,1,2001
3,1994,2.58619908095206,2.58619908095206,1,2001
4,1994,3.05890008104353,3.05890008104353,1,2001
1,1995,2.65435264180884,2.65435264180884,1,2001
2,1995,2.66067837036021,2.66067837036021,1,2001
3,1995,2.07376257417546,2.07376257417546,1,2001
4,1995,1.46336177290758,1.46336177290758,1,2001
1,1996,1.09992287830816,1.09992287830816,1,2001
2,1996,1.22051639291298,1.22051639291298,1,2001
3,1996,1.68831899989021,1.68831899989021,1,2001
4,1996,1.66922042540583,1.66922042540583,1,2001
1,1997,1.60160919968084,1.60160919968084,1,2001
2,1997,2.18550155722892,2.18550155722892,1,2001
3,1997,2.34207388301215,2.34207388301215,1,2001
4,1997,2.98117678785181,2.98117678785181,1,2001
1,1998,3.67363489888204,3.67363489888204,1,2001
2,1998,2.76940877558838,2.76940877558838,1,2001
3,1998,2.58337530955985,2.58337530955985,1,2001
4,1998,2.00643971007164,2.00643971007164,1,2001
1,1999,1.9154554207754,1.9154554207754,1,2001
2,1999,2.15726820536557,2.15726820536557,1,2001
3,1999,2.5889077193912,2.5889077193912,1,2001
4,1999,3.30291800718503,3.30291800718503,1,2001
1,2000,3.46291887960881,3.46291887960881,1,2001
2,2000,3.71833844079597,3.71833844079597,1,2001
3,2000,3.42582032327705,3.42582032327705,1,2001
4,2000,2.95112142660308,2.84410888755793,1,2001
1,2001,2.58596842916157,2.46797405832801,1,2001
2,2001,2.36687663069666,2.36594137108371,1,2001
3,2001,2.25733073146421,2.45016525747023,1,2001
4,2001,2.22081543172005,2.6328001491328,1,2001
1,2002,,2.82600047771662,1,2001
2,2002,,2.94192067486691,1,2001
3,2002,,2.99988077344206,1,2001
4,2002,,3.01920080630044,1,2001
1,1992,2.72315925425783,2.72315925007707,2,2001
2,1992,1.8517915323784,1.8517915323784,2,2001
3,1992,1.51716524696277,1.51716524696277,2,2001
4,1992,0.283968953218428,0.283968953218427,2,2001
1,1993,-1.82134734566562,-1.82134734566563,2,2001
2,1993,-1.19735998243676,-1.19735998243676,2,2001
3,1993,-0.539280726626856,-0.539280726626856,2,2001
4,1993,0.122086114985742,0.122086114985742,2,2001
1,1994,1.71983814454912,1.71983814454912,2,2001
2,1994,2.26523552094429,2.26523552094429,2,2001
3,1994,2.61111275708976,2.61111275708976,2,2001
4,1994,3.01660383501947,3.01660383501947,2,2001
1,1995,2.70174753335266,2.70174753335266,2,2001
2,1995,2.642412889691,2.642412889691,2,2001
3,1995,1.99414354734808,1.99414354734808,2,2001
4,1995,1.45648115389034,1.45648115389034,2,2001
1,1996,1.15636592781578,1.15636592781578,2,2001
2,1996,1.18844856258942,1.18844856258942,2,2001
3,1996,1.71324110342836,1.71324110342836,2,2001
4,1996,1.62903360800561,1.62903360800561,2,2001
1,1997,1.63322220605815,1.63322220605815,2,2001
2,1997,2.24745588557476,2.24745588557476,2,2001
3,1997,2.31880606941275,2.31880606941275,2,2001
4,1997,3.05009530270959,3.05009530270959,2,2001
1,1998,3.65672441083753,3.65672441083753,2,2001
2,1998,2.80240716744327,2.80240716744327,2,2001
3,1998,2.69362301651821,2.69362301651821,2,2001
4,1998,2.0512642030373,2.0512642030373,2,2001
1,1999,1.94706905499871,1.94706905499871,2,2001
2,1999,2.17312645796066,2.17312645796066,2,2001
3,1999,2.60720708024904,2.60720708024904,2,2001
4,1999,3.35784310339589,3.35784310339589,2,2001
1,2000,3.50785656100208,3.50785656100208,2,2001
2,2000,3.72602877463053,3.72602877463053,2,2001
3,2000,3.26451404118731,3.26451404118731,2,2001
4,2000,2.9726283324931,2.9726283324931,2,2001
1,2001,2.352369492366,2.14498919088692,2,2001
2,2001,1.98021418828974,1.88977664636576,2,2001
3,2001,1.79413653625161,2.02616984021423,2,2001
4,2001,1.7321106522389,2.37334791371691,2,2001
1,2002,,2.7504900081584,2,2001
2,2002,,2.9767752648233,2,2001
3,2002,,3.08991789315575,2,2001
4,2002,,3.12763210259989,2,2001
1,1992,2.71182658469744,2.71182658314263,3,2001
2,1992,1.7995858723844,1.7995858723844,3,2001
3,1992,1.56265402144173,1.56265402144173,3,2001
4,1992,0.300179124195244,0.300179124195243,3,2001
1,1993,-1.86918615582022,-1.86918615582022,3,2001
2,1993,-1.17073719615387,-1.17073719615387,3,2001
3,1993,-0.541506739168274,-0.541506739168274,3,2001
4,1993,0.148425574539956,0.148425574539957,3,2001
1,1994,1.75896708535044,1.75896708535044,3,2001
2,1994,2.26375702732313,2.26375702732313,3,2001
3,1994,2.56953821880677,2.56953821880677,3,2001
4,1994,3.01723243194558,3.01723243194558,3,2001
1,1995,2.69152223450895,2.69152223450895,3,2001
2,1995,2.65111141956895,2.65111141956895,3,2001
3,1995,2.03395646460769,2.03395646460769,3,2001
4,1995,1.41941297759898,1.41941297759898,3,2001
1,1996,1.19774981985865,1.19774981985865,3,2001
2,1996,1.17189968730615,1.17189968730616,3,2001
3,1996,1.70069170739338,1.70069170739338,3,2001
4,1996,1.61718280112144,1.61718280112144,3,2001
1,1997,1.57598168147433,1.57598168147433,3,2001
2,1997,2.2592320456075,2.2592320456075,3,2001
3,1997,2.34106979464004,2.34106979464004,3,2001
4,1997,3.07308308592402,3.07308308592402,3,2001
1,1998,3.76750843753499,3.76750843753499,3,2001
2,1998,2.89212054680734,2.89212054680734,3,2001
3,1998,2.74215352411953,2.74215352411953,3,2001
4,1998,2.08970352245939,2.08970352245939,3,2001
1,1999,1.93700673342123,1.93700673342123,3,2001
2,1999,2.150371190566,2.150371190566,3,2001
3,1999,2.61954319302655,2.61954319302655,3,2001
4,1999,3.39664764800103,3.39664764800103,3,2001
1,2000,3.5346385797665,3.5346385797665,3,2001
2,2000,3.74577345875151,3.74577345875151,3,2001
3,2000,3.31414767706695,3.31414767706695,3,2001
4,2000,2.92178434318169,2.92178434318169,3,2001
1,2001,2.51303351189847,2.51303351189847,3,2001
2,2001,1.00183975349783,0.470467215037989,3,2001
3,2001,0.246242874297519,0.362678122867425,3,2001
4,2001,-0.00562275210258667,1.37074163263115,3,2001
1,2002,,2.67573314157354,3,2001
2,2002,,3.45872804693898,3,2001
3,2002,,3.85022549962169,3,2001
4,2002,,3.98072465051593,3,2001
1,1992,2.6951888633341,2.6951888624328,4,2001
2,1992,1.77568375684734,1.77568375684734,4,2001
3,1992,1.54190565703765,1.54190565703765,4,2001
4,1992,0.285861055981851,0.285861055981851,4,2001
1,1993,-1.86112322512254,-1.86112322512254,4,2001
2,1993,-1.1418277991585,-1.1418277991585,4,2001
3,1993,-0.546314933401115,-0.546314933401115,4,2001
4,1993,0.14475393330402,0.14475393330402,4,2001
1,1994,1.68885834127872,1.68885834127872,4,2001
2,1994,2.23385191369145,2.23385191369145,4,2001
3,1994,2.53353472473101,2.53353472473101,4,2001
4,1994,3.00618360451448,3.00618360451448,4,2001
1,1995,2.68913251653282,2.68913251653282,4,2001
2,1995,2.73144772521925,2.73144772521925,4,2001
3,1995,2.08069730490195,2.08069730490195,4,2001
4,1995,1.46379082830539,1.46379082830539,4,2001
1,1996,1.20916608917654,1.20916608917654,4,2001
2,1996,1.18621335712936,1.18621335712936,4,2001
3,1996,1.66570111166686,1.66570111166686,4,2001
4,1996,1.62923641226775,1.62923641226775,4,2001
1,1997,1.62706112800184,1.62706112800184,4,2001
2,1997,2.20944679201671,2.20944679201671,4,2001
3,1997,2.30166342605747,2.30166342605747,4,2001
4,1997,3.11564260062807,3.11564260062807,4,2001
1,1998,3.73532158559602,3.73532158559602,4,2001
2,1998,2.92228463405759,2.92228463405759,4,2001
3,1998,2.76386615756143,2.76386615756143,4,2001
4,1998,1.94162294712226,1.94162294712226,4,2001
1,1999,2.02890413317198,2.02890413317198,4,2001
2,1999,2.15399560263814,2.15399560263814,4,2001
3,1999,2.75551163376242,2.75551163376242,4,2001
4,1999,3.59765254554922,3.59765254554922,4,2001
1,2000,3.60888218439084,3.60888218439084,4,2001
2,2000,3.8872683766749,3.8872683766749,4,2001
3,2000,3.26419603292256,3.26419603292256,4,2001
4,2000,2.8738985780451,2.8738985780451,4,2001
1,2001,2.39983735142955,2.39983735142954,4,2001
2,2001,1.66684968678452,1.66684968678452,4,2001
3,2001,-2.54914428380366,-3.48052834786199,4,2001
4,2001,-3.95447560733305,-2.07466309682296,4,2001
1,2002,,1.82740931474522,4,2001
2,2002,,4.16865276168612,4,2001
3,2002,,5.33927448515658,4,2001
4,2002,,5.72948172631339,4,2001
1,1992,2.6591762246937,2.65917622692757,1,2002
2,1992,1.7340629866198,1.7340629866198,1,2002
3,1992,1.47645579509865,1.47645579509865,1,2002
4,1992,0.321363584176737,0.321363584176737,1,2002
1,1993,-1.84250266854082,-1.84250266854082,1,2002
2,1993,-1.12778565726142,-1.12778565726142,1,2002
3,1993,-0.499161867920128,-0.499161867920128,1,2002
4,1993,0.119934688361423,0.119934688361423,1,2002
1,1994,1.74596529895454,1.74596529895454,1,2002
2,1994,2.19506925468971,2.19506925468971,1,2002
3,1994,2.47316205960999,2.47316205960999,1,2002
4,1994,2.93592335046835,2.93592335046835,1,2002
1,1995,2.54131456279414,2.54131456279414,1,2002
2,1995,2.7608297886452,2.7608297886452,1,2002
3,1995,2.17361143338921,2.17361143338921,1,2002
4,1995,1.50971849336192,1.50971849336192,1,2002
1,1996,1.2303053034082,1.2303053034082,1,2002
2,1996,1.22916763025145,1.22916763025145,1,2002
3,1996,1.61347411895361,1.61347411895361,1,2002
4,1996,1.63323159392661,1.63323159392661,1,2002
1,1997,1.75571082375825,1.75571082375825,1,2002
2,1997,2.19172500027176,2.19172500027176,1,2002
3,1997,2.29068247414204,2.29068247414204,1,2002
4,1997,3.13962233612408,3.13962233612408,1,2002
1,1998,3.6999715816469,3.6999715816469,1,2002
2,1998,2.99079413430834,2.99079413430834,1,2002
3,1998,2.87752158423062,2.87752158423062,1,2002
4,1998,1.95034509224592,1.95034509224592,1,2002
1,1999,1.97342862799228,1.97342862799228,1,2002
2,1999,2.19081126298462,2.19081126298462,1,2002
3,1999,2.76925968070838,2.76925968070838,1,2002
4,1999,3.64208625920275,3.64208625920275,1,2002
1,2000,3.62120657244447,3.62120657244447,1,2002
2,2000,3.88106641625952,3.88106641625952,1,2002
3,2000,3.18575286662834,3.18575286662834,1,2002
4,2000,2.78838490881506,2.78838490881506,1,2002
1,2001,2.46929560498561,2.46929560498561,1,2002
2,2001,1.64168352079275,1.64168352079275,1,2002
3,2001,1.35186912583403,1.35186912583403,1,2002
4,2001,1.32866316774231,1.07740890442172,1,2002
1,2002,1.31081243074868,1.03376788129168,1,2002
2,2002,1.30010198855251,1.29788578920465,1,2002
3,2002,1.29474676745442,1.74746312637004,1,2002
4,2002,1.29296169375505,2.26020039099726,1,2002
1,2003,,2.71379808129569,1,2002
2,2003,,2.98595669547475,1,2002
3,2003,,3.12203600256428,1,2002
4,2003,,3.16739577159413,1,2002
1,1992,2.65779182845543,2.65779182630471,2,2002
2,1992,1.73136813412362,1.73136813412362,2,2002
3,1992,1.47775073512306,1.47775073512306,2,2002
4,1992,0.320150827334986,0.320150827334986,2,2002
1,1993,-1.84407616309551,-1.84407616309551,2,2002
2,1993,-1.13364689000431,-1.13364689000431,2,2002
3,1993,-0.489866348557733,-0.489866348557733,2,2002
4,1993,0.119798803982496,0.119798803982496,2,2002
1,1994,1.7391627412525,1.7391627412525,2,2002
2,1994,2.20209936957725,2.20209936957725,2,2002
3,1994,2.46331918202045,2.46331918202045,2,2002
4,1994,2.94587206253438,2.94587206253438,2,2002
1,1995,2.54533992934778,2.54533992934778,2,2002
2,1995,2.76207934951005,2.76207934951005,2,2002
3,1995,2.1761362092259,2.1761362092259,2,2002
4,1995,1.50392072804981,1.50392072804981,2,2002
1,1996,1.1992733850505,1.1992733850505,2,2002
2,1996,1.23136637087509,1.23136637087509,2,2002
3,1996,1.61959287423619,1.61959287423619,2,2002
4,1996,1.65530474731046,1.65530474731046,2,2002
1,1997,1.77052685295709,1.77052685295709,2,2002
2,1997,2.17990126318901,2.17990126318901,2,2002
3,1997,2.27962801614849,2.27962801614849,2,2002
4,1997,3.14295070952728,3.14295070952728,2,2002
1,1998,3.72430835242852,3.72430835242852,2,2002
2,1998,2.98356479758797,2.98356479758797,2,2002
3,1998,2.86170056977668,2.86170056977668,2,2002
4,1998,1.93996031987655,1.93996031987655,2,2002
1,1999,1.97172054243522,1.97172054243522,2,2002
2,1999,2.1676848271168,2.1676848271168,2,2002
3,1999,2.77001305924234,2.77001305924234,2,2002
4,1999,3.65772444167425,3.65772444167425,2,2002
1,2000,3.60829080030316,3.60829080030316,2,2002
2,2000,3.89506933445867,3.89506933445867,2,2002
3,2000,3.18425782149581,3.18425782149581,2,2002
4,2000,2.79390293178814,2.79390293178814,2,2002
1,2001,2.43926168748287,2.43926168748287,2,2002
2,2001,1.6371818779656,1.6371818779656,2,2002
3,2001,1.42013611003595,1.42013611003595,2,2002
4,2001,0.604415753547705,0.604415753547705,2,2002
1,2002,1.28506032825438,1.11898343095171,2,2002
2,2002,1.69344707307838,1.62100948393542,2,2002
3,2002,1.89764044549038,2.08342846758182,2,2002
4,2002,1.96570490296105,2.47917493697392,2,2002
1,2003,,2.78118344719471,2,2002
2,2003,,2.96238855332718,2,2002
3,2003,,3.05299110639342,2,2002
4,2003,,3.0831919574155,2,2002
1,1992,2.60416565509014,2.60416565516823,3,2002
2,1992,1.69483516364901,1.69483516364901,3,2002
3,1992,1.5003179983567,1.5003179983567,3,2002
4,1992,0.379161274884532,0.379161274884532,3,2002
1,1993,-1.82852547007586,-1.82852547007586,3,2002
2,1993,-1.07106664459123,-1.07106664459123,3,2002
3,1993,-0.487805249297546,-0.487805249297546,3,2002
4,1993,0.113261745154647,0.113261745154647,3,2002
1,1994,1.74471709688453,1.74471709688453,3,2002
2,1994,2.22337579746048,2.22337579746048,3,2002
3,1994,2.48153565409692,2.48153565409692,3,2002
4,1994,2.977555366389,2.977555366389,3,2002
1,1995,2.57795914150281,2.57795914150281,3,2002
2,1995,2.70033497056312,2.70033497056312,3,2002
3,1995,2.14972220240766,2.14972220240766,3,2002
4,1995,1.5382684791617,1.5382684791617,3,2002
1,1996,1.20773498032429,1.20773498032429,3,2002
2,1996,1.27212632292391,1.27212632292391,3,2002
3,1996,1.62274974815808,1.62274974815808,3,2002
4,1996,1.58420400057115,1.58420400057115,3,2002
1,1997,1.77761732485102,1.77761732485102,3,2002
2,1997,2.181546962407,2.181546962407,3,2002
3,1997,2.27297543332736,2.27297543332736,3,2002
4,1997,3.14128842206241,3.14128842206241,3,2002
1,1998,3.64720513187078,3.64720513187078,3,2002
2,1998,2.96625523622482,2.96625523622482,3,2002
3,1998,2.88016993315796,2.88016993315796,3,2002
4,1998,2.01511320613279,2.01511320613279,3,2002
1,1999,2.01611282460215,2.01611282460215,3,2002
2,1999,2.22316014548805,2.22316014548805,3,2002
3,1999,2.88252849340576,2.88252849340576,3,2002
4,1999,3.7198700991677,3.7198700991677,3,2002
1,2000,3.81803027949681,3.81803027949681,3,2002
2,2000,4.06636623796626,4.06636623796626,3,2002
3,2000,3.26898138167109,3.26898138167109,3,2002
4,2000,2.92517510155497,2.92517510155497,3,2002
1,2001,2.50914103246001,2.50914103246001,3,2002
2,2001,1.64702061390634,1.64702061390634,3,2002
3,2001,1.32785434450915,1.32785434450915,3,2002
4,2001,0.343336914850378,0.343336914850378,3,2002
1,2002,0.0555928572273823,0.0555928572273815,3,2002
2,2002,1.75190209411298,1.81406269661216,3,2002
3,2002,2.60005671255577,2.58623011281194,3,2002
4,2002,2.88277491870337,2.72125639041078,3,2002
1,2003,,2.56830281399276,3,2002
2,2003,,2.47653066814195,3,2002
3,2003,,2.43064459521654,3,2002
4,2003,,2.41534923757474,3,2002
1,1992,2.52021779523565,2.52021779718825,4,2002
2,1992,1.68630338474201,1.68630338474201,4,2002
3,1992,1.52588210259412,1.52588210259412,4,2002
4,1992,0.444707665490895,0.444707665490895,4,2002
1,1993,-1.77060473725682,-1.77060473725682,4,2002
2,1993,-1.05608473842975,-1.05608473842975,4,2002
3,1993,-0.510797572021748,-0.510797572021748,4,2002
4,1993,0.0619252646201665,0.0619252646201663,4,2002
1,1994,1.71106827310312,1.71106827310312,4,2002
2,1994,2.20372394899291,2.20372394899291,4,2002
3,1994,2.52092623621152,2.52092623621152,4,2002
4,1994,2.99135350361432,2.99135350361432,4,2002
1,1995,2.58647020300888,2.58647020300888,4,2002
2,1995,2.68029816651747,2.68029816651747,4,2002
3,1995,2.15861318473665,2.15861318473665,4,2002
4,1995,1.54094423167843,1.54094423167843,4,2002
1,1996,1.2188985619777,1.2188985619777,4,2002
2,1996,1.27977929078857,1.27977929078857,4,2002
3,1996,1.62126219366552,1.62126219366552,4,2002
4,1996,1.56694483755622,1.56694483755622,4,2002
1,1997,1.76365957014393,1.76365957014393,4,2002
2,1997,2.18207081704789,2.18207081704789,4,2002
3,1997,2.28284695905432,2.28284695905432,4,2002
4,1997,3.14475143790121,3.14475143790121,4,2002
1,1998,3.66274614480191,3.66274614480191,4,2002
2,1998,2.92461050163755,2.92461050163755,4,2002
3,1998,2.83489770139904,2.83489770139904,4,2002
4,1998,2.08586712893173,2.08586712893173,4,2002
1,1999,2.08346090210756,2.08346090210756,4,2002
2,1999,2.23488746304157,2.23488746304157,4,2002
3,1999,2.97498957057698,2.97498957057698,4,2002
4,1999,3.81502344441382,3.81502344441382,4,2002
1,2000,3.81804694024375,3.81804694024375,4,2002
2,2000,4.13868879496748,4.13868879496748,4,2002
3,2000,3.2214140066315,3.2214140066315,4,2002
4,2000,2.74780820123262,2.74780820123262,4,2002
1,2001,2.43063586451757,2.43063586451757,4,2002
2,2001,1.60608830139986,1.60608830139986,4,2002
3,2001,1.36784813708195,1.36784813708195,4,2002
4,2001,0.418429340113802,0.418429340113802,4,2002
1,2002,0.265083109953013,0.265083109953013,4,2002
2,2002,0.567325039385258,0.567325039385258,4,2002
3,2002,1.51272014295623,1.49501092595974,4,2002
4,2002,1.82785184414656,1.86531459110386,4,2002
1,2003,,1.94165838646131,4,2002
2,2003,,1.98746466367578,4,2002
3,2003,,2.01036780228301,4,2002
4,2003,,2.01800218181876,4,2002
1,1992,2.52137503754825,2.52137503538661,1,2003
2,1992,1.6954783447688,1.6954783447688,1,2003
3,1992,1.52252105422286,1.52252105422286,1,2003
4,1992,0.422437430231004,0.422437430231004,1,2003
1,1993,-1.75413438684441,-1.75413438684441,1,2003
2,1993,-1.06500731746157,-1.06500731746157,1,2003
3,1993,-0.51415303197524,-0.51415303197524,1,2003
4,1993,0.0627445022164606,0.0627445022164608,1,2003
1,1994,1.69384582153365,1.69384582153365,1,2003
2,1994,2.20816999176203,2.20816999176203,1,2003
3,1994,2.53170606400892,2.53170606400892,1,2003
4,1994,2.98827502482839,2.98827502482839,1,2003
1,1995,2.63989264914863,2.63989264914863,1,2003
2,1995,2.65406615552839,2.65406615552839,1,2003
3,1995,2.14101129419404,2.14101129419404,1,2003
4,1995,1.50680129780394,1.50680129780394,1,2003
1,1996,1.18490406840031,1.18490406840031,1,2003
2,1996,1.26515108216556,1.26515108216556,1,2003
3,1996,1.61652558159542,1.61652558159542,1,2003
4,1996,1.63627059714087,1.63627059714087,1,2003
1,1997,1.73993899154175,1.73993899154175,1,2003
2,1997,2.19906133530794,2.19906133530794,1,2003
3,1997,2.29602948805909,2.29602948805909,1,2003
4,1997,3.1320322242425,3.1320322242425,1,2003
1,1998,3.67726995431843,3.67726995431843,1,2003
2,1998,2.93280912429379,2.93280912429379,1,2003
3,1998,2.84090621753783,2.84090621753783,1,2003
4,1998,2.10804281816939,2.10804281816939,1,2003
1,1999,2.13199757068467,2.13199757068467,1,2003
2,1999,2.28569495977684,2.28569495977684,1,2003
3,1999,3.02817436392822,3.02817436392822,1,2003
4,1999,3.80809613745523,3.80809613745523,1,2003
1,2000,3.85186163741771,3.85186163741771,1,2003
2,2000,4.13922699891252,4.13922699891252,1,2003
3,2000,3.1861188008051,3.1861188008051,1,2003
4,2000,2.7371771666731,2.7371771666731,1,2003
1,2001,2.36642992371561,2.36642992371561,1,2003
2,2001,1.54125721837002,1.54125721837002,1,2003
3,2001,1.34179451326606,1.34179451326606,1,2003
4,2001,0.45218075180451,0.45218075180451,1,2003
1,2002,0.348862833370189,0.348862833370189,1,2003
2,2002,0.683731524599218,0.683731524599218,1,2003
3,2002,0.833748933523948,0.833748933523948,1,2003
4,2002,1.22316303125522,1.12483979986298,1,2003
1,2003,1.52271233720235,1.41429998834979,1,2003
2,2003,1.70244192077062,1.70158593970033,1,2003
3,2003,1.79230671255476,1.96948967597077,1,2003
4,2003,1.82226164314947,2.2008032192173,1,2003
1,2004,,2.37831859149612,1,2003
2,2004,,2.48482781486342,1,2003
3,2004,,2.53808242654706,1,2003
4,2004,,2.55583396377494,1,2003
1,1992,2.5218483952623,2.52184840165709,2,2003
2,1992,1.694109775973,1.694109775973,2,2003
3,1992,1.52179809624577,1.52179809624577,2,2003
4,1992,0.424042621408249,0.424042621408249,2,2003
1,1993,-1.75121788091579,-1.75121788091579,2,2003
2,1993,-1.0647654509596,-1.0647654509596,2,2003
3,1993,-0.512119239688846,-0.512119239688846,2,2003
4,1993,0.057495943521868,0.057495943521868,2,2003
1,1994,1.68953280570914,1.68953280570914,2,2003
2,1994,2.21385533995593,2.21385533995593,2,2003
3,1994,2.52436539302201,2.52436539302201,2,2003
4,1994,2.99426167056243,2.99426167056243,2,2003
1,1995,2.64378920647494,2.64378920647494,2,2003
2,1995,2.65523503079126,2.65523503079126,2,2003
3,1995,2.14806064914466,2.14806064914466,2,2003
4,1995,1.51809306363897,1.51809306363897,2,2003
1,1996,1.18607118254475,1.18607118254475,2,2003
2,1996,1.26321112375662,1.26321112375662,2,2003
3,1996,1.61678803444556,1.61678803444556,2,2003
4,1996,1.63244360999999,1.63244360999999,2,2003
1,1997,1.74128899226369,1.74128899226369,2,2003
2,1997,2.20318851684531,2.20318851684531,2,2003
3,1997,2.29931579513458,2.29931579513458,2,2003
4,1997,3.13066217354305,3.13066217354305,2,2003
1,1998,3.66590570138454,3.66590570138454,2,2003
2,1998,2.92274445011387,2.92274445011387,2,2003
3,1998,2.83279689791951,2.83279689791951,2,2003
4,1998,2.10041691764922,2.10041691764922,2,2003
1,1999,2.13055935624047,2.13055935624047,2,2003
2,1999,2.28500514563119,2.28500514563119,2,2003
3,1999,3.0325323560394,3.0325323560394,2,2003
4,1999,3.79707489492014,3.79707489492014,2,2003
1,2000,3.87031539364007,3.87031539364007,2,2003
2,2000,4.15154987725586,4.15154987725586,2,2003
3,2000,3.24388387182653,3.24388387182653,2,2003
4,2000,2.76481742143948,2.76481742143948,2,2003
1,2001,2.40665230130559,2.40665230130559,2,2003
2,2001,1.5740004217361,1.5740004217361,2,2003
3,2001,1.2828736432025,1.2828736432025,2,2003
4,2001,0.455394106486118,0.455394106486118,2,2003
1,2002,0.295599011929038,0.295599011929038,2,2003
2,2002,0.632130518840013,0.632130518840013,2,2003
3,2002,0.879973408593071,0.879973408593071,2,2003
4,2002,1.28042137908442,1.28042137908442,2,2003
1,2003,1.09878833885953,0.825519814415122,2,2003
2,2003,0.989808514724601,0.870666914652345,2,2003
3,2003,0.935318602657136,1.24114925746964,2,2003
4,2003,0.917155298634647,1.76225342054058,2,2003
1,2004,,2.2592659815387,2,2003
2,2004,,2.55747351813758,2,2003
3,2004,,2.70657728643702,2,2003
4,2004,,2.75627854253683,2,2003
1,1992,2.53091852636331,2.53091852636331,3,2003
2,1992,1.68024770724169,1.68024770724169,3,2003
3,1992,1.53223995627096,1.53223995627096,3,2003
4,1992,0.418440506307927,0.418440506307927,3,2003
1,1993,-1.75411057063175,-1.75411057063175,3,2003
2,1993,-1.0762054641583,-1.0762054641583,3,2003
3,1993,-0.497364589693294,-0.497364589693294,3,2003
4,1993,0.0572009996673951,0.0572009996673948,3,2003
1,1994,1.66208721569292,1.66208721569292,3,2003
2,1994,2.24500330241435,2.24500330241435,3,2003
3,1994,2.49783200634239,2.49783200634239,3,2003
4,1994,3.01706001805004,3.01706001805004,3,2003
1,1995,2.66514733685683,2.66514733685683,3,2003
2,1995,2.64240839827543,2.64240839827543,3,2003
3,1995,2.16497692245259,2.16497692245259,3,2003
4,1995,1.49415427185338,1.49415427185338,3,2003
1,1996,1.20776222813834,1.20776222813834,3,2003
2,1996,1.25009520878989,1.25009520878989,3,2003
3,1996,1.59466475636438,1.59466475636438,3,2003
4,1996,1.6421016042943,1.6421016042943,3,2003
1,1997,1.696634451985,1.696634451985,3,2003
2,1997,2.24527954010572,2.24527954010572,3,2003
3,1997,2.31024805506839,2.31024805506839,3,2003
4,1997,3.12840858945687,3.12840858945687,3,2003
1,1998,3.69301215329034,3.69301215329034,3,2003
2,1998,2.91290416044898,2.91290416044898,3,2003
3,1998,2.82909927923516,2.82909927923516,3,2003
4,1998,2.08043579395787,2.08043579395787,3,2003
1,1999,2.1404497072699,2.1404497072699,3,2003
2,1999,2.28996263746342,2.28996263746342,3,2003
3,1999,3.03505780862401,3.03505780862401,3,2003
4,1999,3.8143796955961,3.8143796955961,3,2003
1,2000,3.89790377718173,3.89790377718173,3,2003
2,2000,4.15540944764012,4.15540944764012,3,2003
3,2000,3.2147277456406,3.2147277456406,3,2003
4,2000,2.76883546635942,2.76883546635942,3,2003
1,2001,2.40437219090883,2.40437219090883,3,2003
2,2001,1.59900045579822,1.59900045579822,3,2003
3,2001,1.38003815864227,1.38003815864227,3,2003
4,2001,0.567910799298388,0.567910799298388,3,2003
1,2002,0.396211004649549,0.396211004649549,3,2003
2,2002,0.788591243768488,0.788591243768488,3,2003
3,2002,0.955231361538877,0.955231361538878,3,2003
4,2002,1.20415062279278,1.20415062279278,3,2003
1,2003,0.790072977340728,0.790072977340728,3,2003
2,2003,0.295149250169454,-0.091996899224983,3,2003
3,2003,0.0476873865838168,0.133817394157497,3,2003
4,2003,-0.0347999012780623,0.971202232902517,3,2003
1,2004,,1.92384399242443,3,2003
2,2004,,2.49542904813757,3,2003
3,2004,,2.78122157599414,3,2003
4,2004,,2.87648575194633,3,2003
1,1992,2.68936877093335,2.68936876911457,4,2003
2,1992,1.6761753651416,1.6761753651416,4,2003
3,1992,1.47627068559584,1.47627068559584,4,2003
4,1992,0.280630453756192,0.280630453756192,4,2003
1,1993,-1.83494826044375,-1.83494826044375,4,2003
2,1993,-1.0840748365327,-1.0840748365327,4,2003
3,1993,-0.457195799074828,-0.457195799074828,4,2003
4,1993,0.101918545212953,0.101918545212953,4,2003
1,1994,1.66021259422988,1.66021259422988,4,2003
2,1994,2.2371269970717,2.2371269970717,4,2003
3,1994,2.50962922131519,2.50962922131519,4,2003
4,1994,3.01499817969881,3.01499817969881,4,2003
1,1995,2.60620261329261,2.60620261329261,4,2003
2,1995,2.60011087549845,2.60011087549845,4,2003
3,1995,2.15474341774395,2.15474341774395,4,2003
4,1995,1.55448191717289,1.55448191717289,4,2003
1,1996,1.24350584768855,1.24350584768855,4,2003
2,1996,1.30505992851908,1.30505992851908,4,2003
3,1996,1.6067503840846,1.6067503840846,4,2003
4,1996,1.53632430594679,1.53632430594679,4,2003
1,1997,1.5878402878386,1.5878402878386,4,2003
2,1997,2.20682138364423,2.20682138364423,4,2003
3,1997,2.35445158848304,2.35445158848304,4,2003
4,1997,3.22100985098039,3.22100985098039,4,2003
1,1998,3.7749207050565,3.7749207050565,4,2003
2,1998,2.91602553789136,2.91602553789136,4,2003
3,1998,2.78586099156704,2.78586099156704,4,2003
4,1998,2.05250328892519,2.05250328892519,4,2003
1,1999,2.12064772789817,2.12064772789817,4,2003
2,1999,2.31023172537825,2.31023172537825,4,2003
3,1999,3.03519926999274,3.03519926999274,4,2003
4,1999,3.81136838539171,3.81136838539171,4,2003
1,2000,3.90169150283084,3.90169150283084,4,2003
2,2000,4.15329838347918,4.15329838347918,4,2003
3,2000,3.19983396379284,3.19983396379284,4,2003
4,2000,2.74892204261688,2.74892204261688,4,2003
1,2001,2.47163486743003,2.47163486743003,4,2003
2,2001,1.63777812319812,1.63777812319812,4,2003
3,2001,1.47934090978024,1.47934090978024,4,2003
4,2001,0.773401954992048,0.773401954992048,4,2003
1,2002,0.440405107472031,0.440405107472031,4,2003
2,2002,0.888880373626644,0.888880373626644,4,2003
3,2002,0.945829478930893,0.945829478930893,4,2003
4,2002,1.11001090257452,1.11001090257452,4,2003
1,2003,0.787520801401098,0.787520801401098,4,2003
2,2003,0.233006377892897,0.233006377892897,4,2003
3,2003,-0.752343388866414,-1.23236035986571,4,2003
4,2003,-1.08079331111952,-0.0768842130643623,4,2003
1,2004,,1.97803044450341,4,2003
2,2004,,3.21097923904408,4,2003
3,2004,,3.82745363631441,4,2003
4,2004,,4.03294510207119,4,2003
1,1992,2.72957601312531,2.72957601312531,1,2004
2,1992,1.65281648758533,1.65281648758533,1,2004
3,1992,1.45372304444866,1.45372304444866,1,2004
4,1992,0.239146870716511,0.239146870716511,1,2004
1,1993,-1.83870163790292,-1.83870163790292,1,2004
2,1993,-1.08162917371072,-1.08162917371072,1,2004
3,1993,-0.464841627249679,-0.464841627249679,1,2004
4,1993,0.0584977143521347,0.058497714352135,1,2004
1,1994,1.66448366483518,1.66448366483518,1,2004
2,1994,2.24481815350017,2.24481815350017,1,2004
3,1994,2.52522381179561,2.52522381179561,1,2004
4,1994,3.05217551699293,3.05217551699293,1,2004
1,1995,2.61808642599883,2.61808642599883,1,2004
2,1995,2.59782940879845,2.59782940879845,1,2004
3,1995,2.13999994531804,2.13999994531804,1,2004
4,1995,1.57072602913964,1.57072602913964,1,2004
1,1996,1.1605337605902,1.1605337605902,1,2004
2,1996,1.31014305808923,1.31014305808923,1,2004
3,1996,1.64424072850529,1.64424072850529,1,2004
4,1996,1.5712484838216,1.5712484838216,1,2004
1,1997,1.66566052793864,1.66566052793864,1,2004
2,1997,2.17424488066926,2.17424488066926,1,2004
3,1997,2.32666530446619,2.32666530446619,1,2004
4,1997,3.18933894543303,3.18933894543303,1,2004
1,1998,3.77910976561198,3.77910976561198,1,2004
2,1998,2.93253927413875,2.93253927413875,1,2004
3,1998,2.7818524406146,2.7818524406146,1,2004
4,1998,2.02887147814237,2.02887147814237,1,2004
1,1999,2.122284881827,2.122284881827,1,2004
2,1999,2.29858958087659,2.29858958087659,1,2004
3,1999,3.01352255205725,3.01352255205725,1,2004
4,1999,3.82713005443442,3.82713005443442,1,2004
1,2000,3.87864827208295,3.87864827208295,1,2004
2,2000,4.18537217337136,4.18537217337136,1,2004
3,2000,3.2360013566137,3.2360013566137,1,2004
4,2000,2.78248684427835,2.78248684427835,1,2004
1,2001,2.50248167223301,2.50248167223301,1,2004
2,2001,1.64457248366814,1.64457248366814,1,2004
3,2001,1.515111592942,1.515111592942,1,2004
4,2001,0.761884128956036,0.761884128956036,1,2004
1,2002,0.468200364040827,0.468200364040827,1,2004
2,2002,0.938577275549668,0.938577275549668,1,2004
3,2002,0.967306236206666,0.967306236206666,1,2004
4,2002,1.10778698848755,1.10778698848755,1,2004
1,2003,0.707433930989398,0.707433930989398,1,2004
2,2003,0.11184984234347,0.11184984234347,1,2004
3,2003,0.273331011667421,0.273331011667422,1,2004
4,2003,1.2829521821917,1.39969692316245,1,2004
1,2004,2.05958385182576,2.18830905951373,1,2004
2,2004,2.5255628536062,2.52658282900666,1,2004
3,2004,2.75855235449642,2.5481799346555,1,2004
4,2004,2.83621552145983,2.38676207947449,1,2004
1,2005,,2.17599096647788,1,2004
2,2005,,2.04952829867991,1,2004
3,2005,,1.98629696478093,1,2004
4,2005,,1.96521985348127,1,2004
1,1992,2.72631523699615,2.72631524217128,2,2004
2,1992,1.65380012670266,1.65380012670266,2,2004
3,1992,1.45379929660925,1.45379929660925,2,2004
4,1992,0.241277297313846,0.241277297313847,2,2004
1,1993,-1.83694334932075,-1.83694334932075,2,2004
2,1993,-1.08318699025662,-1.08318699025662,2,2004
3,1993,-0.466196456179036,-0.466196456179036,2,2004
4,1993,0.0596219113680353,0.0596219113680352,2,2004
1,1994,1.66375747257153,1.66375747257153,2,2004
2,1994,2.2439098298926,2.2439098298926,2,2004
3,1994,2.52767680274324,2.52767680274324,2,2004
4,1994,3.05134426178419,3.05134426178419,2,2004
1,1995,2.61838861119947,2.61838861119947,2,2004
2,1995,2.60041188733393,2.60041188733393,2,2004
3,1995,2.13779997347368,2.13779997347368,2,2004
4,1995,1.57009128934178,1.57009128934178,2,2004
1,1996,1.16245144864104,1.16245144864104,2,2004
2,1996,1.30813980305808,1.30813980305808,2,2004
3,1996,1.64409842269355,1.64409842269355,2,2004
4,1996,1.57160782716457,1.57160782716457,2,2004
1,1997,1.66476770945923,1.66476770945923,2,2004
2,1997,2.17483280984476,2.17483280984476,2,2004
3,1997,2.32648504439676,2.32648504439676,2,2004
4,1997,3.1896804342894,3.1896804342894,2,2004
1,1998,3.77785923838663,3.77785923838663,2,2004
2,1998,2.93163111857033,2.93163111857033,2,2004
3,1998,2.78153050769407,2.78153050769407,2,2004
4,1998,2.03130342281668,2.03130342281668,2,2004
1,1999,2.12430254435163,2.12430254435163,2,2004
2,1999,2.29873366627562,2.29873366627562,2,2004
3,1999,3.01476773120666,3.01476773120666,2,2004
4,1999,3.82372497679013,3.82372497679013,2,2004
1,2000,3.85583163781815,3.85583163781815,2,2004
2,2000,4.17662526707463,4.17662526707463,2,2004
3,2000,3.20972792279961,3.20972792279961,2,2004
4,2000,2.75209656679862,2.75209656679862,2,2004
1,2001,2.49358013947243,2.49358013947243,2,2004
2,2001,1.63595197709399,1.63595197709399,2,2004
3,2001,1.50679990512603,1.50679990512603,2,2004
4,2001,0.755599835000909,0.755599835000909,2,2004
1,2002,0.458564789734117,0.458564789734117,2,2004
2,2002,0.926461113759913,0.926461113759913,2,2004
3,2002,0.979454142340663,0.979454142340663,2,2004
4,2002,1.11442006431546,1.11442006431546,2,2004
1,2003,0.719184980081011,0.719184980081011,2,2004
2,2003,0.129074088797987,0.129074088797987,2,2004
3,2003,0.285029694200434,0.285029694200434,2,2004
4,2003,0.593637950674153,0.593637950674153,2,2004
1,2004,1.79716188871012,1.98887808316186,2,2004
2,2004,2.51927625153171,2.60287965254531,2,2004
3,2004,2.8803334329425,2.66581831680512,2,2004
4,2004,3.0006858267461,2.40786973392191,2,2004
1,2005,,2.05920956187632,2,2004
2,2005,,1.85001345864897,2,2004
3,2005,,1.74541540703529,2,2004
4,2005,,1.71054938983073,2,2004
1,1992,2.75090551994681,2.7509055177206,3,2004
2,1992,1.66459914726169,1.66459914726169,3,2004
3,1992,1.40792487873105,1.40792487873105,3,2004
4,1992,0.251755666862818,0.251755666862818,3,2004
1,1993,-1.9120041362538,-1.9120041362538,3,2004
2,1993,-1.08419619731759,-1.08419619731759,3,2004
3,1993,-0.39515764782806,-0.395157647828059,3,2004
4,1993,0.0657558037237883,0.0657558037237879,3,2004
1,1994,1.68582119589304,1.68582119589304,3,2004
2,1994,2.243307389841,2.243307389841,3,2004
3,1994,2.50683829965508,2.50683829965508,3,2004
4,1994,3.05031075979296,3.05031075979296,3,2004
1,1995,2.65881689581018,2.65881689581018,3,2004
2,1995,2.59563578185258,2.59563578185258,3,2004
3,1995,2.10776078903077,2.10776078903077,3,2004
4,1995,1.5651653876396,1.5651653876396,3,2004
1,1996,1.18528931125472,1.18528931125472,3,2004
2,1996,1.326758229156,1.326758229156,3,2004
3,1996,1.62834520394126,1.62834520394126,3,2004
4,1996,1.5461825093998,1.5461825093998,3,2004
1,1997,1.60101203587264,1.60101203587264,3,2004
2,1997,2.15040165293632,2.15040165293632,3,2004
3,1997,2.37149138506989,2.37149138506989,3,2004
4,1997,3.23226740337057,3.23226740337057,3,2004
1,1998,3.78378709053064,3.78378709053064,3,2004
2,1998,2.94435001248243,2.94435001248243,3,2004
3,1998,2.77811144280471,2.77811144280471,3,2004
4,1998,2.01682571965087,2.01682571965087,3,2004
1,1999,2.11739338556298,2.11739338556298,3,2004
2,1999,2.30668913164755,2.30668913164755,3,2004
3,1999,3.0047058115783,3.0047058115783,3,2004
4,1999,3.83267587121223,3.83267587121223,3,2004
1,2000,3.88320452899369,3.88320452899369,3,2004
2,2000,4.137619228635,4.137619228635,3,2004
3,2000,3.22847665332704,3.22847665332704,3,2004
4,2000,2.74394853339992,2.74394853339992,3,2004
1,2001,2.4907307534765,2.4907307534765,3,2004
2,2001,1.65340312081543,1.65340312081543,3,2004
3,2001,1.52931626950983,1.52931626950983,3,2004
4,2001,0.720121732199464,0.720121732199464,3,2004
1,2002,0.4819563998534,0.4819563998534,3,2004
2,2002,0.938385086081261,0.938385086081261,3,2004
3,2002,0.908195263121936,0.908195263121936,3,2004
4,2002,1.14332714378822,1.14332714378822,3,2004
1,2003,0.712877826903968,0.712877826903968,3,2004
2,2003,0.141426411534385,0.141426411534384,3,2004
3,2003,0.35434702799475,0.35434702799475,3,2004
4,2003,0.693190648826869,0.693190648826869,3,2004
1,2004,1.27928787919036,1.27928787919036,3,2004
2,2004,2.9310047645191,3.34386744153864,3,2004
3,2004,3.75686320718347,3.665717433019,3,2004
4,2004,4.03214935473826,2.96106957529099,3,2004
1,2005,,1.94615559001415,3,2004
2,2005,,1.33720719884805,3,2004
3,2005,,1.032733003265,3,2004
4,2005,,0.93124160473732,3,2004
1,1992,2.78767883958968,2.78767884153819,4,2004
2,1992,1.68099821527705,1.68099821527705,4,2004
3,1992,1.39425070342785,1.39425070342785,4,2004
4,1992,0.213529240688914,0.213529240688914,4,2004
1,1993,-1.92452748738204,-1.92452748738204,4,2004
2,1993,-1.09219273384655,-1.09219273384655,4,2004
3,1993,-0.398207354542424,-0.398207354542424,4,2004
4,1993,0.089638011109372,0.089638011109372,4,2004
1,1994,1.69712136039186,1.69712136039186,4,2004
2,1994,2.24495909124247,2.24495909124247,4,2004
3,1994,2.5215516081992,2.5215516081992,4,2004
4,1994,3.02262001093687,3.02262001093687,4,2004
1,1995,2.69513755953035,2.69513755953035,4,2004
2,1995,2.61521387629533,2.61521387629533,4,2004
3,1995,2.0621302796854,2.0621302796854,4,2004
4,1995,1.55551891077079,1.55551891077079,4,2004
1,1996,1.1411662304736,1.1411662304736,4,2004
2,1996,1.31147647623759,1.31147647623759,4,2004
3,1996,1.66361720444841,1.66361720444841,4,2004
4,1996,1.57010049152844,1.57010049152844,4,2004
1,1997,1.61346443373975,1.61346443373975,4,2004
2,1997,2.15260978576759,2.15260978576759,4,2004
3,1997,2.35998929089087,2.35998929089087,4,2004
4,1997,3.22923180861956,3.22923180861956,4,2004
1,1998,3.7772852953504,3.7772852953504,4,2004
2,1998,2.95563840964224,2.95563840964224,4,2004
3,1998,2.78460666669678,2.78460666669678,4,2004
4,1998,2.00552774346054,2.00552774346054,4,2004
1,1999,2.10061662416676,2.10061662416676,4,2004
2,1999,2.28107724340019,2.28107724340019,4,2004
3,1999,3.0147761448303,3.0147761448303,4,2004
4,1999,3.8648076191641,3.8648076191641,4,2004
1,2000,3.90828178948803,3.90828178948803,4,2004
2,2000,4.18007502207012,4.18007502207012,4,2004
3,2000,3.21998403024739,3.21998403024739,4,2004
4,2000,2.68682973180787,2.68682973180787,4,2004
1,2001,2.52253092036683,2.52253092036683,4,2004
2,2001,1.60451088037177,1.60451088037177,4,2004
3,2001,1.49454252334518,1.49454252334518,4,2004
4,2001,0.761794752862532,0.761794752862532,4,2004
1,2002,0.447118571170013,0.447118571170013,4,2004
2,2002,0.860674328243194,0.860674328243194,4,2004
3,2002,0.915290610483566,0.915290610483566,4,2004
4,2002,1.12880004437033,1.12880004437033,4,2004
1,2003,0.717366360534522,0.717366360534522,4,2004
2,2003,0.148609526666621,0.148609526666621,4,2004
3,2003,0.342455814751452,0.342455814751452,4,2004
4,2003,0.670906476385969,0.670906476385969,4,2004
1,2004,1.30825630619933,1.30825630619933,4,2004
2,2004,2.00737491708991,2.00737491708991,4,2004
3,2004,5.01664322434059,5.68660313880434,4,2004
4,2004,6.01973266009081,4.64835617316104,4,2004
1,2005,,1.81753570705924,4,2004
2,2005,,0.119043427398153,4,2004
3,2005,,-0.73020271243239,4,2004
4,2005,,-1.01328475904257,4,2004
1,1992,2.79207221520498,2.79207222108218,1,2005
2,1992,1.68745836662081,1.68745836662081,1,2005
3,1992,1.41534019329328,1.41534019329328,1,2005
4,1992,0.191262899408296,0.191262899408295,1,2005
1,1993,-1.91878049337205,-1.91878049337205,1,2005
2,1993,-1.09377320170586,-1.09377320170586,1,2005
3,1993,-0.425178831753703,-0.425178831753703,1,2005
4,1993,0.103849703728675,0.103849703728676,1,2005
1,1994,1.69300439690991,1.69300439690991,1,2005
2,1994,2.24696774279567,2.24696774279567,1,2005
3,1994,2.55088311342633,2.55088311342633,1,2005
4,1994,3.00338012410366,3.00338012410366,1,2005
1,1995,2.71940186612905,2.71940186612905,1,2005
2,1995,2.62281600505394,2.62281600505394,1,2005
3,1995,2.04971281270185,2.04971281270185,1,2005
4,1995,1.57417471566648,1.57417471566648,1,2005
1,1996,1.16234744793144,1.16234744793144,1,2005
2,1996,1.34680937977651,1.34680937977651,1,2005
3,1996,1.6801669796473,1.6801669796473,1,2005
4,1996,1.58302228243796,1.58302228243796,1,2005
1,1997,1.63825256375909,1.63825256375909,1,2005
2,1997,2.15554944700509,2.15554944700509,1,2005
3,1997,2.34836600013695,2.34836600013695,1,2005
4,1997,3.2358518847873,3.2358518847873,1,2005
1,1998,3.7452166196887,3.7452166196887,1,2005
2,1998,2.92945379582827,2.92945379582827,1,2005
3,1998,2.80437822530661,2.80437822530661,1,2005
4,1998,2.00908534593443,2.00908534593443,1,2005
1,1999,2.13100802628157,2.13100802628157,1,2005
2,1999,2.30669207129812,2.30669207129812,1,2005
3,1999,3.00970086319479,3.00970086319479,1,2005
4,1999,3.89411451167851,3.89411451167851,1,2005
1,2000,3.89183888545055,3.89183888545055,1,2005
2,2000,4.2024869455517,4.2024869455517,1,2005
3,2000,3.26860704939773,3.26860704939773,1,2005
4,2000,2.68819820157251,2.68819820157251,1,2005
1,2001,2.55042152953096,2.55042152953096,1,2005
2,2001,1.62548495942534,1.62548495942534,1,2005
3,2001,1.47277712001499,1.47277712001499,1,2005
4,2001,0.781537551141409,0.781537551141409,1,2005
1,2002,0.477376693650577,0.477376693650577,1,2005
2,2002,0.866638976871581,0.866638976871581,1,2005
3,2002,0.97026061917771,0.97026061917771,1,2005
4,2002,1.13518660129075,1.13518660129075,1,2005
1,2003,0.716316329474998,0.716316329474998,1,2005
2,2003,0.163618270106802,0.163618270106802,1,2005
3,2003,0.399356117003546,0.399356117003546,1,2005
4,2003,0.785460865391197,0.785460865391197,1,2005
1,2004,1.41283759209292,1.41283759209292,1,2005
2,2004,2.06622884804639,2.06622884804639,1,2005
3,2004,1.79691370290476,1.79691370290476,1,2005
4,2004,1.77675949527283,1.699721994451,1,2005
1,2005,1.76125625863289,1.6763162534022,1,2005
2,2005,1.75195431664892,1.75129180222666,1,2005
3,2005,1.74730334565694,1.88614410072893,1,2005
4,2005,1.74575302199294,2.04236860871354,1,2005
1,2006,,2.18146078598502,1,2005
2,2006,,2.26491609234791,1,2005
3,2006,,2.30664374552935,1,2005
4,2006,,2.3205529632565,1,2005
1,1992,2.62336295665249,2.62336296619132,2,2005
2,1992,1.44154144981814,1.44154144981814,2,2005
3,1992,1.16447330090543,1.16447330090543,2,2005
4,1992,0.00735595780654297,0.00735595780654297,2,2005
1,1993,-1.96670056379625,-1.96670056379625,2,2005
2,1993,-1.05225712766713,-1.05225712766713,2,2005
3,1993,-0.344252142368429,-0.344252142368429,2,2005
4,1993,0.177732448587231,0.177732448587231,2,2005
1,1994,1.72282797318499,1.72282797318499,2,2005
2,1994,2.25341995002692,2.25341995002692,2,2005
3,1994,2.5536566810709,2.5536566810709,2,2005
4,1994,3.02818604384623,3.02818604384623,2,2005
1,1995,2.79177465048375,2.79177465048375,2,2005
2,1995,2.70948069890218,2.70948069890218,2,2005
3,1995,2.12800914862155,2.12800914862155,2,2005
4,1995,1.61692178937469,1.61692178937469,2,2005
1,1996,1.14181591962059,1.14181591962059,2,2005
2,1996,1.29686023825017,1.29686023825017,2,2005
3,1996,1.63469714059219,1.63469714059219,2,2005
4,1996,1.56346076642706,1.56346076642706,2,2005
1,1997,1.6772844330331,1.6772844330331,2,2005
2,1997,2.22715586765323,2.22715586765323,2,2005
3,1997,2.41460441175909,2.41460441175909,2,2005
4,1997,3.27029426143146,3.27029426143146,2,2005
1,1998,3.71466391146551,3.71466391146551,2,2005
2,1998,2.85011232440393,2.85011232440393,2,2005
3,1998,2.70201371574685,2.70201371574685,2,2005
4,1998,1.89153430106113,1.89153430106113,2,2005
1,1999,2.01024643298731,2.01024643298731,2,2005
2,1999,2.20443982713532,2.20443982713532,2,2005
3,1999,2.94295805066793,2.94295805066793,2,2005
4,1999,3.89408676653549,3.89408676653549,2,2005
1,2000,3.99437446827549,3.99437446827549,2,2005
2,2000,4.35076810841208,4.35076810841208,2,2005
3,2000,3.42093270071988,3.42093270071988,2,2005
4,2000,2.82295589192014,2.82295589192014,2,2005
1,2001,2.61713219425301,2.61713219425301,2,2005
2,2001,1.65995494031523,1.65995494031523,2,2005
3,2001,1.49327773942041,1.49327773942041,2,2005
4,2001,0.78444622457754,0.78444622457754,2,2005
1,2002,0.501311947838823,0.501311947838823,2,2005
2,2002,0.88873442846551,0.88873442846551,2,2005
3,2002,0.998069780967659,0.998069780967659,2,2005
4,2002,1.16331397841924,1.16331397841924,2,2005
1,2003,0.704744064740881,0.704744064740881,2,2005
2,2003,0.165139721789687,0.165139721789687,2,2005
3,2003,0.421439639475785,0.421439639475785,2,2005
4,2003,0.839190160876835,0.839190160876835,2,2005
1,2004,1.56444010088688,1.56444010088688,2,2005
2,2004,2.20721240440198,2.20721240440198,2,2005
3,2004,1.88646575678584,1.88646575678584,2,2005
4,2004,1.61138733440265,1.61138733440265,2,2005
1,2005,1.4800387719533,1.32972800398025,2,2005
2,2005,1.40122963448368,1.33571316536361,2,2005
3,2005,1.36182506574888,1.53009095190804,2,2005
4,2005,1.34869020950394,1.81360949696884,2,2005
1,2006,,2.08701693390133,2,2005
2,2006,,2.25106139606083,2,2005
3,2006,,2.33308362714058,2,2005
4,2006,,2.36042437083382,2,2005
1,1992,2.36592462947489,2.36592462947489,3,2005
2,1992,1.60828642592121,1.60828642592121,3,2005
3,1992,1.38316590741399,1.38316590741399,3,2005
4,1992,0.146798935078762,0.146798935078762,3,2005
1,1993,-1.78932027902284,-1.78932027902284,3,2005
2,1993,-1.01863914192087,-1.01863914192087,3,2005
3,1993,-0.413067015302337,-0.413067015302337,3,2005
4,1993,0.162834236763487,0.162834236763487,3,2005
1,1994,1.78993973634019,1.78993973634019,3,2005
2,1994,2.35272683677079,2.35272683677079,3,2005
3,1994,2.69492399546942,2.69492399546942,3,2005
4,1994,3.1881962407285,3.1881962407285,3,2005
1,1995,2.99107730535784,2.99107730535784,3,2005
2,1995,2.93308184023171,2.93308184023171,3,2005
3,1995,2.39214972744339,2.39214972744339,3,2005
4,1995,1.75602885557853,1.75602885557853,3,2005
1,1996,1.24822750465072,1.24822750465072,3,2005
2,1996,1.35708448599774,1.35708448599774,3,2005
3,1996,1.58782557789585,1.58782557789585,3,2005
4,1996,1.64387680916249,1.64387680916249,3,2005
1,1997,1.91215168708565,1.91215168708565,3,2005
2,1997,2.42077009076676,2.42077009076676,3,2005
3,1997,2.63273266762312,2.63273266762312,3,2005
4,1997,3.46775229731924,3.46775229731924,3,2005
1,1998,3.8467354109855,3.8467354109855,3,2005
2,1998,2.90539741068372,2.90539741068372,3,2005
3,1998,2.72448598321977,2.72448598321977,3,2005
4,1998,1.8187806558343,1.8187806558343,3,2005
1,1999,1.91827110353455,1.91827110353455,3,2005
2,1999,2.15530837703213,2.15530837703213,3,2005
3,1999,2.87480788251004,2.87480788251004,3,2005
4,1999,3.96605151224794,3.96605151224794,3,2005
1,2000,4.10056801269301,4.10056801269301,3,2005
2,2000,4.39848585716001,4.39848585716001,3,2005
3,2000,3.58244788165572,3.58244788165572,3,2005
4,2000,3.04353354032116,3.04353354032116,3,2005
1,2001,2.70720537113636,2.70720537113636,3,2005
2,2001,1.89692710789127,1.89692710789127,3,2005
3,2001,1.63753960164519,1.63753960164519,3,2005
4,2001,0.924059678153255,0.924059678153255,3,2005
1,2002,0.590586886469313,0.590586886469313,3,2005
2,2002,0.890664358425974,0.890664358425974,3,2005
3,2002,1.11606377468112,1.11606377468112,3,2005
4,2002,1.20898564966254,1.20898564966254,3,2005
1,2003,0.896363754402607,0.896363754402607,3,2005
2,2003,0.392540231045002,0.392540231045002,3,2005
3,2003,0.501020947789765,0.501020947789765,3,2005
4,2003,0.920581930900277,0.920581930900277,3,2005
1,2004,1.53511831717894,1.53511831717894,3,2005
2,2004,2.06920738740215,2.06920738740215,3,2005
3,2004,1.82895875218057,1.82895875218057,3,2005
4,2004,1.50491618524564,1.50491618524564,3,2005
1,2005,1.34829079979533,1.34829079979533,3,2005
2,2005,1.08557090770386,0.883510334437202,3,2005
3,2005,0.954210961658127,0.999622529074172,3,2005
4,2005,0.910424312976216,1.43661508231434,3,2005
1,2006,,1.93447569276582,3,2005
2,2006,,2.2331920590367,3,2005
3,2006,,2.38255024217215,3,2005
4,2006,,2.43233630321729,3,2005
1,1992,2.63173399549973,2.63173399538757,4,2005
2,1992,1.93099935922951,1.93099935922951,4,2005
3,1992,1.62464935562712,1.62464935562712,4,2005
4,1992,0.165119454401253,0.165119454401253,4,2005
1,1993,-2.14824383287778,-2.14824383287778,4,2005
2,1993,-1.54374781680254,-1.54374781680254,4,2005
3,1993,-0.922058580103957,-0.922058580103957,4,2005
4,1993,-0.137863091200896,-0.137863091200896,4,2005
1,1994,1.92456692370975,1.92456692370975,4,2005
2,1994,2.70684559987893,2.70684559987893,4,2005
3,1994,3.14674315465973,3.14674315465973,4,2005
4,1994,3.5779919131073,3.5779919131073,4,2005
1,1995,3.17346856910321,3.17346856910321,4,2005
2,1995,3.01216124010235,3.01216124010235,4,2005
3,1995,2.40460711282797,2.40460711282797,4,2005
4,1995,1.74063350256928,1.74063350256928,4,2005
1,1996,1.22222245272192,1.22222245272192,4,2005
2,1996,1.355895262772,1.355895262772,4,2005
3,1996,1.58013014383478,1.58013014383478,4,2005
4,1996,1.64051943603425,1.64051943603425,4,2005
1,1997,1.92529674931092,1.92529674931092,4,2005
2,1997,2.41415974320387,2.41415974320387,4,2005
3,1997,2.62525146092001,2.62525146092001,4,2005
4,1997,3.46428788147595,3.46428788147595,4,2005
1,1998,3.83005044064304,3.83005044064304,4,2005
2,1998,2.89625061347447,2.89625061347447,4,2005
3,1998,2.72800182209656,2.72800182209656,4,2005
4,1998,1.82059146306561,1.82059146306561,4,2005
1,1999,1.88080184570283,1.88080184570283,4,2005
2,1999,2.14547881747555,2.14547881747555,4,2005
3,1999,2.90264398715543,2.90264398715543,4,2005
4,1999,3.99775943984348,3.99775943984348,4,2005
1,2000,4.16160731083293,4.16160731083293,4,2005
2,2000,4.44274619745004,4.44274619745004,4,2005
3,2000,3.56122157963124,3.56122157963124,4,2005
4,2000,2.95990744665107,2.95990744665107,4,2005
1,2001,2.64194412992327,2.64194412992327,4,2005
2,2001,1.8091526231103,1.8091526231103,4,2005
3,2001,1.56153261997769,1.56153261997769,4,2005
4,2001,0.93561919578522,0.93561919578522,4,2005
1,2002,0.51292065423163,0.51292065423163,4,2005
2,2002,0.827596815360265,0.827596815360265,4,2005
3,2002,1.04548231944241,1.04548231944241,4,2005
4,2002,1.13997178777763,1.13997178777763,4,2005
1,2003,0.897939257821823,0.897939257821823,4,2005
2,2003,0.379055119271721,0.379055119271721,4,2005
3,2003,0.564220216638445,0.564220216638445,4,2005
4,2003,0.941232974347539,0.941232974347539,4,2005
1,2004,1.56826111555712,1.56826111555712,4,2005
2,2004,2.14787478191141,2.14787478191141,4,2005
3,2004,1.82690844577129,1.82690844577129,4,2005
4,2004,1.53939165968029,1.53939165968029,4,2005
1,2005,1.27418287857777,1.27418287857777,4,2005
2,2005,1.10993203400667,1.10993203400667,4,2005
3,2005,0.752820967149497,0.563471865068668,4,2005
4,2005,0.633783944863774,1.03726097529389,4,2005
1,2006,,1.85718910013291,4,2005
2,2006,,2.34914597503632,4,2005
3,2006,,2.59512441248803,4,2005
4,2006,,2.67711722497193,4,2005
1,1996,1.29982263431478,1.29982263314748,1,2006
2,1996,1.41850915108432,1.41850915108432,1,2006
3,1996,1.60639562301037,1.60639562301037,1,2006
4,1996,1.67919464941455,1.67919464941455,1,2006
1,1997,1.9441922612305,1.9441922612305,1,2006
2,1997,2.43153954434803,2.43153954434803,1,2006
3,1997,2.64699957097483,2.64699957097483,1,2006
4,1997,3.54116755155745,3.54116755155745,1,2006
1,1998,3.79535347742388,3.79535347742388,1,2006
2,1998,2.93149529489651,2.93149529489651,1,2006
3,1998,2.78505075700666,2.78505075700666,1,2006
4,1998,1.85625233577447,1.85625233577447,1,2006
1,1999,2.0283344840526,2.0283344840526,1,2006
2,1999,2.2484053972238,2.2484053972238,1,2006
3,1999,2.96266073175016,2.96266073175016,1,2006
4,1999,4.05095985608737,4.05095985608737,1,2006
1,2000,4.28585179966519,4.28585179966519,1,2006
2,2000,4.48833861539721,4.48833861539721,1,2006
3,2000,3.64460288175559,3.64460288175559,1,2006
4,2000,3.08555035987106,3.08555035987106,1,2006
1,2001,2.7281689298267,2.7281689298267,1,2006
2,2001,2.01793222784037,2.01793222784037,1,2006
3,2001,1.76168308309985,1.76168308309985,1,2006
4,2001,1.10955651522295,1.10955651522295,1,2006
1,2002,0.671055707228008,0.671055707228008,1,2006
2,2002,0.917763019325601,0.917763019325601,1,2006
3,2002,1.09134046537844,1.09134046537844,1,2006
4,2002,1.1693676094793,1.1693676094793,1,2006
1,2003,0.937521786922213,0.937521786922213,1,2006
2,2003,0.431156987388492,0.431156987388492,1,2006
3,2003,0.612587176883683,0.612587176883683,1,2006
4,2003,0.96290704589328,0.96290704589328,1,2006
1,2004,1.60240894529526,1.60240894529526,1,2006
2,2004,2.15939771213121,2.15939771213121,1,2006
3,2004,1.87879334908747,1.87879334908747,1,2006
4,2004,1.6228975530078,1.6228975530078,1,2006
1,2005,1.2414682434033,1.2414682434033,1,2006
2,2005,1.20255349617735,1.20255349617735,1,2006
3,2005,1.55316324661623,1.55316324661623,1,2006
4,2005,1.83602298920236,1.90710960625676,1,2006
1,2006,2.05360740657631,2.13195506411082,1,2006
2,2006,2.18415805700068,2.18466598624961,1,2006
3,2006,2.24943338221286,2.12111918669156,1,2006
4,2006,2.27119182395025,1.99719147945515,1,2006
1,2007,,1.86875967855881,1,2006
2,2007,,1.79170059802101,1,2006
3,2007,,1.75317105775211,1,2006
4,2007,,1.74032787766247,1,2006
1,1992,2.35922799310051,2.35922799734852,2,2006
2,1992,1.63795478768471,1.63795478768471,2,2006
3,1992,1.40445161374458,1.40445161374458,2,2006
4,1992,0.156950233087838,0.156950233087838,2,2006
1,1993,-1.78793897406399,-1.78793897406399,2,2006
2,1993,-1.04129234576206,-1.04129234576206,2,2006
3,1993,-0.444029865838569,-0.444029865838569,2,2006
4,1993,0.142119926824114,0.142119926824114,2,2006
1,1994,1.76418551008302,1.76418551008302,2,2006
2,1994,2.31766409245526,2.31766409245526,2,2006
3,1994,2.69476014660788,2.69476014660788,2,2006
4,1994,3.20231278071521,3.20231278071521,2,2006
1,1995,3.0290963839912,3.0290963839912,2,2006
2,1995,3.01475964692139,3.01475964692139,2,2006
3,1995,2.52334062225561,2.52334062225561,2,2006
4,1995,1.82402365320613,1.82402365320613,2,2006
1,1996,1.24308003783145,1.24308003783145,2,2006
2,1996,1.35917038469204,1.35917038469204,2,2006
3,1996,1.54403695230292,1.54403695230292,2,2006
4,1996,1.61788993541572,1.61788993541572,2,2006
1,1997,1.94040133478226,1.94040133478226,2,2006
2,1997,2.40135869689395,2.40135869689395,2,2006
3,1997,2.60901159870821,2.60901159870821,2,2006
4,1997,3.50640901581691,3.50640901581691,2,2006
1,1998,3.72742067309595,3.72742067309595,2,2006
2,1998,2.85724020329621,2.85724020329621,2,2006
3,1998,2.71531988543396,2.71531988543396,2,2006
4,1998,1.79140186333628,1.79140186333628,2,2006
1,1999,2.04659110463199,2.04659110463199,2,2006
2,1999,2.28684976703188,2.28684976703188,2,2006
3,1999,3.01102779884781,3.01102779884781,2,2006
4,1999,4.11870375579366,4.11870375579366,2,2006
1,2000,4.38929733871785,4.38929733871785,2,2006
2,2000,4.60209464943975,4.60209464943975,2,2006
3,2000,3.74534158625166,3.74534158625166,2,2006
4,2000,3.16145721157501,3.16145721157501,2,2006
1,2001,2.74697130287027,2.74697130287027,2,2006
2,2001,2.00763539664759,2.00763539664759,2,2006
3,2001,1.75732169315987,1.75732169315987,2,2006
4,2001,1.11797354875829,1.11797354875829,2,2006
1,2002,0.644080348442189,0.644080348442189,2,2006
2,2002,0.905335971217625,0.905335971217625,2,2006
3,2002,1.09069022315658,1.09069022315658,2,2006
4,2002,1.17222996520441,1.17222996520441,2,2006
1,2003,0.920574474121083,0.920574474121083,2,2006
2,2003,0.406674156507392,0.406674156507392,2,2006
3,2003,0.575439099318165,0.575439099318165,2,2006
4,2003,0.923861912421931,0.92386191242193,2,2006
1,2004,1.56650673818655,1.56650673818655,2,2006
2,2004,2.12486153630018,2.12486153630018,2,2006
3,2004,1.84786317133403,1.84786317133403,2,2006
4,2004,1.58283548532887,1.58283548532887,2,2006
1,2005,1.19898158229474,1.19898158229474,2,2006
2,2005,1.20701653108364,1.20701653108364,2,2006
3,2005,1.59054655247854,1.59054655247854,2,2006
4,2005,1.65557585883591,1.65557585883591,2,2006
1,2006,2.16290090486779,2.33514345081941,2,2006
2,2006,2.46729593248692,2.54234141893564,2,2006
3,2006,2.61949344629649,2.4265969483817,2,2006
4,2006,2.67022595089967,2.13733722435471,2,2006
1,2007,,1.82398943205179,2,2006
2,2007,,1.63598075667003,2,2006
3,2007,,1.54197641897915,2,2006
4,2007,,1.51064163974886,2,2006
1,1992,2.35922799709836,2.35922799709836,3,2006
2,1992,1.63795481293711,1.63795481293711,3,2006
3,1992,1.40445164630134,1.40445164630134,3,2006
4,1992,0.156950245932275,0.156950245932274,3,2006
1,1993,-1.78793890701257,-1.78793890701256,3,2006
2,1993,-1.04129236372583,-1.04129236372583,3,2006
3,1993,-0.444029849743877,-0.444029849743877,3,2006
4,1993,0.142119946502439,0.142119946502439,3,2006
1,1994,1.76418548482089,1.76418548482089,3,2006
2,1994,2.31766408813612,2.31766408813612,3,2006
3,1994,2.69476009754628,2.69476009754628,3,2006
4,1994,3.20231281557613,3.20231281557613,3,2006
1,1995,3.02909636374591,3.02909636374591,3,2006
2,1995,2.98500412832574,2.98500412832574,3,2006
3,1995,2.5185172907922,2.5185172907922,3,2006
4,1995,1.89578266493147,1.89578266493147,3,2006
1,1996,1.26508676965831,1.26508676965831,3,2006
2,1996,1.40830192045598,1.40830192045598,3,2006
3,1996,1.54496267781901,1.54496267781901,3,2006
4,1996,1.53806967711325,1.53806967711325,3,2006
1,1997,2.07636161129681,2.07636161129681,3,2006
2,1997,2.33315361792414,2.33315361792414,3,2006
3,1997,2.56842482307966,2.56842482307966,3,2006
4,1997,3.39972525751251,3.39972525751251,3,2006
1,1998,3.51422336831286,3.51422336831286,3,2006
2,1998,2.8213533432109,2.8213533432109,3,2006
3,1998,2.68088276403178,2.68088276403178,3,2006
4,1998,1.84731617241862,1.84731617241862,3,2006
1,1999,2.05393996606522,2.05393996606522,3,2006
2,1999,2.32928660461931,2.32928660461931,3,2006
3,1999,3.04774893481432,3.04774893481432,3,2006
4,1999,4.10511196815107,4.10511196815107,3,2006
1,2000,4.39139661334005,4.39139661334005,3,2006
2,2000,4.66448576476899,4.66448576476899,3,2006
3,2000,3.80547686986028,3.80547686986028,3,2006
4,2000,3.30393631633721,3.30393631633721,3,2006
1,2001,2.93757085941737,2.93757085941737,3,2006
2,2001,2.09629333842547,2.09629333842547,3,2006
3,2001,1.73596181352671,1.73596181352671,3,2006
4,2001,1.05879423566519,1.05879423566519,3,2006
1,2002,0.574213125399714,0.574213125399714,3,2006
2,2002,0.88379796429805,0.88379796429805,3,2006
3,2002,1.17991268275444,1.17991268275444,3,2006
4,2002,1.18230437094982,1.18230437094982,3,2006
1,2003,0.988410489289526,0.988410489289526,3,2006
2,2003,0.510096654919745,0.510096654919745,3,2006
3,2003,0.627355956504716,0.627355956504716,3,2006
4,2003,1.03209509864217,1.03209509864217,3,2006
1,2004,1.66471025234043,1.66471025234043,3,2006
2,2004,2.15492029808735,2.15492029808735,3,2006
3,2004,1.89336188452065,1.89336188452065,3,2006
4,2004,1.57832077634059,1.57832077634059,3,2006
1,2005,1.15890238631799,1.15890238631799,3,2006
2,2005,1.14999803923659,1.14999803923659,3,2006
3,2005,1.55675698150171,1.55675698150171,3,2006
4,2005,1.7117323093397,1.7117323093397,3,2006
1,2006,1.94762790853211,1.94762790853211,3,2006
2,2006,2.67524120190162,2.96820146139344,3,2006
3,2006,3.03904784858637,2.97324182413211,3,2006
4,2006,3.16031673081462,2.39749747225415,3,2006
1,2007,,1.67571688126559,3,2006
2,2007,,1.24264852667245,3,2006
3,2007,,1.02611434937588,3,2006
4,2007,,0.953936290277028,3,2006
1,1992,2.3592279669014,2.35922796950301,4,2006
2,1992,1.63795484602176,1.63795484602176,4,2006
3,1992,1.40445164783121,1.40445164783121,4,2006
4,1992,0.156950267853917,0.156950267853917,4,2006
1,1993,-1.78793889340845,-1.78793889340845,4,2006
2,1993,-1.04129238183125,-1.04129238183125,4,2006
3,1993,-0.44402988456359,-0.44402988456359,4,2006
4,1993,0.142119950050268,0.142119950050268,4,2006
1,1994,1.76418549904396,1.76418549904396,4,2006
2,1994,2.3176640926863,2.3176640926863,4,2006
3,1994,2.6947601198857,2.6947601198857,4,2006
4,1994,3.20231281248489,3.20231281248489,4,2006
1,1995,3.02909635187845,3.02909635187845,4,2006
2,1995,2.92673923373694,2.92673923373694,4,2006
3,1995,2.4641403400671,2.4641403400671,4,2006
4,1995,1.88237100955373,1.88237100955373,4,2006
1,1996,1.19983612282462,1.19983612282462,4,2006
2,1996,1.40996790139429,1.40996790139429,4,2006
3,1996,1.55339635882679,1.55339635882679,4,2006
4,1996,1.53482934266087,1.53482934266087,4,2006
1,1997,2.04799620231135,2.04799620231135,4,2006
2,1997,2.36523353947897,2.36523353947897,4,2006
3,1997,2.58931145626713,2.58931145626713,4,2006
4,1997,3.38618658748178,3.38618658748178,4,2006
1,1998,3.58965667133564,3.58965667133564,4,2006
2,1998,2.83073165803531,2.83073165803531,4,2006
3,1998,2.69713178413835,2.69713178413835,4,2006
4,1998,1.88794715229668,1.88794715229668,4,2006
1,1999,2.07301613677076,2.07301613677076,4,2006
2,1999,2.34878944432655,2.34878944432655,4,2006
3,1999,3.05193412637097,3.05193412637097,4,2006
4,1999,4.13005307972818,4.13005307972818,4,2006
1,2000,4.3953324244667,4.3953324244667,4,2006
2,2000,4.65724012679321,4.65724012679321,4,2006
3,2000,3.8193662887358,3.8193662887358,4,2006
4,2000,3.28431246167136,3.28431246167136,4,2006
1,2001,2.91361007041713,2.91361007041713,4,2006
2,2001,2.07238463469517,2.07238463469517,4,2006
3,2001,1.66597232142867,1.66597232142867,4,2006
4,2001,1.03032603910758,1.03032603910758,4,2006
1,2002,0.480399088734185,0.480399088734185,4,2006
2,2002,0.807456854308275,0.807456854308275,4,2006
3,2002,1.12941992732103,1.12941992732103,4,2006
4,2002,1.08332013789918,1.08332013789918,4,2006
1,2003,1.00818524884543,1.00818524884543,4,2006
2,2003,0.478264378213011,0.478264378213012,4,2006
3,2003,0.624352085945312,0.624352085945312,4,2006
4,2003,1.03359458926162,1.03359458926162,4,2006
1,2004,1.57754720273213,1.57754720273213,4,2006
2,2004,2.024642547121,2.024642547121,4,2006
3,2004,1.72292511951087,1.72292511951087,4,2006
4,2004,1.48717787157995,1.48717787157995,4,2006
1,2005,1.20888551960656,1.20888551960656,4,2006
2,2005,1.27900320531191,1.27900320531191,4,2006
3,2005,1.65034193142026,1.65034193142026,4,2006
4,2005,1.78483017261655,1.78483017261655,4,2006
1,2006,2.14889058587815,2.14889058587815,4,2006
2,2006,2.63822410119834,2.63822410119834,4,2006
3,2006,4.6416777590084,5.19584828270203,4,2006
4,2006,5.30949564494508,4.15620694071473,4,2006
1,2007,,1.7909785209374,4,2006
2,2007,,0.371841469071001,4,2006
3,2007,,-0.337727056862199,4,2006
4,2007,,-0.57424989883993,4,2006
1,1992,2.35922798404307,2.35922798631636,1,2007
2,1992,1.63795482914235,1.63795482914235,1,2007
3,1992,1.40445166472563,1.40445166472563,1,2007
4,1992,0.156950222366459,0.156950222366459,1,2007
1,1993,-1.78793893267689,-1.78793893267689,1,2007
2,1993,-1.04129236254699,-1.04129236254699,1,2007
3,1993,-0.444029875327068,-0.444029875327068,1,2007
4,1993,0.142119952260944,0.142119952260944,1,2007
1,1994,1.76418550139341,1.76418550139341,1,2007
2,1994,2.31766408262113,2.31766408262113,1,2007
3,1994,2.6947601214081,2.6947601214081,1,2007
4,1994,3.20231281951824,3.20231281951824,1,2007
1,1995,3.0290963825254,3.0290963825254,1,2007
2,1995,2.96994628546039,2.96994628546039,1,2007
3,1995,2.50116006554721,2.50116006554721,1,2007
4,1995,1.93461733933789,1.93461733933789,1,2007
1,1996,1.26564985405562,1.26564985405562,1,2007
2,1996,1.40823916503539,1.40823916503539,1,2007
3,1996,1.5497908154106,1.5497908154106,1,2007
4,1996,1.52879437924109,1.52879437924109,1,2007
1,1997,2.02178770691792,2.02178770691792,1,2007
2,1997,2.35296211419809,2.35296211419809,1,2007
3,1997,2.58925950205979,2.58925950205979,1,2007
4,1997,3.38296185640541,3.38296185640541,1,2007
1,1998,3.53516762873642,3.53516762873642,1,2007
2,1998,2.79887954395714,2.79887954395714,1,2007
3,1998,2.68102106977655,2.68102106977655,1,2007
4,1998,1.89278823740195,1.89278823740195,1,2007
1,1999,2.11696755827762,2.11696755827762,1,2007
2,1999,2.38315163989722,2.38315163989722,1,2007
3,1999,3.02940537368384,3.02940537368384,1,2007
4,1999,4.06466683900897,4.06466683900897,1,2007
1,2000,4.38144676723298,4.38144676723298,1,2007
2,2000,4.62087698783562,4.62087698783562,1,2007
3,2000,3.82688477506234,3.82688477506234,1,2007
4,2000,3.29215833460099,3.29215833460099,1,2007
1,2001,2.87395301289013,2.87395301289013,1,2007
2,2001,2.08069019136325,2.08069019136325,1,2007
3,2001,1.65796280826862,1.65796280826862,1,2007
4,2001,1.04596888535564,1.04596888535564,1,2007
1,2002,0.484640101392664,0.484640101392664,1,2007
2,2002,0.783402864079386,0.783402864079386,1,2007
3,2002,1.14248714307477,1.14248714307477,1,2007
4,2002,1.08043479999362,1.08043479999362,1,2007
1,2003,0.993918095199509,0.993918095199509,1,2007
2,2003,0.473679204407396,0.473679204407396,1,2007
3,2003,0.609493208127421,0.609493208127421,1,2007
4,2003,1.03781904930624,1.03781904930624,1,2007
1,2004,1.63315065702052,1.63315065702052,1,2007
2,2004,2.06581018013712,2.06581018013712,1,2007
3,2004,1.75151010372816,1.75151010372816,1,2007
4,2004,1.499695597596,1.499695597596,1,2007
1,2005,1.18037672472036,1.18037672472036,1,2007
2,2005,1.21498020663138,1.21498020663138,1,2007
3,2005,1.6282967339009,1.6282967339009,1,2007
4,2005,1.79027002880805,1.79027002880805,1,2007
1,2006,2.22123368556248,2.22123368556248,1,2007
2,2006,2.86374585952096,2.86374585952096,1,2007
3,2006,2.74279869640752,2.74279869640752,1,2007
4,2006,2.34406651717488,2.2692758712477,1,2007
1,2007,2.03734945622669,1.95489451735481,1,2007
2,2007,1.85331921965778,1.85270179181781,1,2007
3,2007,1.76130410137333,1.89614489898544,1,2007
4,2007,1.73063239527851,2.01867104320641,1,2007
1,2008,,2.15372742882944,1,2007
2,2008,,2.23476126020326,1,2007
3,2008,,2.27527817589017,1,2007
4,2008,,2.28878381445247,1,2007
1,1992,2.35922799098126,2.35922798209651,2,2007
2,1992,1.63795482952687,1.63795482952687,2,2007
3,1992,1.40445166429311,1.40445166429311,2,2007
4,1992,0.156950222901875,0.156950222901875,2,2007
1,1993,-1.78793893279911,-1.78793893279911,2,2007
2,1993,-1.04129236324586,-1.04129236324586,2,2007
3,1993,-0.444029875176277,-0.444029875176277,2,2007
4,1993,0.142119951426234,0.142119951426234,2,2007
1,1994,1.76418550159252,1.76418550159252,2,2007
2,1994,2.31766408366043,2.31766408366043,2,2007
3,1994,2.69476012171503,2.69476012171503,2,2007
4,1994,3.20231282010126,3.20231282010126,2,2007
1,1995,3.0290963824223,3.0290963824223,2,2007
2,1995,2.97283529842738,2.97283529842738,2,2007
3,1995,2.50046532015762,2.50046532015762,2,2007
4,1995,1.94515779237117,1.94515779237117,2,2007
1,1996,1.27542020825715,1.27542020825715,2,2007
2,1996,1.40929585278486,1.40929585278486,2,2007
3,1996,1.54693028440771,1.54693028440771,2,2007
4,1996,1.51997284407686,1.51997284407686,2,2007
1,1997,2.01041274943681,2.01041274943681,2,2007
2,1997,2.35089362769181,2.35089362769181,2,2007
3,1997,2.60172962082208,2.60172962082208,2,2007
4,1997,3.3830022645627,3.3830022645627,2,2007
1,1998,3.53162177496176,3.53162177496176,2,2007
2,1998,2.79861945971109,2.79861945971109,2,2007
3,1998,2.6796978814557,2.6796978814557,2,2007
4,1998,1.8969282345074,1.8969282345074,2,2007
1,1999,2.12582688995391,2.12582688995391,2,2007
2,1999,2.3900946986257,2.3900946986257,2,2007
3,1999,3.02927902891486,3.02927902891486,2,2007
4,1999,4.05076572496979,4.05076572496979,2,2007
1,2000,4.38435146358098,4.38435146358098,2,2007
2,2000,4.6160756578818,4.6160756578818,2,2007
3,2000,3.82008060436743,3.82008060436743,2,2007
4,2000,3.30187069158532,3.30187069158532,2,2007
1,2001,2.86896200414293,2.86896200414293,2,2007
2,2001,2.07447442151996,2.07447442151996,2,2007
3,2001,1.66265410453958,1.66265410453958,2,2007
4,2001,1.05211557494298,1.05211557494298,2,2007
1,2002,0.48485598350656,0.48485598350656,2,2007
2,2002,0.791762028045406,0.791762028045406,2,2007
3,2002,1.13117398242286,1.13117398242286,2,2007
4,2002,1.08051371054798,1.08051371054798,2,2007
1,2003,1.00142930347653,1.00142930347653,2,2007
2,2003,0.480857885940678,0.480857885940678,2,2007
3,2003,0.628784413495742,0.628784413495742,2,2007
4,2003,1.03703225311178,1.03703225311178,2,2007
1,2004,1.66423194612726,1.66423194612726,2,2007
2,2004,2.0902683343663,2.0902683343663,2,2007
3,2004,1.78129095715416,1.78129095715416,2,2007
4,2004,1.5349801535004,1.5349801535004,2,2007
1,2005,1.198054918585,1.198054918585,2,2007
2,2005,1.24954683979412,1.24954683979412,2,2007
3,2005,1.65797530911107,1.65797530911107,2,2007
4,2005,1.80056959671004,1.80056959671004,2,2007
1,2006,2.22579596159356,2.22579596159356,2,2007
2,2006,2.84937038694184,2.84937038694184,2,2007
3,2006,2.78574911772715,2.78574911772715,2,2007
4,2006,3.32790789279123,3.32790789279123,2,2007
1,2007,2.49104897834179,2.35879815781348,2,2007
2,2007,1.98893362967212,1.93132919955573,2,2007
3,2007,1.73787595533729,1.88602881091159,2,2007
4,2007,1.65419006389235,2.06342478477467,2,2007
1,2008,,2.30404491403858,2,2007
2,2008,,2.44841699159692,2,2007
3,2008,,2.52060303037609,2,2007
4,2008,,2.54466504330248,2,2007
1,1996,1.28976417898062,1.28976417897325,3,2007
2,1996,1.4275737772357,1.4275737772357,3,2007
3,1996,1.570666909172,1.570666909172,3,2007
4,1996,1.49261378039096,1.49261378039096,3,2007
1,1997,1.99715557611273,1.99715557611273,3,2007
2,1997,2.40614887010338,2.40614887010338,3,2007
3,1997,2.59206548048336,2.59206548048336,3,2007
4,1997,3.38818448452634,3.38818448452634,3,2007
1,1998,3.54799712669134,3.54799712669134,3,2007
2,1998,2.78406730115994,2.78406730115994,3,2007
3,1998,2.68597014851979,2.68597014851979,3,2007
4,1998,1.91248765774719,1.91248765774719,3,2007
1,1999,2.15864511584869,2.15864511584869,3,2007
2,1999,2.42204672404296,2.42204672404296,3,2007
3,1999,3.0551495694495,3.0551495694495,3,2007
4,1999,4.06079785807125,4.06079785807125,3,2007
1,2000,4.37664514919895,4.37664514919895,3,2007
2,2000,4.59739664384788,4.59739664384788,3,2007
3,2000,3.79864930892533,3.79864930892533,3,2007
4,2000,3.25549535621297,3.25549535621297,3,2007
1,2001,2.85678581394577,2.85678581394577,3,2007
2,2001,2.03067342091696,2.03067342091696,3,2007
3,2001,1.66263224815588,1.66263224815588,3,2007
4,2001,1.10950327542623,1.10950327542623,3,2007
1,2002,0.515419629066183,0.515419629066183,3,2007
2,2002,0.831321129998597,0.831321129998597,3,2007
3,2002,1.1301678005043,1.1301678005043,3,2007
4,2002,1.03666142171515,1.03666142171515,3,2007
1,2003,0.989947443601191,0.989947443601191,3,2007
2,2003,0.486628091807506,0.486628091807506,3,2007
3,2003,0.618787913531138,0.618787913531138,3,2007
4,2003,1.07375697769836,1.07375697769836,3,2007
1,2004,1.67332697469911,1.67332697469911,3,2007
2,2004,2.09746581591683,2.09746581591683,3,2007
3,2004,1.86269729799802,1.86269729799802,3,2007
4,2004,1.6121008068678,1.6121008068678,3,2007
1,2005,1.31890002539738,1.31890002539738,3,2007
2,2005,1.42394545576556,1.42394545576556,3,2007
3,2005,1.77023748660081,1.77023748660081,3,2007
4,2005,1.92000024665329,1.92000024665329,3,2007
1,2006,2.36105691334039,2.36105691334039,3,2007
2,2006,2.8746890383724,2.8746890383724,3,2007
3,2006,2.8380176878227,2.8380176878227,3,2007
4,2006,3.32040703711445,3.32040703711445,3,2007
1,2007,3.0327508790527,3.0327508790527,3,2007
2,2007,2.34099440048645,2.24344560759645,3,2007
3,2007,1.99511616120332,2.01806877789485,3,2007
4,2007,1.87982341477561,2.13640123202463,3,2007
1,2008,,2.37822381206252,3,2007
2,2008,,2.52331736008525,3,2007
3,2008,,2.59586413409661,3,2007
4,2008,,2.6200463921004,3,2007
1,1996,1.27486086743196,1.27486086743196,4,2007
2,1996,1.39014737993588,1.39014737993588,4,2007
3,1996,1.55656066127727,1.55656066127727,4,2007
4,1996,1.54916074979898,1.54916074979898,4,2007
1,1997,1.95932159000085,1.95932159000085,4,2007
2,1997,2.45383258928504,2.45383258928504,4,2007
3,1997,2.59855950105932,2.59855950105932,4,2007
4,1997,3.36686444562642,3.36686444562642,4,2007
1,1998,3.5772181711321,3.5772181711321,4,2007
2,1998,2.78105868552561,2.78105868552561,4,2007
3,1998,2.65184354517858,2.65184354517858,4,2007
4,1998,1.91019135590471,1.91019135590471,4,2007
1,1999,2.18699384742735,2.18699384742735,4,2007
2,1999,2.41050480300371,2.41050480300371,4,2007
3,1999,3.08604877516123,3.08604877516123,4,2007
4,1999,4.03399057282468,4.03399057282468,4,2007
1,2000,4.28431758474703,4.28431758474703,4,2007
2,2000,4.59149536013919,4.59149536013919,4,2007
3,2000,3.82769584915226,3.82769584915226,4,2007
4,2000,3.30116390706874,3.30116390706874,4,2007
1,2001,2.93393172319614,2.93393172319614,4,2007
2,2001,2.03969454892283,2.03969454892283,4,2007
3,2001,1.63776961986133,1.63776961986133,4,2007
4,2001,1.06149338881938,1.06149338881938,4,2007
1,2002,0.491107163447313,0.491107163447313,4,2007
2,2002,0.859493551435864,0.859493551435864,4,2007
3,2002,1.14138055577802,1.14138055577802,4,2007
4,2002,1.02279401182708,1.02279401182708,4,2007
1,2003,0.943732302391997,0.943732302391997,4,2007
2,2003,0.442548182875657,0.442548182875657,4,2007
3,2003,0.629170904432996,0.629170904432996,4,2007
4,2003,1.09826104769957,1.09826104769957,4,2007
1,2004,1.61723262424949,1.61723262424949,4,2007
2,2004,2.06359628612043,2.06359628612043,4,2007
3,2004,1.85314376857231,1.85314376857231,4,2007
4,2004,1.62747463612594,1.62747463612594,4,2007
1,2005,1.29733963581966,1.29733963581966,4,2007
2,2005,1.43101145819988,1.43101145819988,4,2007
3,2005,1.75420499833854,1.75420499833854,4,2007
4,2005,1.88165652283983,1.88165652283983,4,2007
1,2006,2.44802651051674,2.44802651051674,4,2007
2,2006,2.91322962967788,2.91322962967788,4,2007
3,2006,2.82069199330965,2.82069199330965,4,2007
4,2006,3.34754561714019,3.34754561714019,4,2007
1,2007,3.16775989892344,3.16775989892344,4,2007
2,2007,2.52117527252358,2.52117527252358,4,2007
3,2007,0.933227551981836,0.671120731278207,4,2007
4,2007,0.403911645134589,0.973599307565374,4,2007
1,2008,,2.12255358677657,4,2007
2,2008,,2.81192615430329,4,2007
3,2008,,3.15661243806665,4,2007
4,2008,,3.27150786598777,4,2007
1,1996,1.23784395648596,1.23784395648596,1,2008
2,1996,1.39483550671957,1.39483550671957,1,2008
3,1996,1.60560588017964,1.60560588017964,1,2008
4,1996,1.59124958042767,1.59124958042767,1,2008
1,1997,1.96104145639249,1.96104145639249,1,2008
2,1997,2.46974658605446,2.46974658605446,1,2008
3,1997,2.59810300751304,2.59810300751304,1,2008
4,1997,3.31468057678002,3.31468057678002,1,2008
1,1998,3.59192899291612,3.59192899291612,1,2008
2,1998,2.77945613559252,2.77945613559252,1,2008
3,1998,2.66748078750938,2.66748078750938,1,2008
4,1998,1.90127109495606,1.90127109495606,1,2008
1,1999,2.17532417986519,2.17532417986519,1,2008
2,1999,2.36373827301828,2.36373827301828,1,2008
3,1999,3.08706024606693,3.08706024606693,1,2008
4,1999,4.08382925070929,4.08382925070929,1,2008
1,2000,4.25216994642519,4.25216994642519,1,2008
2,2000,4.63826642144603,4.63826642144603,1,2008
3,2000,3.80590138862067,3.80590138862067,1,2008
4,2000,3.31610765595536,3.31610765595536,1,2008
1,2001,2.97142736870613,2.97142736870613,1,2008
2,2001,2.0281783518707,2.0281783518707,1,2008
3,2001,1.64518729588548,1.64518729588548,1,2008
4,2001,1.01627288287345,1.01627288287345,1,2008
1,2002,0.488691149713416,0.488691149713416,1,2008
2,2002,0.842464313627667,0.842464313627667,1,2008
3,2002,1.14325186217248,1.14325186217248,1,2008
4,2002,1.07390720784528,1.07390720784528,1,2008
1,2003,0.925789416040135,0.925789416040135,1,2008
2,2003,0.474102823608491,0.474102823608491,1,2008
3,2003,0.630591513708567,0.630591513708567,1,2008
4,2003,1.16012120421609,1.16012120421609,1,2008
1,2004,1.63698055804649,1.63698055804649,1,2008
2,2004,2.07471158318202,2.07471158318202,1,2008
3,2004,1.85715142430296,1.85715142430296,1,2008
4,2004,1.58010124746757,1.58010124746757,1,2008
1,2005,1.29771876663261,1.29771876663261,1,2008
2,2005,1.4609333492873,1.4609333492873,1,2008
3,2005,1.7593494826234,1.7593494826234,1,2008
4,2005,1.91591990282141,1.91591990282141,1,2008
1,2006,2.48619506783043,2.48619506783043,1,2008
2,2006,2.89406008106008,2.89406008106008,1,2008
3,2006,2.85615908558896,2.85615908558896,1,2008
4,2006,3.24485973818442,3.24485973818442,1,2008
1,2007,3.18540783232779,3.18540783232779,1,2008
2,2007,2.51402048076925,2.51402048076925,1,2008
3,2007,2.70480558252344,2.70480558252344,1,2008
4,2007,2.14102797600439,1.99178189018992,1,2008
1,2008,1.70735289406666,1.54286341619113,1,2008
2,2008,1.44714784490402,1.44608523330532,1,2008
3,2008,1.3170453203227,1.58644775289275,1,2008
4,2008,1.27367781212893,1.84895138631372,1,2008
1,2009,,2.11859654492849,1,2008
2,2009,,2.28038364009736,1,2008
3,2009,,2.36127718768179,1,2008
4,2009,,2.38824170354327,1,2008
1,1996,1.23099969805729,1.23099969642211,2,2008
2,1996,1.39600290251214,1.39600290251214,2,2008
3,1996,1.61234147179223,1.61234147179223,2,2008
4,1996,1.59133592716576,1.59133592716576,2,2008
1,1997,1.97525147965385,1.97525147965385,2,2008
2,1997,2.46226392516731,2.46226392516731,2,2008
3,1997,2.58129870637529,2.58129870637529,2,2008
4,1997,3.30307183492664,3.30307183492664,2,2008
1,1998,3.57267472100686,3.57267472100686,2,2008
2,1998,2.78315231529922,2.78315231529922,2,2008
3,1998,2.66827834311525,2.66827834311525,2,2008
4,1998,1.89742298873832,1.89742298873832,2,2008
1,1999,2.18141166662966,2.18141166662966,2,2008
2,1999,2.36099789742581,2.36099789742581,2,2008
3,1999,3.08340942435716,3.08340942435716,2,2008
4,1999,4.06814102392312,4.06814102392312,2,2008
1,2000,4.23476954216182,4.23476954216182,2,2008
2,2000,4.62493292863759,4.62493292863759,2,2008
3,2000,3.80199553803942,3.80199553803942,2,2008
4,2000,3.33130323893061,3.33130323893061,2,2008
1,2001,2.96283667652171,2.96283667652171,2,2008
2,2001,2.02939205513581,2.02939205513582,2,2008
3,2001,1.65750459226841,1.65750459226841,2,2008
4,2001,1.02018278784248,1.02018278784248,2,2008
1,2002,0.511248284544297,0.511248284544297,2,2008
2,2002,0.87605343839563,0.87605343839563,2,2008
3,2002,1.16843860117182,1.16843860117182,2,2008
4,2002,1.1060192850757,1.1060192850757,2,2008
1,2003,0.910655631462443,0.910655631462443,2,2008
2,2003,0.476264716343811,0.476264716343811,2,2008
3,2003,0.636701227091496,0.636701227091496,2,2008
4,2003,1.18485278169072,1.18485278169072,2,2008
1,2004,1.68506895279299,1.68506895279299,2,2008
2,2004,2.14894357772692,2.14894357772693,2,2008
3,2004,1.93842332727578,1.93842332727578,2,2008
4,2004,1.65625608963396,1.65625608963396,2,2008
1,2005,1.40143297030104,1.40143297030104,2,2008
2,2005,1.54952622461269,1.54952622461269,2,2008
3,2005,1.84484442443198,1.84484442443198,2,2008
4,2005,1.99974819581059,1.99974819581059,2,2008
1,2006,2.51606243107965,2.51606243107965,2,2008
2,2006,2.92040450620366,2.92040450620366,2,2008
3,2006,2.85233899517954,2.85233899517954,2,2008
4,2006,3.23048705933875,3.23048705933875,2,2008
1,2007,3.16049167805204,3.16049167805204,2,2008
2,2007,2.47117167233359,2.47117167233359,2,2008
3,2007,2.65512288728187,2.65512288728187,2,2008
4,2007,2.16911171097658,2.16911171097658,2,2008
1,2008,1.44816848323662,1.24055404923053,2,2008
2,2008,1.01560254659265,0.925426056283888,2,2008
3,2008,0.799319578270662,1.03255678304601,2,2008
4,2008,0.727225255496667,1.37077528042628,2,2008
1,2009,,1.74891059933406,2,2008
2,2009,,1.97579179067873,2,2008
3,2009,,2.08923238635107,2,2008
4,2009,,2.12704591824185,2,2008
1,1996,1.74958510311166,1.74958510436012,3,2008
2,1996,1.47482588525527,1.47482588525527,3,2008
3,1996,1.5274186030064,1.5274186030064,3,2008
4,1996,1.32059999868071,1.32059999868071,3,2008
1,1997,1.97266963963363,1.97266963963363,3,2008
2,1997,2.45289312341297,2.45289312341297,3,2008
3,1997,2.60406987406794,2.60406987406794,3,2008
4,1997,3.28275710825483,3.28275710825483,3,2008
1,1998,3.58282079807035,3.58282079807035,3,2008
2,1998,2.80203674244148,2.80203674244148,3,2008
3,1998,2.65227601814704,2.65227601814704,3,2008
4,1998,1.86643391810193,1.86643391810193,3,2008
1,1999,2.10352167862671,2.10352167862671,3,2008
2,1999,2.25571094972337,2.25571094972337,3,2008
3,1999,2.98748363376689,2.98748363376689,3,2008
4,1999,4.01398882158575,4.01398882158575,3,2008
1,2000,4.23045445293189,4.23045445293189,3,2008
2,2000,4.61894065174828,4.61894065174828,3,2008
3,2000,3.83402122394128,3.83402122394128,3,2008
4,2000,3.40922554845458,3.40922554845458,3,2008
1,2001,2.99521263280815,2.99521263280815,3,2008
2,2001,2.08004932483046,2.08004932483046,3,2008
3,2001,1.65171997127338,1.65171997127338,3,2008
4,2001,0.967985349147726,0.967985349147726,3,2008
1,2002,0.511640136004221,0.511640136004221,3,2008
2,2002,0.882909035378465,0.882909035378465,3,2008
3,2002,1.1596217409068,1.1596217409068,3,2008
4,2002,1.12364164312788,1.12364164312788,3,2008
1,2003,0.931872006586199,0.931872006586199,3,2008
2,2003,0.472832059504813,0.472832059504813,3,2008
3,2003,0.648430125926836,0.648430125926836,3,2008
4,2003,1.17494749807969,1.17494749807969,3,2008
1,2004,1.66441106383384,1.66441106383384,3,2008
2,2004,2.10762181740765,2.10762181740765,3,2008
3,2004,1.93784285131304,1.93784285131304,3,2008
4,2004,1.69226020826185,1.69226020826185,3,2008
1,2005,1.42025187230135,1.42025187230135,3,2008
2,2005,1.61319281619476,1.61319281619476,3,2008
3,2005,1.90465816567154,1.90465816567154,3,2008
4,2005,2.0399391970257,2.0399391970257,3,2008
1,2006,2.56905198149056,2.56905198149056,3,2008
2,2006,2.958324275312,2.958324275312,3,2008
3,2006,2.90073495237442,2.90073495237442,3,2008
4,2006,3.2500020679235,3.2500020679235,3,2008
1,2007,3.21295908277732,3.21295908277732,3,2008
2,2007,2.5815807165533,2.5815807165533,3,2008
3,2007,2.66841253038701,2.66841253038701,3,2008
4,2007,2.1399631165967,2.1399631165967,3,2008
1,2008,2.1554084214533,2.1554084214533,3,2008
2,2008,0.877668463483539,0.609855746101604,3,2008
3,2008,0.238798484498661,0.300202849936134,3,2008
4,2008,0.0258418248370345,0.726269151035694,3,2008
1,2009,,1.38787406747909,3,2008
2,2009,,1.78483701734513,3,2008
3,2009,,1.98331849227815,3,2008
4,2009,,2.04947898392249,3,2008
1,1996,1.2798032947277,1.27980329501,4,2008
2,1996,1.46596216802708,1.46596216802708,4,2008
3,1996,1.66456665297745,1.66456665297745,4,2008
4,1996,1.61502093361248,1.61502093361248,4,2008
1,1997,1.97886987338265,1.97886987338265,4,2008
2,1997,2.4601579608232,2.4601579608232,4,2008
3,1997,2.61347119479631,2.61347119479631,4,2008
4,1997,3.29157929842459,3.29157929842459,4,2008
1,1998,3.61916856611109,3.61916856611109,4,2008
2,1998,2.79623320205504,2.79623320205504,4,2008
3,1998,2.66211005717953,2.66211005717953,4,2008
4,1998,1.82386988280223,1.82386988280223,4,2008
1,1999,2.08099453717447,2.08099453717447,4,2008
2,1999,2.28423819438777,2.28423819438777,4,2008
3,1999,2.9805804136132,2.9805804136132,4,2008
4,1999,4.01212060771372,4.01212060771372,4,2008
1,2000,4.25227257394765,4.25227257394765,4,2008
2,2000,4.61871932656792,4.61871932656792,4,2008
3,2000,3.8445679942414,3.8445679942414,4,2008
4,2000,3.39502743412004,3.39502743412004,4,2008
1,2001,2.96930957505712,2.96930957505712,4,2008
2,2001,2.05047868035113,2.05047868035113,4,2008
3,2001,1.63561743490734,1.63561743490734,4,2008
4,2001,1.02846539210091,1.02846539210091,4,2008
1,2002,0.510833304320668,0.510833304320668,4,2008
2,2002,0.919411350240296,0.919411350240296,4,2008
3,2002,1.1966467535276,1.1966467535276,4,2008
4,2002,1.14791729270882,1.14791729270882,4,2008
1,2003,0.924542193465872,0.924542193465872,4,2008
2,2003,0.465517557519735,0.465517557519735,4,2008
3,2003,0.636751451908646,0.636751451908646,4,2008
4,2003,1.16045404645349,1.16045404645349,4,2008
1,2004,1.70608017709237,1.70608017709237,4,2008
2,2004,2.17643474857139,2.17643474857139,4,2008
3,2004,1.99623056413134,1.99623056413134,4,2008
4,2004,1.73234890761573,1.73234890761573,4,2008
1,2005,1.43798920703067,1.43798920703067,4,2008
2,2005,1.67991409349335,1.67991409349335,4,2008
3,2005,1.96085165798685,1.96085165798685,4,2008
4,2005,2.08882027787261,2.08882027787261,4,2008
1,2006,2.64367462577941,2.64367462577941,4,2008
2,2006,3.00073564248686,3.00073564248686,4,2008
3,2006,2.92163099428029,2.92163099428029,4,2008
4,2006,3.30057426224568,3.30057426224568,4,2008
1,2007,3.22555337376025,3.22555337376025,4,2008
2,2007,2.59448380968259,2.59448380968259,4,2008
3,2007,2.62486867252061,2.62486867252061,4,2008
4,2007,2.14026770248657,2.14026770248656,4,2008
1,2008,2.06602096434074,2.06602096434074,4,2008
2,2008,1.40208702542133,1.40208702542133,4,2008
3,2008,-2.11115335003518,-2.6954142037019,4,2008
4,2008,-3.28223347518736,-2.08278802140023,4,2008
1,2009,,0.390286885278206,4,2008
2,2009,,1.87413182928527,4,2008
3,2009,,2.6160543012888,4,2008
4,2009,,2.86336179195664,4,2008
1,1996,1.27258155083672,1.27258155083672,1,2009
2,1996,1.45404195573713,1.45404195573713,1,2009
3,1996,1.63787325894134,1.63787325894134,1,2009
4,1996,1.59583374448045,1.59583374448045,1,2009
1,1997,1.98143832775408,1.98143832775408,1,2009
2,1997,2.46430045708526,2.46430045708526,1,2009
3,1997,2.63682281778974,2.63682281778974,1,2009
4,1997,3.3145752295985,3.3145752295985,1,2009
1,1998,3.62404739665134,3.62404739665134,1,2009
2,1998,2.80136121495527,2.80136121495527,1,2009
3,1998,2.66595828608593,2.66595828608593,1,2009
4,1998,1.82228643506492,1.82228643506492,1,2009
1,1999,2.08842185649876,2.08842185649876,1,2009
2,1999,2.30086073342375,2.30086073342375,1,2009
3,1999,2.9794226664086,2.9794226664086,1,2009
4,1999,4.02272574415077,4.02272574415077,1,2009
1,2000,4.25517468263521,4.25517468263521,1,2009
2,2000,4.60643051824106,4.60643051824106,1,2009
3,2000,3.84588340416676,3.84588340416676,1,2009
4,2000,3.39142675431723,3.39142675431723,1,2009
1,2001,2.94714147807285,2.94714147807285,1,2009
2,2001,2.01495271631225,2.01495271631225,1,2009
3,2001,1.62996830772892,1.62996830772892,1,2009
4,2001,1.0222459312573,1.0222459312573,1,2009
1,2002,0.487241510791514,0.487241510791514,1,2009
2,2002,0.916418022851939,0.916418022851939,1,2009
3,2002,1.18591982748948,1.18591982748948,1,2009
4,2002,1.14563266337797,1.14563266337797,1,2009
1,2003,0.940535360581252,0.940535360581252,1,2009
2,2003,0.485496423997645,0.485496423997644,1,2009
3,2003,0.643809870715062,0.643809870715062,1,2009
4,2003,1.16308080956853,1.16308080956853,1,2009
1,2004,1.71185793534892,1.71185793534892,1,2009
2,2004,2.17598744605281,2.17598744605281,1,2009
3,2004,2.01687682898464,2.01687682898464,1,2009
4,2004,1.75436782968557,1.75436782968557,1,2009
1,2005,1.427508437911,1.427508437911,1,2009
2,2005,1.68147115348516,1.68147115348516,1,2009
3,2005,1.96390059355327,1.96390059355327,1,2009
4,2005,2.07956729780636,2.07956729780636,1,2009
1,2006,2.659979334854,2.659979334854,1,2009
2,2006,3.01996807952027,3.01996807952027,1,2009
3,2006,2.93347875903329,2.93347875903329,1,2009
4,2006,3.31812356877002,3.31812356877002,1,2009
1,2007,3.20222377115282,3.20222377115282,1,2009
2,2007,2.5642216965444,2.5642216965444,1,2009
3,2007,2.6284121903529,2.6284121903529,1,2009
4,2007,2.1222998390642,2.1222998390642,1,2009
1,2008,2.076051055691,2.076051055691,1,2009
2,2008,1.43171988181143,1.43171988181143,1,2009
3,2008,0.627665665986021,0.627665665986021,1,2009
4,2008,-0.950279518745206,-1.74019063149818,1,2009
1,2009,-2.164083507,-3.03517616102552,1,2009
2,2009,-2.89236589995287,-2.89966733327703,1,2009
3,2009,-3.25650709642931,-1.83386588530056,1,2009
4,2009,-3.37788749525479,-0.337973554143952,1,2009
1,2010,,1.08780792314494,1,2009
2,2010,,1.94327680951828,1,2009
3,2010,,2.37101125270495,1,2009
4,2010,,2.51358940043384,1,2009
1,1996,1.27490030418098,1.27490030437012,2,2009
2,1996,1.46360940505039,1.46360940505039,2,2009
3,1996,1.65538649425743,1.65538649425743,2,2009
4,1996,1.62648929016989,1.62648929016989,2,2009
1,1997,2.00583892253141,2.00583892253141,2,2009
2,1997,2.47288567722426,2.47288567722426,2,2009
3,1997,2.64055575905864,2.64055575905864,2,2009
4,1997,3.30389791675649,3.30389791675649,2,2009
1,1998,3.62444930527783,3.62444930527783,2,2009
2,1998,2.80563847539252,2.80563847539252,2,2009
3,1998,2.67299894548325,2.67299894548325,2,2009
4,1998,1.83554828168071,1.83554828168071,2,2009
1,1999,2.09516841133732,2.09516841133732,2,2009
2,1999,2.29514986336192,2.29514986336192,2,2009
3,1999,2.96568012569036,2.96568012569036,2,2009
4,1999,3.99834383336208,3.99834383336208,2,2009
1,2000,4.23745422607171,4.23745422607171,2,2009
2,2000,4.5991666329251,4.5991666329251,2,2009
3,2000,3.84229663779905,3.84229663779905,2,2009
4,2000,3.39549226014746,3.39549226014746,2,2009
1,2001,2.9500661713231,2.9500661713231,2,2009
2,2001,2.02227045859151,2.02227045859151,2,2009
3,2001,1.63425011774037,1.63425011774037,2,2009
4,2001,1.03056579215641,1.03056579215641,2,2009
1,2002,0.499137285389773,0.499137285389773,2,2009
2,2002,0.92578719019818,0.92578719019818,2,2009
3,2002,1.19624091808372,1.19624091808372,2,2009
4,2002,1.15904582418733,1.15904582418733,2,2009
1,2003,0.952730911058297,0.952730911058297,2,2009
2,2003,0.500877151638646,0.500877151638646,2,2009
3,2003,0.65969466866509,0.65969466866509,2,2009
4,2003,1.17799757786283,1.17799757786283,2,2009
1,2004,1.72281072624114,1.72281072624114,2,2009
2,2004,2.18591044580918,2.18591044580918,2,2009
3,2004,2.02660828398971,2.02660828398971,2,2009
4,2004,1.76842076707662,1.76842076707662,2,2009
1,2005,1.45326988250134,1.45326988250134,2,2009
2,2005,1.71606548960677,1.71606548960677,2,2009
3,2005,2.0065318561401,2.0065318561401,2,2009
4,2005,2.12944472228713,2.12944472228713,2,2009
1,2006,2.71912484244621,2.71912484244621,2,2009
2,2006,3.07594073151609,3.07594073151609,2,2009
3,2006,2.98629644853459,2.98629644853459,2,2009
4,2006,3.3959129180317,3.3959129180317,2,2009
1,2007,3.25899071828251,3.25899071828251,2,2009
2,2007,2.61317157908869,2.61317157908869,2,2009
3,2007,2.66048147686897,2.66048147686897,2,2009
4,2007,2.19355768475769,2.19355768475769,2,2009
1,2008,2.17519957609431,2.17519957609431,2,2009
2,2008,1.46952835966818,1.46952835966818,2,2009
3,2008,0.623662379750644,0.623662379750644,2,2009
4,2008,-1.26212315207114,-1.26212315207114,2,2009
1,2009,-4.0418792149173,-5.66761527965345,2,2009
2,2009,-5.70973285262499,-6.42095713540474,2,2009
3,2009,-6.54365967147884,-4.73049150928247,2,2009
4,2009,-6.82163527776345,-1.80456119124409,2,2009
1,2010,,1.14849102875294,2,2009
2,2010,,2.92032236075116,2,2009
3,2010,,3.80623802675026,2,2009
4,2010,,4.10154324874996,2,2009
1,1996,1.26672649962122,1.26672650025226,3,2009
2,1996,1.43178800545969,1.43178800545969,3,2009
3,1996,1.6336477068706,1.6336477068706,3,2009
4,1996,1.65948744563094,1.65948744563094,3,2009
1,1997,2.0127705651994,2.0127705651994,3,2009
2,1997,2.47199056772047,2.47199056772047,3,2009
3,1997,2.64006841348325,2.64006841348325,3,2009
4,1997,3.31239776471624,3.31239776471624,3,2009
1,1998,3.63180662595739,3.63180662595739,3,2009
2,1998,2.79445603460224,2.79445603460224,3,2009
3,1998,2.66612851600194,2.66612851600194,3,2009
4,1998,1.84795488562619,1.84795488562619,3,2009
1,1999,2.10302066879233,2.10302066879233,3,2009
2,1999,2.31180135303413,2.31180135303413,3,2009
3,1999,2.97268768447365,2.97268768447365,3,2009
4,1999,3.9832477983559,3.9832477983559,3,2009
1,2000,4.22257929505441,4.22257929505441,3,2009
2,2000,4.59846589794468,4.59846589794468,3,2009
3,2000,3.85863494736938,3.85863494736938,3,2009
4,2000,3.39879497131452,3.39879497131452,3,2009
1,2001,2.95337367096171,2.95337367096171,3,2009
2,2001,2.03433304609684,2.03433304609684,3,2009
3,2001,1.64229259047239,1.64229259047239,3,2009
4,2001,1.0090448772891,1.0090448772891,3,2009
1,2002,0.492834547761945,0.492834547761945,3,2009
2,2002,0.898626487759624,0.898626487759624,3,2009
3,2002,1.17620269117937,1.17620269117937,3,2009
4,2002,1.18216694595705,1.18216694595705,3,2009
1,2003,0.950394346383798,0.950394346383798,3,2009
2,2003,0.493284089319857,0.493284089319857,3,2009
3,2003,0.654787020675429,0.654787020675429,3,2009
4,2003,1.17222692113681,1.17222692113681,3,2009
1,2004,1.73785078449711,1.73785078449711,3,2009
2,2004,2.20655053074876,2.20655053074876,3,2009
3,2004,2.02736436411106,2.02736436411106,3,2009
4,2004,1.75643771906597,1.75643771906597,3,2009
1,2005,1.4529078806738,1.4529078806738,3,2009
2,2005,1.72328437034091,1.72328437034091,3,2009
3,2005,2.00734811471106,2.00734811471106,3,2009
4,2005,2.14824281482733,2.14824281482733,3,2009
1,2006,2.6835918924506,2.6835918924506,3,2009
2,2006,3.09619241983472,3.09619241983472,3,2009
3,2006,3.03414254024526,3.03414254024526,3,2009
4,2006,3.41122432920022,3.41122432920022,3,2009
1,2007,3.35342535178145,3.35342535178145,3,2009
2,2007,2.62696794685817,2.62696794685817,3,2009
3,2007,2.67176558208566,2.67176558208566,3,2009
4,2007,2.20276669816548,2.20276669816548,3,2009
1,2008,2.15683216349489,2.15683216349489,3,2009
2,2008,1.46323113436722,1.46323113436722,3,2009
3,2008,0.494298925946857,0.494298925946857,3,2009
4,2008,-1.6690116031633,-1.6690116031633,3,2009
1,2009,-4.80209012161579,-4.80209012161579,3,2009
2,2009,-7.56231299999952,-9.78394088510255,3,2009
3,2009,-8.94242443919139,-8.46772030302451,3,2009
4,2009,-9.40246158558868,-3.67795615034544,3,2009
1,2010,,1.76082379797087,3,2009
2,2010,,5.02409176696066,3,2009
3,2010,,6.65572575145556,3,2009
4,2010,,7.19960374628719,3,2009
1,1996,1.2781541662181,1.27815416610493,4,2009
2,1996,1.43200215455395,1.43200215455395,4,2009
3,1996,1.62782581802385,1.62782581802385,4,2009
4,1996,1.6513219550216,1.6513219550216,4,2009
1,1997,1.99945469576015,1.99945469576015,4,2009
2,1997,2.47800754696148,2.47800754696148,4,2009
3,1997,2.64904634845811,2.64904634845811,4,2009
4,1997,3.32750039045819,3.32750039045819,4,2009
1,1998,3.63114511911551,3.63114511911551,4,2009
2,1998,2.79308072514417,2.79308072514417,4,2009
3,1998,2.66546979372377,2.66546979372377,4,2009
4,1998,1.85092399028821,1.85092399028821,4,2009
1,1999,2.11686135470479,2.11686135470479,4,2009
2,1999,2.31571584581687,2.31571584581687,4,2009
3,1999,2.97085823667667,2.97085823667667,4,2009
4,1999,3.96875764144375,3.96875764144375,4,2009
1,2000,4.23576133812236,4.23576133812236,4,2009
2,2000,4.5879134583364,4.5879134583364,4,2009
3,2000,3.85710902852343,3.85710902852343,4,2009
4,2000,3.4127689742848,3.4127689742848,4,2009
1,2001,2.92850060107617,2.92850060107617,4,2009
2,2001,2.03396187481806,2.03396187481806,4,2009
3,2001,1.63221653258265,1.63221653258265,4,2009
4,2001,1.00506270091134,1.00506270091134,4,2009
1,2002,0.498449002104939,0.498449002104939,4,2009
2,2002,0.912268807113303,0.912268807113303,4,2009
3,2002,1.18644578901872,1.18644578901872,4,2009
4,2002,1.18009814161875,1.18009814161875,4,2009
1,2003,0.946630551522487,0.946630551522487,4,2009
2,2003,0.495277417636753,0.495277417636753,4,2009
3,2003,0.665881999063833,0.665881999063833,4,2009
4,2003,1.17297632285678,1.17297632285678,4,2009
1,2004,1.74720480214017,1.74720480214017,4,2009
2,2004,2.20030629537964,2.20030629537964,4,2009
3,2004,2.02125613270752,2.02125613270752,4,2009
4,2004,1.74596639752429,1.74596639752429,4,2009
1,2005,1.43101925336655,1.43101925336655,4,2009
2,2005,1.64880108184831,1.64880108184831,4,2009
3,2005,1.97181823146984,1.97181823146984,4,2009
4,2005,2.13167324626786,2.13167324626786,4,2009
1,2006,2.70681476234209,2.70681476234209,4,2009
2,2006,3.13617523710184,3.13617523710184,4,2009
3,2006,3.09171789387366,3.09171789387366,4,2009
4,2006,3.48069061501037,3.48069061501037,4,2009
1,2007,3.42551020045228,3.42551020045228,4,2009
2,2007,2.67674963413418,2.67674963413418,4,2009
3,2007,2.69170719955401,2.69170719955401,4,2009
4,2007,2.18379951879222,2.18379951879222,4,2009
1,2008,2.18492808515045,2.18492808515045,4,2009
2,2008,1.4646856958842,1.4646856958842,4,2009
3,2008,0.441902346680245,0.441902346680242,4,2009
4,2008,-1.75408289050948,-1.75408289050948,4,2009
1,2009,-4.93583712535962,-4.93583712535963,4,2009
2,2009,-4.78445132214505,-4.78445132214505,4,2009
3,2009,-8.26051815622153,-10.1474552233816,4,2009
4,2009,-9.41920710091369,-5.63698633749277,4,2009
1,2010,,2.23568472871683,4,2009
2,2010,,6.95928736844259,4,2009
3,2010,,9.32108868830546,4,2009
4,2010,,10.1083557949264,4,2009
1,1996,1.33290836554119,1.33290836554119,1,2010
2,1996,1.44128455245993,1.44128455245993,1,2010
3,1996,1.62757233418274,1.62757233418274,1,2010
4,1996,1.62015343766631,1.62015343766631,1,2010
1,1997,1.97286175822449,1.97286175822449,1,2010
2,1997,2.48254184684924,2.48254184684924,1,2010
3,1997,2.65907848502869,2.65907848502869,1,2010
4,1997,3.33517920749449,3.33517920749449,1,2010
1,1998,3.6588482551867,3.6588482551867,1,2010
2,1998,2.795357943517,2.795357943517,1,2010
3,1998,2.67131862609415,2.67131862609415,1,2010
4,1998,1.86773493390811,1.8677349339081,1,2010
1,1999,2.11611670022906,2.11611670022906,1,2010
2,1999,2.33013486858023,2.33013486858023,1,2010
3,1999,2.98342959596087,2.98342959596087,1,2010
4,1999,3.97321946674307,3.97321946674307,1,2010
1,2000,4.25866404968385,4.25866404968385,1,2010
2,2000,4.57459177010955,4.57459177010955,1,2010
3,2000,3.84329085355111,3.84329085355111,1,2010
4,2000,3.39880585534946,3.39880585534946,1,2010
1,2001,2.89948725874043,2.89948725874043,1,2010
2,2001,2.03985585174891,2.03985585174891,1,2010
3,2001,1.63612283817844,1.63612283817844,1,2010
4,2001,1.02404301845453,1.02404301845453,1,2010
1,2002,0.513202109191369,0.513202109191369,1,2010
2,2002,0.902831484907241,0.902831484907241,1,2010
3,2002,1.18179996482959,1.18179996482959,1,2010
4,2002,1.15908735949939,1.15908735949939,1,2010
1,2003,0.955661331043878,0.955661331043878,1,2010
2,2003,0.492711653015831,0.492711653015831,1,2010
3,2003,0.64056932215748,0.64056932215748,1,2010
4,2003,1.15946098427679,1.15946098427679,1,2010
1,2004,1.71412241715712,1.71412241715712,1,2010
2,2004,2.21406749101889,2.21406749101889,1,2010
3,2004,2.06572881415896,2.06572881415896,1,2010
4,2004,1.78423517294553,1.78423517294553,1,2010
1,2005,1.43793373036807,1.43793373036807,1,2010
2,2005,1.63208160076662,1.63208160076662,1,2010
3,2005,1.93432098961188,1.93432098961188,1,2010
4,2005,2.13376546759427,2.13376546759427,1,2010
1,2006,2.70321065651469,2.70321065651469,1,2010
2,2006,3.14868763919935,3.14868763919935,1,2010
3,2006,3.11907635196589,3.11907635196589,1,2010
4,2006,3.45448255544316,3.45448255544316,1,2010
1,2007,3.44816756966284,3.44816756966284,1,2010
2,2007,2.71063002111334,2.71063002111334,1,2010
3,2007,2.6901009234156,2.6901009234156,1,2010
4,2007,2.15743616598532,2.15743616598532,1,2010
1,2008,2.1644000530012,2.1644000530012,1,2010
2,2008,1.44320903953583,1.44320903953583,1,2010
3,2008,0.420073179115699,0.420073179115699,1,2010
4,2008,-1.82967118848856,-1.82967118848856,1,2010
1,2009,-5.00641449727532,-5.00641449727532,1,2010
2,2009,-4.81921191963547,-4.81921191963547,1,2010
3,2009,-4.0312027229855,-4.0312027229855,1,2010
4,2009,-0.549865261637131,0.0802283461077797,1,2010
1,2010,2.12808663170777,2.8230226740625,1,2010
2,2010,3.73485776771471,3.74096801383247,1,2010
3,2010,4.53824333571818,3.40398462137058,1,2010
4,2010,4.80603852505267,2.3819927526297,1,2010
1,2011,,1.24491266356273,1,2010
2,2011,,0.562664610122548,1,2010
3,2011,,0.221540583402456,1,2010
4,2011,,0.10783257449576,1,2010
1,1996,1.33251079067066,1.33251079043533,2,2010
2,1996,1.43548537066027,1.43548537066027,2,2010
3,1996,1.61825775506317,1.61825775506317,2,2010
4,1996,1.61343113653707,1.61343113653707,2,2010
1,1997,1.96634758228935,1.96634758228935,2,2010
2,1997,2.48959713732546,2.48959713732546,2,2010
3,1997,2.66088128281168,2.66088128281168,2,2010
4,1997,3.33145856200583,3.33145856200583,2,2010
1,1998,3.6563847606683,3.6563847606683,2,2010
2,1998,2.7816954178091,2.7816954178091,2,2010
3,1998,2.6673640869864,2.6673640869864,2,2010
4,1998,1.86391100623913,1.86391100623913,2,2010
1,1999,2.10692040074461,2.10692040074461,2,2010
2,1999,2.32830382827394,2.32830382827394,2,2010
3,1999,2.9811761194237,2.9811761194237,2,2010
4,1999,3.98034393777638,3.98034393777638,2,2010
1,2000,4.26877770405607,4.26877770405607,2,2010
2,2000,4.59145474949185,4.59145474949185,2,2010
3,2000,3.85148134635565,3.85148134635565,2,2010
4,2000,3.39014990096902,3.39014990096902,2,2010
1,2001,2.89593459147226,2.89593459147226,2,2010
2,2001,2.02502205125978,2.02502205125978,2,2010
3,2001,1.6237771577972,1.6237771577972,2,2010
4,2001,1.02271767363817,1.02271767363817,2,2010
1,2002,0.509272428712815,0.509272428712815,2,2010
2,2002,0.907030442465451,0.907030442465451,2,2010
3,2002,1.19042659922,1.19042659922,2,2010
4,2002,1.1668329302585,1.1668329302585,2,2010
1,2003,0.962409438505984,0.962409438505984,2,2010
2,2003,0.497836620090375,0.497836620090375,2,2010
3,2003,0.645473140145136,0.645473140145136,2,2010
4,2003,1.16067182973296,1.16067182973296,2,2010
1,2004,1.72255098734142,1.72255098734142,2,2010
2,2004,2.21981300199996,2.21981300199996,2,2010
3,2004,2.06997465738987,2.06997465738987,2,2010
4,2004,1.79145772151159,1.79145772151159,2,2010
1,2005,1.44238514677957,1.44238514677957,2,2010
2,2005,1.6332631755321,1.6332631755321,2,2010
3,2005,1.93823318828823,1.93823318828823,2,2010
4,2005,2.14004313921565,2.14004313921565,2,2010
1,2006,2.69437052475718,2.69437052475718,2,2010
2,2006,3.13906624967819,3.13906624967819,2,2010
3,2006,3.11615533533407,3.11615533533407,2,2010
4,2006,3.4470436274135,3.4470436274135,2,2010
1,2007,3.447039771751,3.447039771751,2,2010
2,2007,2.71354313827012,2.71354313827012,2,2010
3,2007,2.67937127270363,2.67937127270363,2,2010
4,2007,2.15701865165852,2.15701865165852,2,2010
1,2008,2.13612877420803,2.13612877420803,2,2010
2,2008,1.40885980247023,1.40885980247023,2,2010
3,2008,0.371516176689402,0.371516176689402,2,2010
4,2008,-1.8914764230949,-1.8914764230949,2,2010
1,2009,-5.03195986357843,-5.03195986357843,2,2010
2,2009,-4.85736356355413,-4.85736356355413,2,2010
3,2009,-4.06792689482761,-4.06792689482761,2,2010
4,2009,-2.15729576182114,-2.15729576182114,2,2010
1,2010,1.86571037416925,2.84822178177997,2,2010
2,2010,4.27951405576348,4.70913697706698,2,2010
3,2010,5.4864158965606,4.39009968156742,2,2010
4,2010,5.88871651015964,2.85575975280883,2,2010
1,2011,,1.07076704831874,2,2010
2,2011,,-0.000228574375310764,2,2010
3,2011,,-0.535726385722337,2,2010
4,2011,,-0.714225656171347,2,2010
1,1996,1.3531587885137,1.35315878857485,3,2010
2,1996,1.4377189284936,1.4377189284936,3,2010
3,1996,1.61512638624752,1.61512638624752,3,2010
4,1996,1.62937377773025,1.62937377773025,3,2010
1,1997,1.94641181813926,1.94641181813926,3,2010
2,1997,2.49147147544504,2.49147147544504,3,2010
3,1997,2.67662794272778,2.67662794272778,3,2010
4,1997,3.35029418345219,3.35029418345219,3,2010
1,1998,3.65075600042546,3.65075600042546,3,2010
2,1998,2.78278270319083,2.78278270319083,3,2010
3,1998,2.68133504578336,2.68133504578336,3,2010
4,1998,1.87726409726072,1.87726409726072,3,2010
1,1999,2.13313983864325,2.13313983864325,3,2010
