fredbec/spf-europe/data/filter_spf_data_medianfc_withus_stepahead1.csv
target_quarter,target_year,spf_filter_cy,spf_filter_ny,origin_quarter,origin_year
2,1991,1.22152354482355,1.22275418994237,1,2001
3,1991,0.242686548220704,0.242686548220707,1,2001
4,1991,3.9019132783761,3.9019132783761,1,2001
1,1992,5.67949033371342,5.67949033371342,1,2001
2,1992,-2.15845385305231,-2.15845385305231,1,2001
3,1992,-1.28747712943088,-1.28747712943088,1,2001
4,1992,-0.889854327095994,-0.889854327095996,1,2001
1,1993,-2.76785324946042,-2.76785324946042,1,2001
2,1993,0.308948526366471,0.30894852636647,1,2001
3,1993,1.22447410419595,1.22447410419595,1,2001
4,1993,1.4903550775744,1.4903550775744,1,2001
1,1994,4.05992642595303,4.05992642595303,1,2001
2,1994,2.07549720979923,2.07549720979923,1,2001
3,1994,2.73678377932585,2.73678377932585,1,2001
4,1994,3.37393012264526,3.37393012264526,1,2001
1,1995,2.43561441206268,2.43561441206268,1,2001
2,1995,2.10065976966085,2.10065976966085,1,2001
3,1995,0.407450994216329,0.40745099421633,1,2001
4,1995,0.923318769291126,0.923318769291126,1,2001
1,1996,0.975795507589483,0.975795507589483,1,2001
2,1996,2.58868091543496,2.58868091543496,1,2001
3,1996,2.27653823417493,2.27653823417493,1,2001
4,1996,0.847520542300017,0.847520542300018,1,2001
1,1997,0.707462962374183,0.707462962374185,1,2001
2,1997,4.9673476350411,4.9673476350411,1,2001
3,1997,2.90482768543348,2.90482768543348,1,2001
4,1997,3.39029458423401,3.39029458423401,1,2001
1,1998,3.44358337696575,3.44358337696575,1,2001
2,1998,1.35294053178629,1.3529405317863,1,2001
3,1998,2.1617340502966,2.1617340502966,1,2001
4,1998,1.08394753321359,1.08394753321359,1,2001
1,1999,3.07501228384053,3.07501228384053,1,2001
2,1999,2.31828188277918,2.31828188277918,1,2001
3,1999,3.89934161643468,3.89934161643468,1,2001
4,1999,3.92760695631864,3.92760695631864,1,2001
1,2000,3.71508896273649,3.71508896273649,1,2001
2,2000,3.33240467802769,3.33240467802769,1,2001
3,2000,2.73217648097268,2.73217648097268,1,2001
4,2000,2.92975714037833,2.86617925723989,1,2001
1,2001,2.881377026487,2.80440022755409,1,2001
2,2001,2.45913418547041,2.44426486122177,1,2001
3,2001,2.40326827656052,2.52521623879566,1,2001
4,2001,2.38464630692389,2.68425094398927,1,2001
1,2002,,2.8493145848255,1,2001
2,2002,,2.94835276932724,1,2001
3,2002,,2.99787186157811,1,2001
4,2002,,3.01437822566174,1,2001
2,1991,1.03480126418348,1.03686683647879,2,2001
3,1991,0.221951484942907,0.221951484942907,2,2001
4,1991,3.86633767332045,3.86633767332045,2,2001
1,1992,5.86906539211933,5.86906539211933,2,2001
2,1992,-2.35096919690088,-2.35096919690087,2,2001
3,1992,-1.08865822184565,-1.08865822184565,2,2001
4,1992,-1.08937515191143,-1.08937515191143,2,2001
1,1993,-2.74514395996807,-2.74514395996807,2,2001
2,1993,0.155283009133945,0.155283009133944,2,2001
3,1993,1.57299987862149,1.5729998786215,2,2001
4,1993,1.56781798588088,1.56781798588088,2,2001
1,1994,3.61303084986029,3.61303084986029,2,2001
2,1994,2.32065514073023,2.32065514073023,2,2001
3,1994,2.95413091159094,2.95413091159094,2,2001
4,1994,3.18283271645303,3.18283271645303,2,2001
1,1995,2.35210954829024,2.35210954829024,2,2001
2,1995,2.08440208838761,2.0844020883876,2,2001
3,1995,0.377715613502794,0.377715613502794,2,2001
4,1995,1.02426197502647,1.02426197502647,2,2001
1,1996,1.14641432399198,1.14641432399198,2,2001
2,1996,2.213971591817,2.213971591817,2,2001
3,1996,2.4763225923129,2.4763225923129,2,2001
4,1996,0.690128817546776,0.690128817546776,2,2001
1,1997,1.16309018329292,1.16309018329292,2,2001
2,1997,4.7074365220728,4.70743652207279,2,2001
3,1997,2.76266170244552,2.76266170244552,2,2001
4,1997,3.59973205362374,3.59973205362374,2,2001
1,1998,3.56629010829461,3.56629010829461,2,2001
2,1998,1.2979694127919,1.2979694127919,2,2001
3,1998,2.32838326100828,2.32838326100828,2,2001
4,1998,1.031845155816,1.031845155816,2,2001
1,1999,3.14396944211055,3.14396944211055,2,2001
2,1999,2.19943459981997,2.19943459981997,2,2001
3,1999,4.07845750807045,4.07845750807045,2,2001
4,1999,4.02089109551278,4.02089109551278,2,2001
1,2000,3.7440865434178,3.7440865434178,2,2001
2,2000,3.06382008204198,3.06382008204198,2,2001
3,2000,2.23845215236032,2.23845215236032,2,2001
4,2000,2.84977351479012,2.84977351479012,2,2001
1,2001,2.75620601159382,2.6371198307587,2,2001
2,2001,2.2693624259669,2.20485394621946,2,2001
3,2001,2.04175962594448,2.14682292798201,2,2001
4,2001,1.99384666689143,2.45409340716741,2,2001
1,2002,,2.78272763898145,2,2001
2,2002,,2.97990817806988,2,2001
3,2002,,3.07849844761409,2,2001
4,2002,,3.11136187079549,2,2001
2,1991,1.05242872489413,1.0524477514032,3,2001
3,1991,-0.00996940672730595,-0.00996940672730706,3,2001
4,1991,3.9205399913538,3.9205399913538,3,2001
1,1992,5.99421609034667,5.99421609034667,3,2001
2,1992,-2.49120673522403,-2.49120673522403,3,2001
3,1992,-0.937605519471373,-0.937605519471373,3,2001
4,1992,-1.15104916961237,-1.15104916961237,3,2001
1,1993,-2.88262496431671,-2.88262496431672,3,2001
2,1993,0.314659308714548,0.314659308714549,3,2001
3,1993,1.60944996498464,1.60944996498464,3,2001
4,1993,1.62043889784009,1.62043889784009,3,2001
1,1994,3.51688399695422,3.51688399695422,3,2001
2,1994,2.32002058474339,2.32002058474339,3,2001
3,1994,2.83021061053559,2.83021061053559,3,2001
4,1994,3.40629517199069,3.40629517199069,3,2001
1,1995,2.21391989285327,2.21391989285327,3,2001
2,1995,2.15905713703166,2.15905713703166,3,2001
3,1995,0.379495896299088,0.379495896299087,3,2001
4,1995,0.93747579658503,0.93747579658503,3,2001
1,1996,1.32324665575336,1.32324665575336,3,2001
2,1996,2.05471436340903,2.05471436340903,3,2001
3,1996,2.49460789548872,2.49460789548872,3,2001
4,1996,0.606355068013964,0.606355068013964,3,2001
1,1997,1.15901880189271,1.15901880189271,3,2001
2,1997,4.82842628678435,4.82842628678435,3,2001
3,1997,2.82310645558797,2.82310645558796,3,2001
4,1997,3.51580695634033,3.51580695634033,3,2001
1,1998,3.91281199136773,3.91281199136773,3,2001
2,1998,1.33558559800491,1.33558559800491,3,2001
3,1998,2.2249500460034,2.2249500460034,3,2001
4,1998,0.911296120925131,0.911296120925131,3,2001
1,1999,3.29251087836839,3.29251087836839,3,2001
2,1999,2.1866755556742,2.1866755556742,3,2001
3,1999,4.11598662193462,4.11598662193462,3,2001
4,1999,4.00286635529183,4.00286635529183,3,2001
1,2000,3.84502351856724,3.84502351856724,3,2001
2,2000,3.02277283784982,3.02277283784982,3,2001
3,2000,2.39410547984214,2.39410547984214,3,2001
4,2000,2.43192810853234,2.43192810853235,3,2001
1,2001,2.20515515349451,2.20515515349451,3,2001
2,2001,1.27207988671262,1.1517278753369,3,2001
3,2001,1.25948715738535,1.27342303418724,3,2001
4,2001,1.74131590010748,2.0755076801622,3,2001
1,2002,,2.7138240917291,3,2001
2,2002,,3.09681393866923,3,2001
3,2002,,3.2883088621393,3,2001
4,2002,,3.35214050329599,3,2001
2,1991,0.841913188344913,0.841925737546846,4,2001
3,1991,0.292186238986238,0.292186238986235,4,2001
4,1991,3.68470964114307,3.68470964114307,4,2001
1,1992,6.06693048044398,6.06693048044397,4,2001
2,1992,-2.72207460449393,-2.72207460449392,4,2001
3,1992,-0.626125724150328,-0.626125724150328,4,2001
4,1992,-1.35108610362086,-1.35108610362086,4,2001
1,1993,-2.72852484101649,-2.72852484101649,4,2001
2,1993,0.161374048233709,0.16137404823371,4,2001
3,1993,1.79007511522771,1.79007511522771,4,2001
4,1993,1.41953252002818,1.41953252002818,4,2001
1,1994,3.41086556010453,3.41086556010453,4,2001
2,1994,2.32592621854888,2.32592621854888,4,2001
3,1994,2.98886113363803,2.98886113363803,4,2001
4,1994,3.30255754421043,3.30255754421043,4,2001
1,1995,2.14354500889271,2.14354500889271,4,2001
2,1995,2.49469266604576,2.49469266604576,4,2001
3,1995,0.404027558746245,0.404027558746246,4,2001
4,1995,0.827940929629678,0.827940929629678,4,2001
1,1996,1.12207578076406,1.12207578076407,4,2001
2,1996,2.40174720864823,2.40174720864823,4,2001
3,1996,2.32072270311448,2.32072270311447,4,2001
4,1996,0.683361866531751,0.683361866531752,4,2001
1,1997,1.11341834296861,1.11341834296861,4,2001
2,1997,4.76930198987045,4.76930198987044,4,2001
3,1997,2.69049087496911,2.69049087496911,4,2001
4,1997,3.92622136013234,3.92622136013234,4,2001
1,1998,3.56600240421159,3.56600240421159,4,2001
2,1998,1.52315176565991,1.52315176565991,4,2001
3,1998,2.05970231992401,2.05970231992401,4,2001
4,1998,0.639755161962263,0.639755161962265,4,2001
1,1999,3.92114602390967,3.92114602390967,4,2001
2,1999,2.02195374370384,2.02195374370384,4,2001
3,1999,4.48486091449987,4.48486091449987,4,2001
4,1999,3.97973979890973,3.97973979890973,4,2001
1,2000,3.96621216858499,3.96621216858499,4,2001
2,2000,3.122870020304,3.122870020304,4,2001
3,2000,2.0006956078134,2.0006956078134,4,2001
4,2000,2.41662200697821,2.41662200697821,4,2001
1,2001,2.06303883718004,2.06303883718004,4,2001
2,2001,0.201769249791095,0.201769249791095,4,2001
3,2001,0.0221616565050618,-0.0843875898420564,4,2001
4,2001,0.732763373457574,0.948722041400134,4,2001
1,2002,,1.40908616986103,4,2001
2,2002,,2.53459038607247,4,2001
3,2002,,3.09734249417819,4,2001
4,2002,,3.28492653021343,4,2001
2,1991,0.786926867179032,0.787489868972988,1,2002
3,1991,0.288195043804129,0.288195043804129,1,2002
4,1991,3.69325564874532,3.69325564874532,1,2002
1,1992,5.97145724898836,5.97145724898835,1,2002
2,1992,-2.79774822990261,-2.79774822990261,1,2002
3,1992,-0.723737344476428,-0.723737344476427,1,2002
4,1992,-0.948044383700275,-0.948044383700276,1,2002
1,1993,-2.87990289662321,-2.87990289662321,1,2002
2,1993,0.0643690235962771,0.0643690235962775,1,2002
3,1993,1.82521421678954,1.82521421678954,1,2002
4,1993,1.54027352980426,1.54027352980426,1,2002
1,1994,3.58471206957427,3.58471206957427,1,2002
2,1994,1.84282664278237,1.84282664278237,1,2002
3,1994,2.93809189475087,2.93809189475087,1,2002
4,1994,3.38692934308438,3.38692934308438,1,2002
1,1995,2.00543866781941,2.00543866781941,1,2002
2,1995,2.71771075129093,2.71771075129093,1,2002
3,1995,0.605258348529513,0.605258348529514,1,2002
4,1995,0.725899239844984,0.725899239844984,1,2002
1,1996,0.886956546375649,0.886956546375651,1,2002
2,1996,2.71309327189351,2.71309327189351,1,2002
3,1996,2.14173184003821,2.14173184003821,1,2002
4,1996,0.804261679394934,0.804261679394935,1,2002
1,1997,1.37415590078684,1.37415590078684,1,2002
2,1997,4.48490669018675,4.48490669018675,1,2002
3,1997,2.53794313508893,2.53794313508893,1,2002
4,1997,4.19256644987249,4.19256644987249,1,2002
1,1998,3.59520478034243,3.59520478034243,1,2002
2,1998,1.6559111335777,1.6559111335777,1,2002
3,1998,2.08758882679774,2.08758882679774,1,2002
4,1998,0.486926641901329,0.48692664190133,1,2002
1,1999,3.68906050600992,3.68906050600992,1,2002
2,1999,2.52550991846712,2.52550991846712,1,2002
3,1999,4.41874542105116,4.41874542105116,1,2002
4,1999,3.94443374673268,3.94443374673268,1,2002
1,2000,3.60552915185686,3.60552915185686,1,2002
2,2000,3.55783336618241,3.55783336618241,1,2002
3,2000,1.65103910582047,1.65103910582047,1,2002
4,2000,2.35250056722371,2.35250056722371,1,2002
1,2001,2.32500340291779,2.32500340291779,1,2002
2,2001,0.252532341855337,0.252532341855338,1,2002
3,2001,0.496624005674783,0.496624005674784,1,2002
4,2001,1.47345164287141,1.34508788266743,1,2002
1,2002,1.07216952838122,0.923350096212099,1,2002
2,2002,1.84139059234526,1.80436178875696,1,2002
3,2002,1.78047988955945,2.02266385029155,1,2002
4,2002,1.76017632196418,2.3677351342437,1,2002
1,2003,,2.7081150468778,1,2002
2,2003,,2.91234299445827,1,2002
3,2003,,3.0144569682485,1,2002
4,2003,,3.04849495951191,1,2002
2,1991,0.777483072745297,0.77749934267285,2,2002
3,1991,0.22568991550247,0.22568991550247,2,2002
4,1991,3.71561726558081,3.71561726558081,2,2002
1,1992,6.01893356468819,6.0189335646882,2,2002
2,1992,-2.81194330843926,-2.81194330843926,2,2002
3,1992,-0.770033722316831,-0.770033722316832,2,2002
4,1992,-0.936530950474157,-0.936530950474157,2,2002
1,1993,-2.83792400619181,-2.83792400619181,2,2002
2,1993,0.0324479751942821,0.0324479751942826,2,2002
3,1993,1.83991390890552,1.83991390890552,2,2002
4,1993,1.51358535541912,1.51358535541912,2,2002
1,1994,3.60233648005317,3.60233648005317,2,2002
2,1994,1.86559523521346,1.86559523521346,2,2002
3,1994,2.88508884116343,2.88508884116343,2,2002
4,1994,3.43945734810545,3.43945734810545,2,2002
1,1995,1.99937686420095,1.99937686420095,2,2002
2,1995,2.72954032024495,2.72954032024495,2,2002
3,1995,0.55850459509934,0.55850459509934,2,2002
4,1995,0.744095366510211,0.744095366510211,2,2002
1,1996,0.780341221206848,0.780341221206847,2,2002
2,1996,2.85991541894535,2.85991541894535,2,2002
3,1996,2.10998531818669,2.10998531818669,2,2002
4,1996,0.885786834255153,0.885786834255153,2,2002
1,1997,1.23804014289481,1.23804014289481,2,2002
2,1997,4.52495430723028,4.52495430723028,2,2002
3,1997,2.5092033556706,2.5092033556706,2,2002
4,1997,4.33538722378975,4.33538722378974,2,2002
1,1998,3.53989334836493,3.53989334836493,2,2002
2,1998,1.57094190546569,1.57094190546569,2,2002
3,1998,2.02485233533483,2.02485233533483,2,2002
4,1998,0.645572083094479,0.64557208309448,2,2002
1,1999,3.66898844239227,3.66898844239227,2,2002
2,1999,2.35397182857779,2.35397182857779,2,2002
3,1999,4.45215706398308,4.45215706398308,2,2002
4,1999,4.16833169045137,4.16833169045137,2,2002
1,2000,3.47137380775711,3.47137380775711,2,2002
2,2000,3.49191228614774,3.49191228614774,2,2002
3,2000,1.62286699920469,1.62286699920469,2,2002
4,2000,2.6009432289396,2.6009432289396,2,2002
1,2001,2.05083219419673,2.05083219419673,2,2002
2,2001,0.288494506647406,0.288494506647407,2,2002
3,2001,0.757582858574813,0.757582858574812,2,2002
4,2001,-0.660316880827818,-0.660316880827816,2,2002
1,2002,0.914511943562101,1.02837163800804,2,2002
2,2002,2.49059623692053,2.54977079495247,2,2002
3,2002,3.20544320744237,3.1068412838667,2,2002
4,2002,3.43525178837526,2.99905778480053,2,2002
1,2003,,2.68734401415435,2,2002
2,2003,,2.50031575176664,2,2002
3,2003,,2.40680162057278,2,2002
4,2003,,2.37563024350816,2,2002
2,1991,0.667678930644215,0.66808450022102,3,2002
3,1991,0.306184198387238,0.306184198387236,3,2002
4,1991,3.54926970265108,3.54926970265108,3,2002
1,1992,5.99779741645703,5.99779741645703,3,2002
2,1992,-2.85420737178148,-2.85420737178148,3,2002
3,1992,-0.45906078336696,-0.45906078336696,3,2002
4,1992,-0.950638774360658,-0.950638774360657,3,2002
1,1993,-3.0240936913276,-3.0240936913276,3,2002
2,1993,0.178850920303453,0.178850920303453,3,2002
3,1993,1.90925973917375,1.90925973917375,3,2002
4,1993,1.46421617396748,1.46421617396748,3,2002
1,1994,3.45342580787114,3.45342580787114,3,2002
2,1994,2.07736416364273,2.07736416364273,3,2002
3,1994,2.94263239608419,2.94263239608419,3,2002
4,1994,3.44290711466555,3.44290711466555,3,2002
1,1995,1.85697704427168,1.85697704427168,3,2002
2,1995,2.56535102147619,2.56535102147619,3,2002
3,1995,0.752675748222509,0.752675748222509,3,2002
4,1995,0.988278789111274,0.988278789111274,3,2002
1,1996,0.537155187826954,0.537155187826954,3,2002
2,1996,2.82662062212806,2.82662062212806,3,2002
3,1996,2.15523863275591,2.15523863275591,3,2002
4,1996,0.835145577286079,0.835145577286078,3,2002
1,1997,1.30502380744921,1.30502380744921,3,2002
2,1997,4.46873552964069,4.46873552964069,3,2002
3,1997,2.52134936572452,2.52134936572452,3,2002
4,1997,4.30342612208165,4.30342612208166,3,2002
1,1998,3.30733470002604,3.30733470002604,3,2002
2,1998,1.75028353311579,1.75028353311579,3,2002
3,1998,2.1789257400268,2.1789257400268,3,2002
4,1998,0.83932869640564,0.839328696405639,3,2002
1,1999,3.31138388193228,3.31138388193228,3,2002
2,1999,2.57883287392817,2.57883287392817,3,2002
3,1999,4.84087533194024,4.84087533194024,3,2002
4,1999,4.16247388400284,4.16247388400284,3,2002
1,2000,3.70303378882957,3.70303378882957,3,2002
2,2000,3.56384715335505,3.56384715335505,3,2002
3,2000,1.66434112720715,1.66434112720715,3,2002
4,2000,2.78226191301132,2.78226191301132,3,2002
1,2001,2.03645957584742,2.03645957584742,3,2002
2,2001,0.123589630967458,0.123589630967458,3,2002
3,2001,0.393459944241004,0.393459944241004,3,2002
4,2001,-1.15449083883461,-1.15449083883461,3,2002
1,2002,0.871087304173601,0.871087304173601,3,2002
2,2002,2.76568409465485,2.86443601100024,3,2002
3,2002,3.37823064429774,3.36689681908866,3,2002
4,2002,3.21231646862896,2.93793150765597,3,2002
1,2003,,2.40430016178677,3,2002
2,2003,,2.08412135426525,3,2002
3,2003,,1.92403195050449,3,2002
4,2003,,1.87066881591757,3,2002
2,1991,0.608172236849209,0.607611424786594,4,2002
3,1991,0.0836117815028477,0.0836117815028441,4,2002
4,1991,3.61804415517151,3.61804415517151,4,2002
1,1992,5.8793902782831,5.87939027828311,4,2002
2,1992,-2.62666452122354,-2.62666452122355,4,2002
3,1992,-0.546466672417323,-0.546466672417322,4,2002
4,1992,-0.725766871994915,-0.725766871994914,4,2002
1,1993,-3.15681221590003,-3.15681221590003,4,2002
2,1993,0.237570472707206,0.237570472707205,4,2002
3,1993,1.66410641550967,1.66410641550967,4,2002
4,1993,1.57998932792636,1.57998932792636,4,2002
1,1994,3.3871397463765,3.3871397463765,4,2002
2,1994,2.19380037143457,2.19380037143457,4,2002
3,1994,2.93210432307678,2.93210432307678,4,2002
4,1994,3.45730011421375,3.45730011421375,4,2002
1,1995,1.77094457775338,1.77094457775337,4,2002
2,1995,2.56818889106962,2.56818889106962,4,2002
3,1995,0.856135151610049,0.856135151610049,4,2002
4,1995,0.977816676388255,0.977816676388255,4,2002
1,1996,0.485973311548272,0.48597331154827,4,2002
2,1996,2.81518079667107,2.81518079667107,4,2002
3,1996,2.22324799912992,2.22324799912992,4,2002
4,1996,0.762095992150824,0.762095992150823,4,2002
1,1997,1.26672231784526,1.26672231784526,4,2002
2,1997,4.51657681923865,4.51657681923865,4,2002
3,1997,2.62711197964616,2.62711197964616,4,2002
4,1997,4.20162610169879,4.20162610169879,4,2002
1,1998,3.31635061646964,3.31635061646964,4,2002
2,1998,1.57135994170547,1.57135994170547,4,2002
3,1998,2.26976557395602,2.26976557395602,4,2002
4,1998,1.19869291015544,1.19869291015544,4,2002
1,1999,3.30661004054928,3.30661004054929,4,2002
2,1999,2.17536995105485,2.17536995105485,4,2002
3,1999,5.2634970393816,5.26349703938161,4,2002
4,1999,4.54149394751691,4.54149394751691,4,2002
1,2000,3.31864532175232,3.31864532175232,4,2002
2,2000,3.44350359552477,3.44350359552477,4,2002
3,2000,1.60348148430327,1.60348148430327,4,2002
4,2000,2.6360078233264,2.6360078233264,4,2002
1,2001,2.04880247153765,2.04880247153765,4,2002
2,2001,0.152702882643929,0.152702882643929,4,2002
3,2001,0.653891626050894,0.653891626050897,4,2002
4,2001,-1.15549315344257,-1.15549315344257,4,2002
1,2002,1.42688514205364,1.42688514205365,4,2002
2,2002,1.36578692645493,1.36578692645493,4,2002
3,2002,1.62311456508225,1.60172244445812,4,2002
4,2002,1.75966413975505,1.80260467243758,4,2002
1,2003,,2.0328395623956,4,2002
2,2003,,1.83650408116049,4,2002
3,2003,,1.73833634054294,4,2002
4,2003,,1.70561376033709,4,2002
2,1991,0.66722795131069,0.668619960195392,1,2003
3,1991,0.0901064604855536,0.0901064604855496,1,2003
4,1991,3.62420817979585,3.62420817979585,1,2003
1,1992,5.80768287763364,5.80768287763364,1,2003
2,1992,-2.53762417943672,-2.53762417943672,1,2003
3,1992,-0.589066339022293,-0.589066339022292,1,2003
4,1992,-0.794743857885194,-0.794743857885194,1,2003
1,1993,-3.07154185756369,-3.0715418575637,1,2003
2,1993,0.225807530751364,0.225807530751366,1,2003
3,1993,1.64351033033565,1.64351033033565,1,2003
4,1993,1.52643065312983,1.52643065312983,1,2003
1,1994,3.40471670205384,3.40471670205384,1,2003
2,1994,2.26883938067859,2.26883938067859,1,2003
3,1994,2.93662878963026,2.93662878963026,1,2003
4,1994,3.34691549666741,3.34691549666741,1,2003
1,1995,2.01263585975826,2.01263585975826,1,2003
2,1995,2.32534015365153,2.32534015365153,1,2003
3,1995,0.894136657982504,0.894136657982504,1,2003
4,1995,0.803932516126293,0.803932516126294,1,2003
1,1996,0.72477285448387,0.724772854483869,1,2003
2,1996,2.65033236331005,2.65033236331005,1,2003
3,1996,2.30179056944864,2.30179056944864,1,2003
4,1996,0.8823038400956,0.8823038400956,1,2003
1,1997,1.13635672756449,1.13635672756449,1,2003
2,1997,4.51583540291922,4.51583540291922,1,2003
3,1997,2.69060599960511,2.69060599960511,1,2003
4,1997,4.22074774407393,4.22074774407393,1,2003
1,1998,3.29212528831273,3.29212528831273,1,2003
2,1998,1.54608539630139,1.54608539630139,1,2003
3,1998,2.32435024949886,2.32435024949886,1,2003
4,1998,1.28156707858373,1.28156707858374,1,2003
1,1999,3.38908956625623,3.38908956625623,1,2003
2,1999,2.15872922899629,2.15872922899629,1,2003
3,1999,5.32789670063329,5.32789670063329,1,2003
4,1999,4.38336652673523,4.38336652673523,1,2003
1,2000,3.5635552466752,3.5635552466752,1,2003
2,2000,3.29415245323805,3.29415245323805,1,2003
3,2000,1.52456156036294,1.52456156036294,1,2003
4,2000,2.57858522032781,2.57858522032781,1,2003
1,2001,2.07671028998448,2.07671028998448,1,2003
2,2001,0.00360412451885273,0.00360412451885317,1,2003
3,2001,0.729189350328351,0.729189350328352,1,2003
4,2001,-0.976146818070255,-0.976146818070254,1,2003
1,2002,1.65740257690419,1.65740257690419,1,2003
2,2002,1.34516695428022,1.34516695428022,1,2003
3,2002,1.33087299458941,1.33087299458941,1,2003
4,2002,1.67813175762513,1.45107981042931,1,2003
1,2003,1.67394024630915,1.40028668076983,1,2003
2,2003,1.59185406356935,1.53003096173609,1,2003
3,2003,0.965799930727806,1.40718641848331,1,2003
4,2003,0.757115219780624,1.83644976904909,1,2003
1,2004,,2.42421418361164,1,2003
2,2004,,2.77687283234917,1,2003
3,2004,,2.95320215671794,1,2003
4,2004,,3.01197859817419,1,2003
2,1991,0.66208176610232,0.661409088801452,2,2003
3,1991,0.10719872286542,0.107198722865419,2,2003
4,1991,3.61150841305884,3.61150841305884,2,2003
1,1992,5.81065426800631,5.81065426800631,2,2003
2,1992,-2.5503035659349,-2.5503035659349,2,2003
3,1992,-0.569569956135197,-0.569569956135196,2,2003
4,1992,-0.797734029685127,-0.797734029685126,2,2003
1,1993,-3.06350742607352,-3.06350742607352,2,2003
2,1993,0.201849786532437,0.201849786532438,2,2003
3,1993,1.67076383277862,1.67076383277862,2,2003
4,1993,1.49377188837201,1.49377188837201,2,2003
1,1994,3.41744168619424,3.41744168619424,2,2003
2,1994,2.28449578704559,2.28449578704559,2,2003
3,1994,2.91184575999728,2.91184575999728,2,2003
4,1994,3.36729425891873,3.36729425891873,2,2003
1,1995,2.01696049753626,2.01696049753626,2,2003
2,1995,2.33012645657373,2.33012645657373,2,2003
3,1995,0.893099384687845,0.893099384687845,2,2003
4,1995,0.840839103229918,0.840839103229918,2,2003
1,1996,0.68887980751815,0.688879807518151,2,2003
2,1996,2.64253195708866,2.64253195708866,2,2003
3,1996,2.30963535450863,2.30963535450863,2,2003
4,1996,0.902997582425602,0.902997582425602,2,2003
1,1997,1.12091264210641,1.12091264210641,2,2003
2,1997,4.51922831462348,4.51922831462348,2,2003
3,1997,2.69508832329282,2.69508832329282,2,2003
4,1997,4.22319369515163,4.22319369515163,2,2003
1,1998,3.23656386715965,3.23656386715965,2,2003
2,1998,1.55418894213297,1.55418894213297,2,2003
3,1998,2.33656427032545,2.33656427032545,2,2003
4,1998,1.28563297544471,1.28563297544471,2,2003
1,1999,3.35852928776432,3.35852928776432,2,2003
2,1999,2.16988051129676,2.16988051129676,2,2003
3,1999,5.36113576350736,5.36113576350736,2,2003
4,1999,4.32558034449801,4.32558034449801,2,2003
1,2000,3.65056242144108,3.65056242144108,2,2003
2,2000,3.28090443766098,3.28090443766098,2,2003
3,2000,1.73604020732794,1.73604020732794,2,2003
4,2000,2.40267335448872,2.40267335448872,2,2003
1,2001,2.21309050353962,2.21309050353962,2,2003
2,2001,-0.0373905785937319,-0.0373905785937323,2,2003
3,2001,0.574680267060757,0.574680267060757,2,2003
4,2001,-0.903051255713049,-0.903051255713051,2,2003
1,2002,1.56427636927152,1.56427636927152,2,2003
2,2002,1.31103400431281,1.31103400431281,2,2003
3,2002,1.56915219567277,1.56915219567277,2,2003
4,2002,0.67982324380218,0.679823243802181,2,2003
1,2003,0.698161988216355,0.510347777181611,2,2003
2,2003,1.04786898358493,0.942679580352542,2,2003
3,2003,1.37020341733255,1.53701508965945,2,2003
4,2003,0.838076554347099,1.57204610843055,2,2003
1,2004,,2.08891875986019,2,2003
2,2004,,2.39904235071798,2,2003
3,2004,,2.55410414614687,2,2003
4,2004,,2.60579141128984,2,2003
2,1991,0.665554321704582,0.665568921127058,3,2003
3,1991,0.053063055651337,0.0530630556513375,3,2003
4,1991,3.63603450103813,3.63603450103813,3,2003
1,1992,5.87671484707535,5.87671484707535,3,2003
2,1992,-2.63457834356004,-2.63457834356003,3,2003
3,1992,-0.528222963846946,-0.528222963846947,3,2003
4,1992,-0.837194098036797,-0.837194098036798,3,2003
1,1993,-2.99276584220347,-2.99276584220347,3,2003
2,1993,0.0806831367059062,0.0806831367059058,3,2003
3,1993,1.82048086998403,1.82048086998403,3,2003
4,1993,1.39204251337042,1.39204251337042,3,2003
1,1994,3.38244782777244,3.38244782777244,3,2003
2,1994,2.39589506499676,2.39589506499676,3,2003
3,1994,2.83133841037806,2.83133841037806,3,2003
4,1994,3.46221215821649,3.46221215821649,3,2003
1,1995,1.97702639926309,1.97702639926309,3,2003
2,1995,2.30520798808505,2.30520798808504,3,2003
3,1995,0.931404891038423,0.931404891038423,3,2003
4,1995,0.771497220763684,0.771497220763684,3,2003
1,1996,0.830870715667608,0.830870715667609,3,2003
2,1996,2.47648348408296,2.47648348408296,3,2003
3,1996,2.31237439127119,2.31237439127119,3,2003
4,1996,0.959839050563293,0.959839050563294,3,2003
1,1997,1.04743535399276,1.04743535399277,3,2003
2,1997,4.70585273571558,4.70585273571558,3,2003
3,1997,2.5726669449146,2.5726669449146,3,2003
4,1997,4.22823013885052,4.22823013885052,3,2003
1,1998,3.27851687194112,3.27851687194112,3,2003
2,1998,1.59032098687863,1.59032098687864,3,2003
3,1998,2.23896357194273,2.23896357194273,3,2003
4,1998,1.22581878458201,1.22581878458201,3,2003
1,1999,3.52160423593369,3.52160423593368,3,2003
2,1999,2.18645894188847,2.18645894188847,3,2003
3,1999,5.2505647250295,5.25056472502949,3,2003
4,1999,4.32329012708403,4.32329012708403,3,2003
1,2000,3.85516062526246,3.85516062526245,3,2003
2,2000,3.20328714534273,3.20328714534273,3,2003
3,2000,1.49947549776155,1.49947549776155,3,2003
4,2000,2.53221302620594,2.53221302620594,3,2003
1,2001,2.38971592778377,2.38971592778376,3,2003
2,2001,-0.00523271282226823,-0.00523271282226645,3,2003
3,2001,0.627308838472041,0.62730883847204,3,2003
4,2001,-0.71394784950042,-0.713947849500417,3,2003
1,2002,1.69226394821267,1.69226394821267,3,2003
2,2002,1.56720075437216,1.56720075437216,3,2003
3,2002,1.29445495035709,1.29445495035709,3,2003
4,2002,0.268894358114992,0.268894358114991,3,2003
1,2003,0.0381512951699543,0.0381512951699519,3,2003
2,2003,0.173404712213692,0.169316214865942,3,2003
3,2003,1.05242145518787,1.05202601724477,3,2003
4,2003,1.86632523103418,1.87948473091098,3,2003
1,2004,,1.91327293644639,3,2003
2,2004,,1.93354585976763,3,2003
3,2004,,1.94368232142825,3,2003
4,2004,,1.94706114198179,3,2003
2,1991,1.00610237766249,1.00744629025363,4,2003
3,1991,-0.167844265078254,-0.167844265078253,4,2003
4,1991,3.86497812734148,3.86497812734148,4,2003
1,1992,6.17315943487071,6.17315943487071,4,2003
2,1992,-2.92162862841187,-2.92162862841187,4,2003
3,1992,-0.950648553249134,-0.950648553249134,4,2003
4,1992,-0.944324582474565,-0.944324582474565,4,2003
1,1993,-2.50684662922609,-2.50684662922609,4,2003
2,1993,0.0828702304034756,0.0828702304034756,4,2003
3,1993,1.58422016107451,1.58422016107451,4,2003
4,1993,1.30000910931376,1.30000910931376,4,2003
1,1994,3.70711839367643,3.70711839367643,4,2003
2,1994,2.37413479044255,2.37413479044255,4,2003
3,1994,2.67160586563913,2.67160586563913,4,2003
4,1994,3.31245232539286,3.31245232539286,4,2003
1,1995,2.07072280026828,2.07072280026828,4,2003
2,1995,2.34982511580859,2.34982511580859,4,2003
3,1995,0.90046870844156,0.90046870844156,4,2003
4,1995,0.905514467958213,0.905514467958213,4,2003
1,1996,0.826226154501653,0.826226154501653,4,2003
2,1996,2.59895900921112,2.59895900921112,4,2003
3,1996,2.1077907910882,2.1077907910882,4,2003
4,1996,0.626045057527858,0.626045057527858,4,2003
1,1997,1.03100474651674,1.03100474651674,4,2003
2,1997,5.12247378166941,5.12247378166941,4,2003
3,1997,2.69901887810933,2.69901887810933,4,2003
4,1997,4.07726606176935,4.07726606176935,4,2003
1,1998,3.21715833270742,3.21715833270742,4,2003
2,1998,1.68524883926775,1.68524883926775,4,2003
3,1998,2.18044339362367,2.18044339362367,4,2003
4,1998,1.13861724198892,1.13861724198892,4,2003
1,1999,3.49312308598628,3.49312308598628,4,2003
2,1999,2.44245695093293,2.44245695093293,4,2003
3,1999,5.10756404599224,5.10756404599224,4,2003
4,1999,4.22075455788153,4.22075455788153,4,2003
1,2000,3.85377832509792,3.85377832509792,4,2003
2,2000,3.43836003192288,3.43836003192288,4,2003
3,2000,1.31129190065531,1.31129190065531,4,2003
4,2000,2.41116725033859,2.41116725033859,4,2003
1,2001,2.73723296734629,2.73723296734629,4,2003
2,2001,0.112340729903293,0.112340729903293,4,2003
3,2001,0.681054385091717,0.681054385091717,4,2003
4,2001,-0.408919495760351,-0.408919495760351,4,2003
1,2002,1.3860043471027,1.3860043471027,4,2003
2,2002,1.9123937829518,1.9123937829518,4,2003
3,2002,0.908574109917781,0.908574109917781,4,2003
4,2002,0.240574967038865,0.240574967038865,4,2003
1,2003,0.0986980067738008,0.0986980067738008,4,2003
2,2003,-0.311977767344795,-0.311977767344795,4,2003
3,2003,1.05857502706795,1.04740745814054,4,2003
4,2003,1.97807634406569,1.99983498578955,4,2003
1,2004,,2.32758532719202,4,2003
2,2004,,1.61574407900546,4,2003
3,2004,,1.25982345491218,4,2003
4,2004,,1.14118324688109,4,2003
2,1991,1.22623110510043,1.22626782570321,1,2004
3,1991,-0.176289228282768,-0.176289228282765,1,2004
4,1991,3.92568547224408,3.92568547224408,1,2004
1,1992,6.05690114719641,6.05690114719641,1,2004
2,1992,-2.95299805652298,-2.95299805652298,1,2004
3,1992,-0.956038800367619,-0.95603880036762,1,2004
4,1992,-0.962335822275239,-0.962335822275239,1,2004
1,1993,-2.46720661414054,-2.46720661414054,1,2004
2,1993,0.0757300264552905,0.0757300264552905,1,2004
3,1993,1.53744445956821,1.5374444595682,1,2004
4,1993,1.13704350298645,1.13704350298645,1,2004
1,1994,3.94695882197131,3.94695882197131,1,2004
2,1994,2.38043185111621,2.38043185111621,1,2004
3,1994,2.65589774823909,2.65589774823909,1,2004
4,1994,3.23239614942077,3.23239614942077,1,2004
1,1995,2.20656134950181,2.20656134950181,1,2004
2,1995,2.29961537022547,2.29961537022547,1,2004
3,1995,0.835771922424634,0.835771922424634,1,2004
4,1995,0.950115934852747,0.950115934852747,1,2004
1,1996,0.565495681547268,0.565495681547269,1,2004
2,1996,2.9061348881851,2.9061348881851,1,2004
3,1996,2.17249932422405,2.17249932422405,1,2004
4,1996,0.660453005259632,0.660453005259632,1,2004
1,1997,0.939926060999885,0.939926060999886,1,2004
2,1997,4.98079735301333,4.98079735301333,1,2004
3,1997,2.78353619433771,2.78353619433771,1,2004
4,1997,4.09812727067931,4.09812727067931,1,2004
1,1998,3.2674433031352,3.2674433031352,1,2004
2,1998,1.59699200188972,1.59699200188972,1,2004
3,1998,2.18298175669338,2.18298175669338,1,2004
4,1998,1.08098977493745,1.08098977493745,1,2004
1,1999,3.64615255697471,3.64615255697471,1,2004
2,1999,2.30040226035957,2.30040226035957,1,2004
3,1999,5.06956639725999,5.06956639725999,1,2004
4,1999,4.31239854856027,4.31239854856027,1,2004
1,2000,3.85201938998962,3.85201938998962,1,2004
2,2000,3.51401942068157,3.51401942068157,1,2004
3,2000,1.29188395697091,1.29188395697091,1,2004
4,2000,2.49146910394755,2.49146910394755,1,2004
1,2001,2.7249600630479,2.7249600630479,1,2004
2,2001,0.0917830902954058,0.0917830902954062,1,2004
3,2001,0.776822286087908,0.776822286087908,1,2004
4,2001,-0.51673008730002,-0.51673008730002,1,2004
1,2002,1.53256420348793,1.53256420348793,1,2004
2,2002,1.97944645253352,1.97944645253352,1,2004
3,2002,0.891602966424077,0.891602966424077,1,2004
4,2002,0.0380902538851929,0.0380902538851931,1,2004
1,2003,-0.0660495724325133,-0.0660495724325133,1,2004
2,2003,-0.411664245131504,-0.411664245131503,1,2004
3,2003,1.54413532335784,1.54413532335784,1,2004
4,2003,2.21891231803179,2.01715475856478,1,2004
1,2004,2.33298448255403,2.09203933108476,1,2004
2,2004,2.24959819183945,2.19586139109993,1,2004
3,2004,1.24134738801873,1.63520422614986,1,2004
4,2004,0.905263786745161,1.84848745208958,1,2004
1,2005,,2.34869863657676,1,2004
2,2005,,2.64882534726907,1,2004
3,2005,,2.79888870261522,1,2004
4,2005,,2.84890982106394,1,2004
2,1991,1.22298441232884,1.22460171798514,2,2004
3,1991,-0.176185150616115,-0.176185150616115,2,2004
4,1991,3.91398123811415,3.91398123811415,2,2004
1,1992,6.05705341424436,6.05705341424436,2,2004
2,1992,-2.93855106466615,-2.93855106466615,2,2004
3,1992,-0.959471272404688,-0.959471272404688,2,2004
4,1992,-0.965368413904588,-0.965368413904588,2,2004
1,1993,-2.46837005939173,-2.46837005939173,2,2004
2,1993,0.0771523143741737,0.0771523143741737,2,2004
3,1993,1.53479347912469,1.53479347912469,2,2004
4,1993,1.14399862276771,1.14399862276771,2,2004
1,1994,3.93807772545574,3.93807772545573,2,2004
2,1994,2.38117399207389,2.38117399207389,2,2004
3,1994,2.66669036966347,2.66669036966347,2,2004
4,1994,3.22628492863208,3.22628492863208,2,2004
1,1995,2.20233030656991,2.20233030656991,2,2004
2,1995,2.30945216709078,2.30945216709078,2,2004
3,1995,0.827532975043654,0.827532975043655,2,2004
4,1995,0.950313658013169,0.950313658013169,2,2004
1,1996,0.57147206418906,0.571472064189061,2,2004
2,1996,2.90008733123313,2.90008733123312,2,2004
3,1996,2.17165994499655,2.17165994499655,2,2004
4,1996,0.662638380728131,0.662638380728132,2,2004
1,1997,0.940950289247899,0.940950289247901,2,2004
2,1997,4.98073174206768,4.98073174206768,2,2004
3,1997,2.77960187305868,2.77960187305868,2,2004
4,1997,4.10249885314156,4.10249885314156,2,2004
1,1998,3.26214681515864,3.26214681515864,2,2004
2,1998,1.5982399697569,1.5982399697569,2,2004
3,1998,2.18139631548289,2.18139631548289,2,2004
4,1998,1.09613941279445,1.09613941279445,2,2004
1,1999,3.63914588722736,3.63914588722736,2,2004
2,1999,2.29415075655977,2.29415075655977,2,2004
3,1999,5.07242433811022,5.07242433811021,2,2004
4,1999,4.30930369156488,4.30930369156488,2,2004
1,2000,3.76740369160826,3.76740369160826,2,2004
2,2000,3.56389811138931,3.56389811138931,2,2004
3,2000,1.22555043764698,1.22555043764698,2,2004
4,2000,2.47154440175974,2.47154440175974,2,2004
1,2001,2.72705464165655,2.72705464165654,2,2004
2,2001,0.140826700524621,0.140826700524622,2,2004
3,2001,0.712008090876215,0.712008090876215,2,2004
4,2001,-0.528307517940174,-0.528307517940173,2,2004
1,2002,1.52101284942108,1.52101284942108,2,2004
2,2002,2.01956722313039,2.01956722313039,2,2004
3,2002,0.923696449975009,0.923696449975009,2,2004
4,2002,0.00456240145008102,0.0045624014500818,2,2004
1,2003,-0.0570022396637504,-0.0570022396637502,2,2004
2,2003,-0.350421416123714,-0.350421416123713,2,2004
3,2003,1.55394005415075,1.55394005415075,2,2004
4,2003,1.24123691900133,1.24123691900133,2,2004
1,2004,1.65149763750409,1.58023790258424,2,2004
2,2004,2.11807276496782,2.07677030721596,2,2004
3,2004,2.23244083490981,2.29607089313934,2,2004
4,2004,1.69706692580729,1.97902318383983,2,2004
1,2005,,2.17105500767787,2,2004
2,2005,,2.28627410198069,2,2004
3,2005,,2.3438836491321,2,2004
4,2005,,2.36308683151591,2,2004
2,1991,1.19493493431619,1.19495979650009,3,2004
3,1991,-0.11046162331807,-0.11046162331807,3,2004
4,1991,3.85861376388277,3.85861376388277,3,2004
1,1992,6.1763201572335,6.17632015723351,3,2004
2,1992,-3.01851872238129,-3.01851872238129,3,2004
3,1992,-1.11541873342903,-1.11541873342903,3,2004
4,1992,-0.797438459107813,-0.797438459107813,3,2004
1,1993,-2.69768655969261,-2.69768655969261,3,2004
2,1993,0.297037800842826,0.297037800842826,3,2004
3,1993,1.66878901236494,1.66878901236494,3,2004
4,1993,1.0515539788533,1.0515539788533,3,2004
1,1994,3.75829992148429,3.75829992148429,3,2004
2,1994,2.51468094643317,2.51468094643317,3,2004
3,1994,2.72104894865002,2.72104894865002,3,2004
4,1994,3.21168444187441,3.21168444187441,3,2004
1,1995,2.19052812109859,2.19052812109859,3,2004
2,1995,2.26254420786167,2.26254420786167,3,2004
3,1995,0.781056351684307,0.781056351684307,3,2004
4,1995,1.03526317471869,1.03526317471869,3,2004
1,1996,0.670223881824384,0.670223881824384,3,2004
2,1996,2.83564488865313,2.83564488865313,3,2004
3,1996,1.98627484219218,1.98627484219218,3,2004
4,1996,0.708926347909289,0.708926347909289,3,2004
1,1997,0.887826265078419,0.887826265078418,3,2004
2,1997,5.0780136856438,5.0780136856438,3,2004
3,1997,2.87208348124859,2.87208348124859,3,2004
4,1997,4.13907364673085,4.13907364673085,3,2004
1,1998,3.06114331645786,3.06114331645786,3,2004
2,1998,1.71941677224947,1.71941677224947,3,2004
3,1998,2.20920382638696,2.20920382638696,3,2004
4,1998,1.08772019941763,1.08772019941763,3,2004
1,1999,3.46813323065151,3.46813323065151,3,2004
2,1999,2.47574860914424,2.47574860914424,3,2004
3,1999,5.02728741405072,5.02728741405072,3,2004
4,1999,4.37736364134076,4.37736364134076,3,2004
1,2000,3.66968532826999,3.66968532826999,3,2004
2,2000,3.48331352690401,3.48331352690401,3,2004
3,2000,1.40739909299132,1.40739909299132,3,2004
4,2000,2.43143508532899,2.43143508532899,3,2004
1,2001,2.65146004735854,2.65146004735855,3,2004
2,2001,0.142783216409016,0.142783216409016,3,2004
3,2001,0.913158751398479,0.91315875139848,3,2004
4,2001,-0.795270050918427,-0.795270050918428,3,2004
1,2002,1.68396955202887,1.68396955202887,3,2004
2,2002,1.97477059905009,1.97477059905009,3,2004
3,2002,0.79248379229584,0.79248379229584,3,2004
4,2002,0.132617001799141,0.132617001799141,3,2004
1,2003,-0.0360122930470936,-0.0360122930470935,3,2004
2,2003,-0.320051242018581,-0.320051242018581,3,2004
3,2003,1.65244117537877,1.65244117537877,3,2004
4,2003,1.49186166378825,1.49186166378825,3,2004
1,2004,2.31179840937314,2.31179840937314,3,2004
2,2004,1.81710505351757,1.84762635841517,3,2004
3,2004,2.08250120317209,2.07784510503112,3,2004
4,2004,2.48232019374731,2.39987808387192,3,2004
1,2005,,2.26277911712978,3,2004
2,2005,,2.1805197370845,3,2004
3,2005,,2.13939004706186,3,2004
4,2005,,2.12568015038765,3,2004
2,1991,1.26886879398621,1.26889694062166,4,2004
3,1991,0.0349341486787667,0.0349341486787667,4,2004
4,1991,3.87741144686709,3.87741144686709,4,2004
1,1992,6.0770579188951,6.0770579188951,4,2004
2,1992,-3.02385208752431,-3.02385208752431,4,2004
3,1992,-1.08872346113972,-1.08872346113972,4,2004
4,1992,-0.877276483947131,-0.877276483947132,4,2004
1,1993,-2.6899547613002,-2.6899547613002,4,2004
2,1993,0.310313554154806,0.310313554154806,4,2004
3,1993,1.71666939429447,1.71666939429447,4,2004
4,1993,1.07903350143133,1.07903350143133,4,2004
1,1994,3.71363121496262,3.71363121496262,4,2004
2,1994,2.48931020146674,2.48931020146674,4,2004
3,1994,2.82179723957834,2.82179723957834,4,2004
4,1994,3.06964038221829,3.06964038221829,4,2004
1,1995,2.40118969567709,2.40118969567709,4,2004
2,1995,2.17062848664167,2.17062848664167,4,2004
3,1995,0.622867033817398,0.622867033817398,4,2004
4,1995,1.03837752579719,1.03837752579719,4,2004
1,1996,0.740177601121328,0.740177601121328,4,2004
2,1996,2.86054362509312,2.86054362509312,4,2004
3,1996,2.02916688215511,2.02916688215511,4,2004
4,1996,0.667123863514751,0.667123863514752,4,2004
1,1997,0.912326279322606,0.912326279322606,4,2004
2,1997,5.06102818895791,5.06102818895791,4,2004
3,1997,2.86020886378324,2.86020886378324,4,2004
4,1997,4.13039494078573,4.13039494078573,4,2004
1,1998,3.07246421812584,3.07246421812584,4,2004
2,1998,1.77309153781124,1.77309153781124,4,2004
3,1998,2.17841726942491,2.17841726942491,4,2004
4,1998,1.00899052392576,1.00899052392576,4,2004
1,1999,3.45733584988486,3.45733584988486,4,2004
2,1999,2.49452831188668,2.49452831188668,4,2004
3,1999,5.14196516155936,5.14196516155936,4,2004
4,1999,4.38440557433444,4.38440557433444,4,2004
1,2000,3.6306591001543,3.6306591001543,4,2004
2,2000,3.57112429185211,3.57112429185211,4,2004
3,2000,1.31939241211902,1.31939241211902,4,2004
4,2000,2.24438248955336,2.24438248955336,4,2004
1,2001,2.9690134181739,2.9690134181739,4,2004
2,2001,-0.0889844688081176,-0.0889844688081172,4,2004
3,2001,0.881464945571064,0.881464945571064,4,2004
4,2001,-0.676441047288967,-0.676441047288967,4,2004
1,2002,1.6887493442667,1.68874934426671,4,2004
2,2002,1.56659911416621,1.56659911416621,4,2004
3,2002,1.10015265689487,1.10015265689487,4,2004
4,2002,0.166797378309358,0.166797378309358,4,2004
1,2003,0.0439737281563879,0.0439737281563873,4,2004
2,2003,-0.708250639720265,-0.708250639720265,4,2004
3,2003,1.88518054621465,1.88518054621465,4,2004
4,2003,1.4847535663677,1.4847535663677,4,2004
1,2004,2.60165794073493,2.60165794073493,4,2004
2,2004,2.06106278369218,2.06106278369218,4,2004
3,2004,1.98393136347272,2.00445859964197,4,2004
4,2004,2.33344486575335,2.29158960802907,4,2004
1,2005,,2.32742245963191,4,2004
2,2005,,1.77719761919983,4,2004
3,2005,,1.5020851989838,4,2004
4,2005,,1.41038105891178,4,2004
2,1991,1.28052847148725,1.28055674761746,1,2005
3,1991,0.0775189729543162,0.0775189729543158,1,2005
4,1991,3.9121579693201,3.9121579693201,1,2005
1,1992,6.00237740181573,6.00237740181573,1,2005
2,1992,-3.00461526703194,-3.00461526703194,1,2005
3,1992,-0.989428438320394,-0.989428438320394,1,2005
4,1992,-1.01459593468755,-1.01459593468755,1,2005
1,1993,-2.64917631432506,-2.64917631432506,1,2005
2,1993,0.300287609749117,0.300287609749117,1,2005
3,1993,1.71503933942885,1.71503933942885,1,2005
4,1993,1.10581581672331,1.10581581672331,1,2005
1,1994,3.68139344116585,3.68139344116585,1,2005
2,1994,2.5037171664311,2.5037171664311,1,2005
3,1994,2.92977905974812,2.92977905974812,1,2005
4,1994,2.90214451543989,2.90214451543989,1,2005
1,1995,2.54272310330121,2.54272310330121,1,2005
2,1995,2.11872837182963,2.11872837182963,1,2005
3,1995,0.64969828138164,0.649698281381639,1,2005
4,1995,0.997468379061739,0.997468379061739,1,2005
1,1996,0.889792928041456,0.889792928041455,1,2005
2,1996,2.86559132536683,2.86559132536683,1,2005
3,1996,1.98050483448378,1.98050483448378,1,2005
4,1996,0.61205135490634,0.61205135490634,1,2005
1,1997,1.1093854354884,1.1093854354884,1,2005
2,1997,4.97580749866213,4.97580749866213,1,2005
3,1997,2.75263210112249,2.75263210112249,1,2005
4,1997,4.14742416829503,4.14742416829503,1,2005
1,1998,3.11969375256518,3.11969375256518,1,2005
2,1998,1.71279048749078,1.71279048749078,1,2005
3,1998,2.25409890016837,2.25409890016837,1,2005
4,1998,0.961897520148879,0.961897520148879,1,2005
1,1999,3.61357869839736,3.61357869839736,1,2005
2,1999,2.41445692355493,2.41445692355493,1,2005
3,1999,5.09379120863998,5.09379120863998,1,2005
4,1999,4.47413500527272,4.47413500527272,1,2005
1,2000,3.60450107040111,3.60450107040111,1,2005
2,2000,3.64488396197731,3.64488396197731,1,2005
3,2000,1.37666468781024,1.37666468781024,1,2005
4,2000,2.145124619288,2.145124619288,1,2005
1,2001,3.04959479640878,3.04959479640878,1,2005
2,2001,-0.0440630335024164,-0.0440630335024177,1,2005
3,2001,0.768700947320089,0.768700947320089,1,2005
4,2001,-0.609843073732963,-0.609843073732964,1,2005
1,2002,1.81119159601986,1.81119159601986,1,2005
2,2002,1.51393022747302,1.51393022747301,1,2005
3,2002,1.18342359269559,1.18342359269559,1,2005
4,2002,0.0411298073279338,0.0411298073279327,1,2005
1,2003,0.13496095451171,0.134960954511709,1,2005
2,2003,-0.696094923422298,-0.696094923422298,1,2005
3,2003,2.13934360587582,2.13934360587582,1,2005
4,2003,1.58893831984304,1.58893831984304,1,2005
1,2004,2.65164831326712,2.65164831326712,1,2005
2,2004,1.88795915541298,1.88795915541298,1,2005
3,2004,1.06557062757231,1.06557062757231,1,2005
4,2004,2.09406263057995,1.92700405283267,1,2005
1,2005,2.13854958990988,1.94337642763536,1,2005
2,2005,2.07427887910704,2.03433495854891,1,2005
3,2005,1.32440828254474,1.64382192414738,1,2005
4,2005,1.07445141702398,1.83789478055674,1,2005
1,2006,,2.24319961540243,1,2005
2,2006,,2.48638251630984,1,2005
3,2006,,2.60797396676354,1,2005
4,2006,,2.64850445024811,1,2005
2,1991,1.33445998635423,1.3344958851973,2,2005
3,1991,-0.0105062022201738,-0.0105062022201745,2,2005
4,1991,3.68862953925557,3.68862953925557,2,2005
1,1992,5.57210378994731,5.5721037899473,2,2005
2,1992,-3.25496649873058,-3.25496649873057,2,2005
3,1992,-1.09844742353213,-1.09844742353213,2,2005
4,1992,-0.974551812593016,-0.974551812593017,2,2005
1,1993,-2.5199208463267,-2.5199208463267,2,2005
2,1993,0.405561262522958,0.405561262522958,2,2005
3,1993,1.76277759548074,1.76277759548074,2,2005
4,1993,1.11653860998289,1.11653860998289,2,2005
1,1994,3.63460260103852,3.63460260103852,2,2005
2,1994,2.51689304194351,2.51689304194351,2,2005
3,1994,2.96323628527713,2.96323628527713,2,2005
4,1994,3.00108688040714,3.00108688040714,2,2005
1,1995,2.68666003513722,2.68666003513722,2,2005
2,1995,2.18899153851,2.18899153851,2,2005
3,1995,0.651329278165779,0.65132927816578,2,2005
4,1995,0.954686264444926,0.954686264444926,2,2005
1,1996,0.779656888334856,0.779656888334856,2,2005
2,1996,2.81703212117148,2.81703212117148,2,2005
3,1996,2.00079742211805,2.00079742211805,2,2005
4,1996,0.671944699333626,0.671944699333626,2,2005
1,1997,1.23219791655247,1.23219791655247,2,2005
2,1997,5.05928030093164,5.05928030093163,2,2005
3,1997,2.75099158953993,2.75099158953993,2,2005
4,1997,4.0788653058075,4.0788653058075,2,2005
1,1998,2.98587554365204,2.98587554365204,2,2005
2,1998,1.59979819163958,1.59979819163958,2,2005
3,1998,2.1604451331398,2.1604451331398,2,2005
4,1998,0.832171574980188,0.83217157498019,2,2005
1,1999,3.46666348822131,3.46666348822131,2,2005
2,1999,2.37565829950501,2.37565829950501,2,2005
3,1999,5.14540581226022,5.14540581226022,2,2005
4,1999,4.6106417679143,4.6106417679143,2,2005
1,2000,3.86674277091756,3.86674277091756,2,2005
2,2000,3.78627388855615,3.78627388855615,2,2005
3,2000,1.44753557012531,1.44753557012531,2,2005
4,2000,2.21212186015762,2.21212186015762,2,2005
1,2001,3.03758424935339,3.03758424935339,2,2005
2,2001,-0.0322130119159283,-0.0322130119159283,2,2005
3,2001,0.783854306386257,0.783854306386256,2,2005
4,2001,-0.613511576617766,-0.613511576617764,2,2005
1,2002,1.88459815755868,1.88459815755868,2,2005
2,2002,1.51818637730896,1.51818637730896,2,2005
3,2002,1.22145178178157,1.22145178178157,2,2005
4,2002,0.0385163064533509,0.0385163064533505,2,2005
1,2003,0.0497633757587271,0.0497633757587269,2,2005
2,2003,-0.640239752528583,-0.640239752528582,2,2005
3,2003,2.26144607063164,2.26144607063164,2,2005
4,2003,1.71356265213307,1.71356265213307,2,2005
1,2004,2.95925320794399,2.95925320794399,2,2005
2,2004,1.89901692412835,1.89901692412835,2,2005
3,2004,0.983808670774189,0.983808670774189,2,2005
4,2004,0.619556677607136,0.619556677607136,2,2005
1,2005,1.61546212427232,1.63795171136899,2,2005
2,2005,2.20411741056855,2.21542125413917,2,2005
3,2005,2.35992620967104,2.33868141214217,2,2005
4,2005,2.0824601014585,2.00098387342296,2,2005
1,2006,,1.9389610723435,2,2005
2,2006,,1.90174739169582,2,2005
3,2006,,1.88314055137198,2,2005
4,2006,,1.87693827126404,2,2005
2,1991,0.541505629128829,0.54151633867665,3,2005
3,1991,0.279124636269889,0.27912463626989,3,2005
4,1991,3.85583135018199,3.85583135018199,3,2005
1,1992,4.8664327605936,4.8664327605936,3,2005
2,1992,-2.40252242113968,-2.40252242113969,3,2005
3,1992,-0.606628903219807,-0.606628903219808,3,2005
4,1992,-1.11833291344036,-1.11833291344036,3,2005
1,1993,-3.0108678211238,-3.0108678211238,3,2005
2,1993,0.697203086368048,0.697203086368049,3,2005
3,1993,1.84815559577822,1.84815559577822,3,2005
4,1993,1.18887553142994,1.18887553142994,3,2005
1,1994,3.44656698253387,3.44656698253387,3,2005
2,1994,2.94272226448968,2.94272226448968,3,2005
3,1994,3.21704230292432,3.21704230292432,3,2005
4,1994,3.14708100547239,3.14708100547239,3,2005
1,1995,2.65837908815787,2.65837908815787,3,2005
2,1995,2.71104510309643,2.71104510309643,3,2005
3,1995,1.06438818806187,1.06438818806187,3,2005
4,1995,0.607625003606338,0.607625003606338,3,2005
1,1996,0.624449994319321,0.62444999431932,3,2005
2,1996,3.15347690048162,3.15347690048162,3,2005
3,1996,1.98783463004952,1.98783463004952,3,2005
4,1996,0.829850455559078,0.829850455559078,3,2005
1,1997,1.69100020617468,1.69100020617467,3,2005
2,1997,5.22819830623735,5.22819830623735,3,2005
3,1997,2.83472551689219,2.83472551689219,3,2005
4,1997,4.15151990780855,4.15151990780855,3,2005
1,1998,3.18910686336713,3.18910686336713,3,2005
2,1998,1.46432207368554,1.46432207368554,3,2005
3,1998,2.1134815306413,2.1134815306413,3,2005
4,1998,0.526664321114834,0.526664321114833,3,2005
1,1999,3.59301614324132,3.59301614324132,3,2005
2,1999,2.41154618911648,2.41154618911648,3,2005
3,1999,5.02083712679906,5.02083712679906,3,2005
4,1999,4.86035527581958,4.86035527581958,3,2005
1,2000,4.13019295358603,4.13019295358603,3,2005
2,2000,3.58892495786929,3.58892495786929,3,2005
3,2000,1.77552623809773,1.77552623809773,3,2005
4,2000,2.69507493921932,2.69507493921932,3,2005
1,2001,2.77733462411243,2.77733462411243,3,2005
2,2001,0.358468558504921,0.35846855850492,3,2005
3,2001,0.743162688935551,0.74316268893555,3,2005
4,2001,-0.158317749618542,-0.158317749618542,3,2005
1,2002,1.42566686680083,1.42566686680083,3,2005
2,2002,1.56137800466665,1.56137800466665,3,2005
3,2002,1.64646368462365,1.64646368462365,3,2005
4,2002,0.209191517873774,0.209191517873774,3,2005
1,2003,0.178296437548298,0.178296437548298,3,2005
2,2003,-0.452055062732814,-0.452055062732815,3,2005
3,2003,2.08651895826584,2.08651895826584,3,2005
4,2003,1.89307016591618,1.89307016591618,3,2005
1,2004,2.64074004221071,2.64074004221071,3,2005
2,2004,1.65907440163384,1.65907440163384,3,2005
3,2004,1.12874963733787,1.12874963733787,3,2005
4,2004,0.602261658850067,0.602261658850067,3,2005
1,2005,2.00869283449305,2.00869283449305,3,2005
2,2005,1.28687384499738,1.27922171131893,3,2005
3,2005,1.45752970228261,1.45747701610534,3,2005
4,2005,1.87339705577691,1.89661054109845,3,2005
1,2006,,1.94796979239595,3,2005
2,2006,,1.97878534317446,3,2005
3,2006,,1.99419311856371,3,2005
4,2006,,1.99932904369346,3,2005
2,1991,0.509869408566281,0.510027570654216,4,2005
3,1991,0.398855550964084,0.398855550964084,4,2005
4,1991,4.25431127440576,4.25431127440576,4,2005
1,1992,5.46195820346251,5.46195820346251,4,2005
2,1992,-2.20728313459675,-2.20728313459675,4,2005
3,1992,-0.80269483519837,-0.80269483519837,4,2005
4,1992,-1.60708295050731,-1.60708295050731,4,2005
1,1993,-3.94847254439385,-3.94847254439385,4,2005
2,1993,0.23172714216546,0.231727142165461,4,2005
3,1993,1.7266100342876,1.7266100342876,4,2005
4,1993,1.54519049994866,1.54519049994866,4,2005
1,1994,4.23566811832123,4.23566811832123,4,2005
2,1994,3.34447873720758,3.34447873720758,4,2005
3,1994,3.48063540711912,3.48063540711912,4,2005
4,1994,3.25408150521374,3.25408150521374,4,2005
1,1995,2.61681509685756,2.61681509685756,4,2005
2,1995,2.69969406450097,2.69969406450097,4,2005
3,1995,1.06087956241394,1.06087956241394,4,2005
4,1995,0.602088097358533,0.602088097358533,4,2005
1,1996,0.541244235806726,0.541244235806726,4,2005
2,1996,3.2432653935083,3.2432653935083,4,2005
3,1996,1.95818060721968,1.95818060721968,4,2005
4,1996,0.841532904653697,0.841532904653697,4,2005
1,1997,1.67277807728781,1.67277807728781,4,2005
2,1997,5.23829869186094,5.23829869186094,4,2005
3,1997,2.80139060850269,2.80139060850269,4,2005
4,1997,4.18000970635974,4.18000970635974,4,2005
1,1998,3.11813705480351,3.11813705480351,4,2005
2,1998,1.50320573232057,1.50320573232057,4,2005
3,1998,2.13066321054067,2.13066321054067,4,2005
4,1998,0.547549995024022,0.547549995024022,4,2005
1,1999,3.36226417307473,3.36226417307473,4,2005
2,1999,2.56210725093757,2.56210725093757,4,2005
3,1999,5.19272186096027,5.19272186096027,4,2005
4,1999,4.89657043362257,4.89657043362257,4,2005
1,2000,4.01519178177199,4.01519178177199,4,2005
2,2000,3.67388521278502,3.67388521278502,4,2005
3,2000,1.6860133267288,1.6860133267288,4,2005
4,2000,2.48143661005358,2.48143661005358,4,2005
1,2001,2.73624248917166,2.73624248917166,4,2005
2,2001,0.349956294125687,0.349956294125687,4,2005
3,2001,0.700334656509338,0.700334656509338,4,2005
4,2001,-0.0216357115121797,-0.0216357115121798,4,2005
1,2002,1.02606609003115,1.02606609003115,4,2005
2,2002,1.61253385593603,1.61253385593603,4,2005
3,2002,1.57360220021714,1.57360220021714,4,2005
4,2002,0.352855517100226,0.352855517100226,4,2005
1,2003,0.0624920165577916,0.0624920165577916,4,2005
2,2003,-0.461633513534109,-0.46163351353411,4,2005
3,2003,2.32515305484051,2.32515305484051,4,2005
4,2003,1.86622075910565,1.86622075910565,4,2005
1,2004,2.57203281309089,2.57203281309089,4,2005
2,2004,1.83000898050296,1.83000898050296,4,2005
3,2004,1.04510855922899,1.04510855922899,4,2005
4,2004,0.720573288795446,0.720573288795446,4,2005
1,2005,1.50460027059351,1.50460027059351,4,2005
2,2005,1.17100512102082,1.17100512102082,4,2005
3,2005,1.58291517813632,1.588666544079,4,2005
4,2005,2.02634081467153,2.0140104128012,4,2005
1,2006,,2.17438726212503,4,2005
2,2006,,1.58306317500581,4,2005
3,2006,,1.2874011314462,4,2005
4,2006,,1.18884711692633,4,2005
2,1991,0.472892688186473,0.472898320598204,1,2006
3,1991,0.248231853097012,0.248231853097014,1,2006
4,1991,3.8897978104617,3.8897978104617,1,2006
1,1992,4.90857609945597,4.90857609945596,1,2006
2,1992,-2.32958000905685,-2.32958000905685,1,2006
3,1992,-0.66983996768396,-0.66983996768396,1,2006
4,1992,-1.12894134611107,-1.12894134611107,1,2006
1,1993,-3.00576412135361,-3.00576412135361,1,2006
2,1993,0.674577159691947,0.674577159691947,1,2006
3,1993,1.74997477897223,1.74997477897223,1,2006
4,1993,1.22017253227869,1.22017253227869,1,2006
1,1994,3.43288683394709,3.43288683394709,1,2006
2,1994,2.88271984399262,2.88271984399262,1,2006
3,1994,3.25830290892175,3.25830290892175,1,2006
4,1994,3.23611547498819,3.23611547498819,1,2006
1,1995,2.74021940548166,2.74021940548166,1,2006
2,1995,2.72827593688654,2.72827593688654,1,2006
3,1995,1.29134419922841,1.29134419922841,1,2006
4,1995,0.474010013035198,0.474010013035198,1,2006
1,1996,0.720684842838003,0.720684842838004,1,2006
2,1996,3.21056328382627,3.21056328382627,1,2006
3,1996,2.04403616442896,2.04403616442896,1,2006
4,1996,0.762270403319021,0.762270403319021,1,2006
1,1997,1.77479488257273,1.77479488257273,1,2006
2,1997,5.19836558931284,5.19836558931284,1,2006
3,1997,2.905328664044,2.905328664044,1,2006
4,1997,4.31941408543739,4.31941408543739,1,2006
1,1998,2.77787952869073,2.77787952869073,1,2006
2,1998,1.73970427486156,1.73970427486156,1,2006
3,1998,2.32094803586962,2.32094803586962,1,2006
4,1998,0.599562461620318,0.599562461620318,1,2006
1,1999,3.47419845702752,3.47419845702752,1,2006
2,1999,2.62034180607147,2.62034180607147,1,2006
3,1999,5.2100938999716,5.2100938999716,1,2006
4,1999,4.92075993953272,4.92075993953272,1,2006
1,2000,4.41172684270519,4.41172684270519,1,2006
2,2000,3.41967799247924,3.41967799247924,1,2006
3,2000,1.85277834364226,1.85277834364226,1,2006
4,2000,2.67526577389057,2.67526577389057,1,2006
1,2001,2.97132269988358,2.97132269988358,1,2006
2,2001,0.589131742452564,0.589131742452564,1,2006
3,2001,0.833290284978827,0.833290284978827,1,2006
4,2001,0.0685328060066492,0.0685328060066492,1,2006
1,2002,1.19660929811711,1.19660929811711,1,2006
2,2002,1.57878843060455,1.57878843060455,1,2006
3,2002,1.5288107620854,1.5288107620854,1,2006
4,2002,0.377841453040961,0.377841453040961,1,2006
1,2003,0.272160153823786,0.272160153823786,1,2006
2,2003,-0.44425169767619,-0.44425169767619,1,2006
3,2003,2.26445364766514,2.26445364766514,1,2006
4,2003,1.78317000912611,1.78317000912611,1,2006
1,2004,2.83690645871355,2.83690645871355,1,2006
2,2004,1.75684111186687,1.75684111186687,1,2006
3,2004,1.14550270644633,1.14550270644633,1,2006
4,2004,0.764393995438017,0.764393995438017,1,2006
1,2005,1.30163345547498,1.30163345547498,1,2006
2,2005,1.60047991701739,1.60047991701739,1,2006
3,2005,2.55445183200291,2.55445183200291,1,2006
4,2005,2.4639235052054,2.31766423891267,1,2006
1,2006,2.24703120604652,2.07230988446339,1,2006
2,2006,1.89025110039047,1.858244027576,1,2006
3,2006,1.16164004794267,1.44576380811748,1,2006
4,2006,0.918769697126733,1.58482758653669,1,2006
1,2007,,1.93052406766842,1,2006
2,2007,,2.13794195634746,1,2006
3,2007,,2.24165090068698,1,2006
4,2007,,2.27622054880015,1,2006
2,1991,0.472883727958848,0.472890105359913,2,2006
3,1991,0.248231811573029,0.248231811573031,2,2006
4,1991,3.88979780990226,3.88979780990226,2,2006
1,1992,4.90857615405116,4.90857615405116,2,2006
2,1992,-2.32958017936955,-2.32958017936955,2,2006
3,1992,-0.669840045178849,-0.669840045178849,2,2006
4,1992,-1.12894110765577,-1.12894110765577,2,2006
1,1993,-3.00576427160451,-3.00576427160451,2,2006
2,1993,0.674577220646388,0.674577220646388,2,2006
3,1993,1.74997466806595,1.74997466806595,2,2006
4,1993,1.22017263584044,1.22017263584044,2,2006
1,1994,3.43288681137732,3.43288681137732,2,2006
2,1994,2.88271991056697,2.88271991056697,2,2006
3,1994,3.25830285939128,3.25830285939128,2,2006
4,1994,3.23611532461698,3.23611532461698,2,2006
1,1995,2.74021954479917,2.74021954479917,2,2006
2,1995,2.82546638861312,2.82546638861312,2,2006
3,1995,1.30203357788836,1.30203357788836,2,2006
4,1995,0.448088568142668,0.448088568142668,2,2006
1,1996,0.415525853299715,0.415525853299714,2,2006
2,1996,3.2978973405744,3.2978973405744,2,2006
3,1996,2.04310736797069,2.04310736797069,2,2006
4,1996,0.740631123298785,0.740631123298785,2,2006
1,1997,1.69638900003604,1.69638900003604,2,2006
2,1997,5.17899128047596,5.17899128047596,2,2006
3,1997,2.87333415844493,2.87333415844493,2,2006
4,1997,4.3113623147826,4.3113623147826,2,2006
1,1998,2.5677622100049,2.5677622100049,2,2006
2,1998,1.69372517280042,1.69372517280042,2,2006
3,1998,2.30673807837283,2.30673807837283,2,2006
4,1998,0.608600355080569,0.608600355080569,2,2006
1,1999,3.60017873593923,3.60017873593923,2,2006
2,1999,2.65482423808281,2.65482423808281,2,2006
3,1999,5.23492743215537,5.23492743215537,2,2006
4,1999,5.00627105424634,5.00627105424634,2,2006
1,2000,4.68136843059785,4.68136843059785,2,2006
2,2000,3.49443356073327,3.49443356073327,2,2006
3,2000,1.82930987060956,1.82930987060956,2,2006
4,2000,2.66222890355059,2.66222890355059,2,2006
1,2001,3.00910987938356,3.00910987938356,2,2006
2,2001,0.5475743595865,0.5475743595865,2,2006
3,2001,0.833478378428798,0.833478378428798,2,2006
4,2001,0.10630900090689,0.10630900090689,2,2006
1,2002,1.09161791589367,1.09161791589367,2,2006
2,2002,1.59566699524036,1.59566699524036,2,2006
3,2002,1.57641132512389,1.57641132512389,2,2006
4,2002,0.429682949080101,0.429682949080101,2,2006
1,2003,0.0895445989032461,0.0895445989032462,2,2006
2,2003,-0.457932388366388,-0.457932388366389,2,2006
3,2003,2.26105927179172,2.26105927179172,2,2006
4,2003,1.82860288684448,1.82860288684448,2,2006
1,2004,2.66332670672578,2.66332670672578,2,2006
2,2004,1.74908620222747,1.74908620222747,2,2006
3,2004,1.15609390251392,1.15609390251392,2,2006
4,2004,0.772822581133936,0.772822581133936,2,2006
1,2005,1.12035287432291,1.12035287432291,2,2006
2,2005,1.78140455390794,1.78140455390794,2,2006
3,2005,2.69818020318648,2.69818020318648,2,2006
4,2005,1.03109391910412,1.03109391910412,2,2006
1,2006,2.11313026177195,2.20812329976279,2,2006
2,2006,2.47019172192776,2.5220303648769,2,2006
3,2006,2.53021364764806,2.44036284193346,2,2006
4,2006,2.40646348768906,2.05019399267403,2,2006
1,2007,,1.79984707952653,2,2006
2,2007,,1.64963893163803,2,2006
3,2007,,1.57453485769378,2,2006
4,2007,,1.54950016637903,2,2006
2,1991,0.473263366926003,0.472907946951691,3,2006
3,1991,0.248231965975521,0.248231965975521,3,2006
4,1991,3.88979773008391,3.88979773008391,3,2006
1,1992,4.90857610566926,4.90857610566926,3,2006
2,1992,-2.32958011265123,-2.32958011265123,3,2006
3,1992,-0.669839863343391,-0.669839863343391,3,2006
4,1992,-1.12894125987366,-1.12894125987366,3,2006
1,1993,-3.00576410121189,-3.00576410121189,3,2006
2,1993,0.674576941385308,0.674576941385308,3,2006
3,1993,1.74997499401071,1.74997499401071,3,2006
4,1993,1.2201724941117,1.2201724941117,3,2006
1,1994,3.43288680907552,3.43288680907552,3,2006
2,1994,2.88271970996792,2.88271970996792,3,2006
3,1994,3.25830301027974,3.25830301027974,3,2006
4,1994,3.23611551683578,3.23611551683578,3,2006
1,1995,2.74021932293944,2.74021932293944,3,2006
2,1995,2.70671436607426,2.70671436607426,3,2006
3,1995,1.4000773148058,1.4000773148058,3,2006
4,1995,0.750503955407633,0.750503955407633,3,2006
1,1996,0.220048187848665,0.220048187848665,3,2006
2,1996,3.28896403747385,3.28896403747385,3,2006
3,1996,1.94778192069567,1.94778192069567,3,2006
4,1996,0.723150453385801,0.723150453385801,3,2006
1,1997,2.36222628581906,2.36222628581906,3,2006
2,1997,4.33226284285322,4.33226284285322,3,2006
3,1997,2.88856092156318,2.88856092156318,3,2006
4,1997,4.02844257812505,4.02844257812505,3,2006
1,1998,2.81637694379893,2.81637694379893,3,2006
2,1998,1.566801846333,1.566801846333,3,2006
3,1998,2.3274624758262,2.3274624758262,3,2006
4,1998,0.69133027544408,0.69133027544408,3,2006
1,1999,3.65327859447917,3.65327859447917,3,2006
2,1999,2.66737521047629,2.66737521047629,3,2006
3,1999,5.23166824025361,5.23166824025361,3,2006
4,1999,4.88811111706007,4.88811111706007,3,2006
1,2000,4.79815883544805,4.79815883544805,3,2006
2,2000,3.74591456687419,3.74591456687419,3,2006
3,2000,1.81931027169466,1.81931027169466,3,2006
4,2000,2.87566939077837,2.87566939077837,3,2006
1,2001,3.3193900089572,3.3193900089572,3,2006
2,2001,0.39573000896036,0.39573000896036,3,2006
3,2001,0.389486214507162,0.389486214507162,3,2006
4,2001,0.163880620169321,0.163880620169321,3,2006
1,2002,1.35191483539951,1.35191483539951,3,2006
2,2002,1.63759106591503,1.63759106591503,3,2006
3,2002,1.57334101710527,1.57334101710527,3,2006
4,2002,0.173351640997854,0.173351640997854,3,2006
1,2003,0.577269440795059,0.577269440795059,3,2006
2,2003,-0.274326260847324,-0.274326260847324,3,2006
3,2003,2.04817005150921,2.04817005150921,3,2006
4,2003,1.7947534804732,1.7947534804732,3,2006
1,2004,3.12009718920208,3.12009718920208,3,2006
2,2004,1.66307163471104,1.66307163471104,3,2006
3,2004,1.00703682804604,1.00703682804604,3,2006
4,2004,0.541635302135957,0.541635302135957,3,2006
1,2005,1.42747897290487,1.42747897290487,3,2006
2,2005,1.62728145759283,1.62728145759283,3,2006
3,2005,2.64159974737459,2.64159974737459,3,2006
4,2005,1.15674651996744,1.15674651996744,3,2006
1,2006,2.37170284882551,2.37170284882551,3,2006
2,2006,2.52225848011016,2.63525748360253,3,2006
3,2006,2.58115582969086,2.56508411735327,3,2006
4,2006,2.60491783902503,2.29695789978427,3,2006
1,2007,,1.80206504242713,3,2006
2,2007,,1.50512932801285,3,2006
3,2007,,1.35666147080571,3,2006
4,2007,,1.30717218507,3,2006
2,1991,0.473264034336887,0.47290668370014,4,2006
3,1991,0.248231846014859,0.248231846014858,4,2006
4,1991,3.88979762044048,3.88979762044048,4,2006
1,1992,4.90857619934453,4.90857619934453,4,2006
2,1992,-2.32957985273523,-2.32957985273523,4,2006
3,1992,-0.669840105544817,-0.669840105544817,4,2006
4,1992,-1.12894128362626,-1.12894128362626,4,2006
1,1993,-3.00576404577939,-3.00576404577939,4,2006
2,1993,0.674577079837513,0.674577079837513,4,2006
3,1993,1.74997467802505,1.74997467802505,4,2006
4,1993,1.22017262574594,1.22017262574594,4,2006
1,1994,3.43288691135528,3.43288691135528,4,2006
2,1994,2.88271981224049,2.88271981224049,4,2006
3,1994,3.25830276109009,3.25830276109009,4,2006
4,1994,3.23611554889383,3.23611554889383,4,2006
1,1995,2.74021938950697,2.74021938950697,4,2006
2,1995,2.47448189389967,2.47448189389967,4,2006
3,1995,1.41442389578992,1.41442389578992,4,2006
4,1995,0.911398598392044,0.911398598392044,4,2006
1,1996,0.0146345544615349,0.0146345544615351,4,2006
2,1996,3.32825028433255,3.32825028433255,4,2006
3,1996,1.98938127834156,1.98938127834156,4,2006
4,1996,0.837620276179307,0.837620276179307,4,2006
1,1997,2.05194943956784,2.05194943956784,4,2006
2,1997,4.61912322248437,4.61912322248437,4,2006
3,1997,2.88533849734998,2.88533849734998,4,2006
4,1997,4.00738911129455,4.00738911129455,4,2006
1,1998,2.85770109946315,2.85770109946315,4,2006
2,1998,1.58678238157459,1.58678238157459,4,2006
3,1998,2.35169632189216,2.35169632189216,4,2006
4,1998,0.767894743584141,0.767894743584139,4,2006
1,1999,3.60706148741912,3.60706148741912,4,2006
2,1999,2.68907803764247,2.68907803764247,4,2006
3,1999,5.19347270931378,5.19347270931378,4,2006
4,1999,5.05142683347681,5.05142683347681,4,2006
1,2000,4.66689082905452,4.66689082905452,4,2006
2,2000,3.72347070642254,3.72347070642254,4,2006
3,2000,1.86504355782295,1.86504355782295,4,2006
4,2000,2.90249678544035,2.90249678544035,4,2006
1,2001,3.17230271645716,3.17230271645716,4,2006
2,2001,0.373445522989702,0.373445522989701,4,2006
3,2001,0.252360142372465,0.252360142372465,4,2006
4,2001,0.353022254021251,0.353022254021252,4,2006
1,2002,0.944232642064824,0.944232642064824,4,2006
2,2002,1.68667845535002,1.68667845535002,4,2006
3,2002,1.53926976580039,1.53926976580039,4,2006
4,2002,0.1701638594646,0.1701638594646,4,2006
1,2003,0.644441077102753,0.644441077102753,4,2006
2,2003,-0.430509200402518,-0.430509200402519,4,2006
3,2003,2.13108018726493,2.13108018726493,4,2006
4,2003,1.80971340115657,1.80971340115657,4,2006
1,2004,2.8294375886615,2.8294375886615,4,2006
2,2004,1.33412616648012,1.33412616648012,4,2006
3,2004,0.928300044889929,0.928300044889929,4,2006
4,2004,0.869195724044891,0.869195724044891,4,2006
1,2005,1.70617629536518,1.70617629536518,4,2006
2,2005,1.61523593840691,1.61523593840691,4,2006
3,2005,2.41667224098765,2.41667224098765,4,2006
4,2005,1.40407505100051,1.40407505100051,4,2006
1,2006,3.16911818872441,3.16911818872441,4,2006
2,2006,3.57638019632733,3.57638019632733,4,2006
3,2006,2.58281568430499,2.64156323867526,4,2006
4,2006,2.37312724753335,2.25373354541646,4,2006
1,2007,,2.00246071883991,4,2006
2,2007,,1.52707703602429,4,2006
3,2007,,1.28938519461648,4,2006
4,2007,,1.21015458081388,4,2006
2,1991,0.47327930287839,0.472916824955142,1,2007
3,1991,0.248231852123371,0.248231852123371,1,2007
4,1991,3.88979781129497,3.88979781129497,1,2007
1,1992,4.90857609689051,4.90857609689051,1,2007
2,1992,-2.32958000761242,-2.32958000761242,1,2007
3,1992,-0.669839967312358,-0.669839967312357,1,2007
4,1992,-1.12894134749469,-1.12894134749469,1,2007
1,1993,-3.00576411942616,-3.00576411942616,1,2007
2,1993,0.674577159683288,0.674577159683287,1,2007
3,1993,1.74997477807253,1.74997477807253,1,2007
4,1993,1.22017253173419,1.22017253173419,1,2007
1,1994,3.43288683323846,3.43288683323846,1,2007
2,1994,2.88271984385344,2.88271984385344,1,2007
3,1994,3.25830290937446,3.25830290937446,1,2007
4,1994,3.23611547503075,3.23611547503075,1,2007
1,1995,2.74021940614984,2.74021940614984,1,2007
2,1995,2.64665898573711,2.64665898573711,1,2007
3,1995,1.39070913165744,1.39070913165744,1,2007
4,1995,0.972549035453141,0.972549035453141,1,2007
1,1996,0.069635384844833,0.0696353848448351,1,2007
2,1996,3.22601670109541,3.22601670109541,1,2007
3,1996,1.95800427104027,1.95800427104027,1,2007
4,1996,0.889066588558385,0.889066588558385,1,2007
1,1997,2.027470169078,2.02747016907801,1,2007
2,1997,4.5728910420274,4.57289104202741,1,2007
3,1997,2.90281210296786,2.90281210296786,1,2007
4,1997,4.04768093656986,4.04768093656986,1,2007
1,1998,2.62963894296557,2.62963894296557,1,2007
2,1998,1.62980100768106,1.62980100768106,1,2007
3,1998,2.43171251828327,2.43171251828327,1,2007
4,1998,0.889385455472902,0.889385455472901,1,2007
1,1999,3.53582609503,3.53582609503,1,2007
2,1999,2.69360827665908,2.69360827665908,1,2007
3,1999,5.04254370283213,5.04254370283213,1,2007
4,1999,5.00594700611203,5.00594700611203,1,2007
1,2000,4.80227458528038,4.80227458528037,1,2007
2,2000,3.63908980748175,3.63908980748175,1,2007
3,2000,1.88989150108014,1.88989150108014,1,2007
4,2000,2.85940568749477,2.85940568749477,1,2007
1,2001,3.11527691046145,3.11527691046145,1,2007
2,2001,0.479223032448851,0.47922303244885,1,2007
3,2001,0.212597261541014,0.212597261541015,1,2007
4,2001,0.404775949865233,0.404775949865232,1,2007
1,2002,0.843002485782396,0.843002485782396,1,2007
2,2002,1.67954966426196,1.67954966426196,1,2007
3,2002,1.64845043867397,1.64845043867397,1,2007
4,2002,0.158603623601405,0.158603623601406,1,2007
1,2003,0.498191569720552,0.498191569720552,1,2007
2,2003,-0.399400439002905,-0.399400439002908,1,2007
3,2003,2.19917377396635,2.19917377396634,1,2007
4,2003,1.87515169041435,1.87515169041435,1,2007
1,2004,2.88781640392806,2.88781640392806,1,2007
2,2004,1.30748772875895,1.30748772875895,1,2007
3,2004,0.946133524458315,0.946133524458315,1,2007
4,2004,0.870407225816927,0.870407225816926,1,2007
1,2005,1.59916986146202,1.59916986146202,1,2007
2,2005,1.44614665455132,1.44614665455132,1,2007
3,2005,2.60513565656542,2.60513565656542,1,2007
4,2005,1.51500774791715,1.51500774791715,1,2007
1,2006,3.33074624641807,3.33074624641807,1,2007
2,2006,4.02085637233309,4.02085637233309,1,2007
3,2006,2.12341374502176,2.12341374502176,1,2007
4,2006,2.18007183471435,2.08624718229495,1,2007
1,2007,2.07076500609524,1.95873564954584,1,2007
2,2007,1.9496286034135,1.9294764341858,1,2007
3,2007,1.59333000705068,1.77328868046897,1,2007
4,2007,1.47456380826307,1.90515557780129,1,2007
1,2008,,2.13506743018203,1,2007
2,2008,,2.27301454161048,1,2007
3,2008,,2.3419880973247,1,2007
4,2008,,2.36497928256277,1,2007
2,1991,0.47290738587014,0.472915339577243,2,2007
3,1991,0.248231853796345,0.248231853796345,2,2007
4,1991,3.88979781079914,3.88979781079915,2,2007
1,1992,4.90857609692299,4.90857609692299,2,2007
2,1992,-2.32958000732851,-2.32958000732851,2,2007
3,1992,-0.669839968852493,-0.669839968852493,2,2007
4,1992,-1.12894134416553,-1.12894134416554,2,2007
1,1993,-3.00576412195293,-3.00576412195293,2,2007
2,1993,0.674577157633105,0.674577157633105,2,2007
3,1993,1.7499747799856,1.7499747799856,2,2007
4,1993,1.22017253115438,1.22017253115438,2,2007
1,1994,3.43288683480183,3.43288683480183,2,2007
2,1994,2.88271984513331,2.88271984513331,2,2007
3,1994,3.25830290835503,3.25830290835503,2,2007
4,1994,3.23611547553799,3.23611547553799,2,2007
1,1995,2.74021940497011,2.74021940497011,2,2007
2,1995,2.65817924241381,2.6581792424138,2,2007
3,1995,1.37658257168221,1.37658257168221,2,2007
4,1995,1.01705811647173,1.01705811647172,2,2007
1,1996,0.0668651129479988,0.0668651129480003,2,2007
2,1996,3.20207054394723,3.20207054394723,2,2007
3,1996,1.92806415348232,1.92806415348232,2,2007
4,1996,0.90983371753135,0.90983371753135,2,2007
1,1997,2.01460256399377,2.01460256399377,2,2007
2,1997,4.58681724305579,4.58681724305579,2,2007
3,1997,2.93094231491193,2.93094231491193,2,2007
4,1997,4.0186762423861,4.0186762423861,2,2007
1,1998,2.6024781101901,2.6024781101901,2,2007
2,1998,1.65623193403344,1.65623193403344,2,2007
3,1998,2.45546956114988,2.45546956114988,2,2007
4,1998,0.882854483920159,0.882854483920159,2,2007
1,1999,3.52752361829449,3.52752361829449,2,2007
2,1999,2.71253375291842,2.71253375291842,2,2007
3,1999,5.03789565121191,5.03789565121191,2,2007
4,1999,4.94357178670632,4.94357178670632,2,2007
1,2000,4.86155476050205,4.86155476050205,2,2007
2,2000,3.62762687981306,3.62762687981306,2,2007
3,2000,1.87737823705236,1.87737823705236,2,2007
4,2000,2.86393629518618,2.86393629518618,2,2007
1,2001,3.11479393697189,3.11479393697189,2,2007
2,2001,0.463136285857568,0.463136285857568,2,2007
3,2001,0.243200685340494,0.243200685340494,2,2007
4,2001,0.415095441030067,0.415095441030067,2,2007
1,2002,0.818863025171845,0.818863025171846,2,2007
2,2002,1.69612956664436,1.69612956664436,2,2007
3,2002,1.60029520800022,1.60029520800022,2,2007
4,2002,0.214040329124954,0.214040329124953,2,2007
1,2003,0.50371434376626,0.503714343766259,2,2007
2,2003,-0.384324756196974,-0.384324756196974,2,2007
3,2003,2.19991590537147,2.19991590537147,2,2007
4,2003,1.85022460098572,1.85022460098572,2,2007
1,2004,3.02260409074351,3.02260409074351,2,2007
2,2004,1.29600753583983,1.29600753583983,2,2007
3,2004,0.96828444142778,0.96828444142778,2,2007
4,2004,0.867887194329642,0.867887194329641,2,2007
1,2005,1.6619489075137,1.6619489075137,2,2007
2,2005,1.50233199020293,1.50233199020293,2,2007
3,2005,2.60734438801291,2.60734438801291,2,2007
4,2005,1.43502323785119,1.43502323785119,2,2007
1,2006,3.37121057718661,3.37121057718661,2,2007
2,2006,4.00173074695978,4.00173074695978,2,2007
3,2006,2.35369364645217,2.35369364645217,2,2007
4,2006,3.59215224383174,3.59215224383174,2,2007
1,2007,2.37321033031853,2.24463949211156,2,2007
2,2007,1.97334099877793,1.9016450314271,2,2007
3,2007,1.79207250014873,1.91186418017489,2,2007
4,2007,1.51984731152594,2.01031957989544,2,2007
1,2008,,2.34868692783546,2,2007
2,2008,,2.55170733659948,2,2007
3,2008,,2.65321754098149,2,2007
4,2008,,2.68705427577549,2,2007
2,1991,0.473292433952595,0.472922264337496,3,2007
3,1991,0.248231853796345,0.248231853796345,3,2007
4,1991,3.88979781079915,3.88979781079915,3,2007
1,1992,4.90857609692299,4.90857609692299,3,2007
2,1992,-2.32958000732852,-2.32958000732851,3,2007
3,1992,-0.669839968852493,-0.669839968852493,3,2007
4,1992,-1.12894134416553,-1.12894134416554,3,2007
1,1993,-3.00576412195293,-3.00576412195293,3,2007
2,1993,0.674577157633105,0.674577157633105,3,2007
3,1993,1.7499747799856,1.7499747799856,3,2007
4,1993,1.22017253115438,1.22017253115438,3,2007
1,1994,3.43288683480183,3.43288683480183,3,2007
2,1994,2.88271984513331,2.88271984513331,3,2007
3,1994,3.25830290835503,3.25830290835503,3,2007
4,1994,3.23611547553799,3.23611547553799,3,2007
1,1995,2.74021940497011,2.74021940497011,3,2007
2,1995,2.58612498222712,2.58612498222712,3,2007
3,1995,1.5158091695276,1.5158091695276,3,2007
4,1995,1.18126558053309,1.18126558053309,3,2007
1,1996,-0.105902690138361,-0.10590269013836,3,2007
2,1996,3.14555882584004,3.14555882584004,3,2007
3,1996,2.08989306567215,2.08989306567215,3,2007
4,1996,0.870608346352397,0.870608346352397,3,2007
1,1997,1.89533945025755,1.89533945025755,3,2007
2,1997,4.80992912924971,4.80992912924971,3,2007
3,1997,2.83328424015106,2.83328424015106,3,2007
4,1997,4.03828447234773,4.03828447234773,3,2007
1,1998,2.52682202747492,2.52682202747492,3,2007
2,1998,1.75102962155653,1.75102962155653,3,2007
3,1998,2.44126939416645,2.44126939416645,3,2007
4,1998,0.938849665166019,0.938849665166019,3,2007
1,1999,3.52098193623836,3.52098193623835,3,2007
2,1999,2.80449772354203,2.80449772354203,3,2007
3,1999,4.99773784120898,4.99773784120898,3,2007
4,1999,4.93688419420377,4.93688419420377,3,2007
1,2000,4.78355100577501,4.78355100577501,3,2007
2,2000,3.67696661320973,3.67696661320973,3,2007
3,2000,1.82707056133517,1.82707056133518,3,2007
4,2000,2.75762404032025,2.75762404032025,3,2007
1,2001,3.17446120136513,3.17446120136513,3,2007
2,2001,0.386080755337658,0.386080755337659,3,2007
3,2001,0.365774094225024,0.365774094225024,3,2007
4,2001,0.539462754282072,0.539462754282072,3,2007
1,2002,0.770882662823924,0.770882662823924,3,2007
2,2002,1.65402253775999,1.65402253775999,3,2007
3,2002,1.56094187459031,1.5609418745903,3,2007
4,2002,0.168137332053541,0.168137332053542,3,2007
1,2003,0.584647485848255,0.584647485848255,3,2007
2,2003,-0.357393965468589,-0.357393965468589,3,2007
3,2003,2.09628787554732,2.09628787554732,3,2007
4,2003,1.99218797406,1.99218797406,3,2007
1,2004,2.99264262856809,2.99264262856809,3,2007
2,2004,1.31570902247295,1.31570902247296,3,2007
3,2004,1.16045867626071,1.16045867626071,3,2007
4,2004,0.992225395017976,0.992225395017976,3,2007
1,2005,1.8090405852162,1.8090405852162,3,2007
2,2005,1.736531395792,1.736531395792,3,2007
3,2005,2.5491200696248,2.5491200696248,3,2007
4,2005,1.58801031953841,1.58801031953841,3,2007
1,2006,3.58281910129272,3.58281910129272,3,2007
2,2006,3.79394589710509,3.79394589710509,3,2007
3,2006,2.40297705056109,2.4029770505611,3,2007
4,2006,3.50756736019355,3.50756736019355,3,2007
1,2007,2.43408060520518,2.43408060520518,3,2007
2,2007,2.37799503371844,2.3989147938947,3,2007
3,2007,2.3825156980663,2.37965780322935,3,2007
4,2007,2.44310730071219,2.38585313642412,3,2007
1,2008,,2.29172754163648,3,2007
2,2008,,2.2352521847639,3,2007
3,2008,,2.20701450632761,3,2007
4,2008,,2.19760194684884,3,2007
2,1991,0.472918484509165,0.472922814189251,4,2007
3,1991,0.248231853796343,0.248231853796342,4,2007
4,1991,3.88979781079915,3.88979781079914,4,2007
1,1992,4.90857609692299,4.90857609692299,4,2007
2,1992,-2.32958000732851,-2.32958000732851,4,2007
3,1992,-0.669839968852493,-0.669839968852492,4,2007
4,1992,-1.12894134416554,-1.12894134416554,4,2007
1,1993,-3.00576412195293,-3.00576412195293,4,2007
2,1993,0.674577157633106,0.674577157633105,4,2007
3,1993,1.7499747799856,1.7499747799856,4,2007
4,1993,1.22017253115438,1.22017253115439,4,2007
1,1994,3.43288683480183,3.43288683480183,4,2007
2,1994,2.88271984513331,2.88271984513331,4,2007
3,1994,3.25830290835503,3.25830290835503,4,2007
4,1994,3.23611547553799,3.23611547553799,4,2007
1,1995,2.74021940497011,2.74021940497011,4,2007
2,1995,2.51072345915697,2.51072345915697,4,2007
3,1995,1.49554537485648,1.49554537485648,4,2007
4,1995,1.02911986354242,1.02911986354242,4,2007
1,1996,0.0791875919796456,0.0791875919796451,4,2007
2,1996,2.97829453355947,2.97829453355947,4,2007
3,1996,2.16353278613202,2.16353278613202,4,2007
4,1996,0.99967716357785,0.999677163577851,4,2007
1,1997,1.70590429606901,1.705904296069,4,2007
2,1997,4.9906883181607,4.9906883181607,4,2007
3,1997,2.7420244454756,2.7420244454756,4,2007
4,1997,4.05915681156439,4.05915681156439,4,2007
1,1998,2.5363294482015,2.5363294482015,4,2007
2,1998,1.79962050987919,1.79962050987919,4,2007
3,1998,2.22633367767606,2.22633367767606,4,2007
4,1998,1.08431148007044,1.08431148007045,4,2007
1,1999,3.65488908082363,3.65488908082363,4,2007
2,1999,2.69320158769346,2.69320158769346,4,2007
3,1999,4.95045663639753,4.95045663639753,4,2007
4,1999,4.85405077594951,4.85405077594951,4,2007
1,2000,4.65615498371892,4.65615498371892,4,2007
2,2000,3.90852222734808,3.90852222734808,4,2007
3,2000,1.9181914810277,1.9181914810277,4,2007
4,2000,2.74322822733144,2.74322822733144,4,2007
1,2001,3.17587539888267,3.17587539888267,4,2007
2,2001,0.344488006710497,0.344488006710499,4,2007
3,2001,0.321868793246938,0.321868793246938,4,2007
4,2001,0.432794937941461,0.432794937941461,4,2007
1,2002,0.866242028593156,0.866242028593156,4,2007
2,2002,1.82399430538034,1.82399430538034,4,2007
3,2002,1.44811705020205,1.44811705020205,4,2007
4,2002,-0.037400267403265,-0.0374002674032634,4,2007
1,2003,0.550855748519275,0.550855748519275,4,2007
2,2003,-0.183213484999045,-0.183213484999044,4,2007
3,2003,2.20418525072896,2.20418525072896,4,2007
4,2003,1.83960505485046,1.83960505485046,4,2007
1,2004,2.6314542554539,2.6314542554539,4,2007
2,2004,1.5821962351529,1.5821962351529,4,2007
3,2004,1.36381930758498,1.36381930758498,4,2007
4,2004,0.94004368447107,0.940043684471071,4,2007
1,2005,1.30435274777789,1.30435274777789,4,2007
2,2005,2.11944937914363,2.11944937914363,4,2007
3,2005,2.66192493842548,2.66192493842548,4,2007
4,2005,1.44672165498265,1.44672165498265,4,2007
1,2006,3.57584924867835,3.57584924867835,4,2007
2,2006,3.98696595102985,3.98696595102985,4,2007
3,2006,2.2931759977123,2.2931759977123,4,2007
4,2006,3.54201104964755,3.54201104964755,4,2007
1,2007,2.85699624824367,2.85699624824367,4,2007
2,2007,1.40449548281325,1.40449548281325,4,2007
3,2007,2.16516594243043,2.20124228438997,4,2007
4,2007,2.42813933334637,2.35496372317664,4,2007
1,2008,,2.14743938309515,4,2007
2,2008,,2.0048952992123,4,2007
3,2008,,1.93362325727087,4,2007
4,2008,,1.90986590995706,4,2007
2,1991,0.472542367565432,0.473292643457723,1,2008
3,1991,0.248231853796344,0.248231853796345,1,2008
4,1991,3.88979781079915,3.88979781079914,1,2008
1,1992,4.90857609692299,4.90857609692299,1,2008
2,1992,-2.32958000732851,-2.32958000732851,1,2008
3,1992,-0.669839968852493,-0.669839968852492,1,2008
4,1992,-1.12894134416554,-1.12894134416553,1,2008
1,1993,-3.00576412195293,-3.00576412195292,1,2008
2,1993,0.674577157633105,0.674577157633104,1,2008
3,1993,1.7499747799856,1.7499747799856,1,2008
4,1993,1.22017253115438,1.22017253115439,1,2008
1,1994,3.43288683480183,3.43288683480183,1,2008
2,1994,2.88271984513331,2.88271984513331,1,2008
3,1994,3.25830290835503,3.25830290835503,1,2008
4,1994,3.23611547553799,3.23611547553799,1,2008
1,1995,2.74021940497011,2.74021940497011,1,2008
2,1995,2.31289496259834,2.31289496259834,1,2008
3,1995,1.30341428522931,1.30341428522931,1,2008
4,1995,1.12988564522785,1.12988564522785,1,2008
1,1996,0.216118437050939,0.216118437050939,1,2008
2,1996,2.94900731356143,2.94900731356142,1,2008
3,1996,2.14836567976906,2.14836567976906,1,2008
4,1996,1.07274142523823,1.07274142523823,1,2008
1,1997,1.68325032603249,1.68325032603249,1,2008
2,1997,5.01897149649795,5.01897149649795,1,2008
3,1997,2.66114355776668,2.66114355776668,1,2008
4,1997,3.92615763156177,3.92615763156177,1,2008
1,1998,2.77913340606042,2.77913340606042,1,2008
2,1998,1.76286864871409,1.76286864871409,1,2008
3,1998,2.21448834906395,2.21448834906395,1,2008
4,1998,0.858302321198368,0.858302321198369,1,2008
1,1999,3.88925775687701,3.88925775687701,1,2008
2,1999,2.51556148706538,2.51556148706538,1,2008
3,1999,5.13432431965242,5.13432431965242,1,2008
4,1999,4.81612022290809,4.81612022290809,1,2008
1,2000,4.562994080473,4.562994080473,1,2008
2,2000,4.0426787179771,4.0426787179771,1,2008
3,2000,1.82878455596645,1.82878455596645,1,2008
4,2000,2.85183607845791,2.85183607845791,1,2008
1,2001,3.17460084794992,3.17460084794991,1,2008
2,2001,0.282493559360697,0.282493559360699,1,2008
3,2001,0.308401848295525,0.308401848295526,1,2008
4,2001,0.329842340732101,0.329842340732101,1,2008
1,2002,1.0360114251154,1.0360114251154,1,2008
2,2002,1.70215751072498,1.70215751072498,1,2008
3,2002,1.51054533538586,1.51054533538586,1,2008
4,2002,0.0549772809577795,0.0549772809577807,1,2008
1,2003,0.44506298107585,0.44506298107585,1,2008
2,2003,-0.10630135823051,-0.106301358230508,1,2008
3,2003,2.14443615337452,2.14443615337452,1,2008
4,2003,2.17766168571698,2.17766168571698,1,2008
1,2004,2.35245154793191,2.35245154793191,1,2008
2,2004,1.62574010030965,1.62574010030965,1,2008
3,2004,1.27638124803204,1.27638124803204,1,2008
4,2004,1.07050128926194,1.07050128926194,1,2008
1,2005,1.21907039164793,1.21907039164793,1,2008
2,2005,2.28229718495809,2.28229718495809,1,2008
3,2005,2.47314149987541,2.47314149987541,1,2008
4,2005,1.69398054456005,1.69398054456005,1,2008
1,2006,3.50366016463597,3.50366016463597,1,2008
2,2006,3.9202569591382,3.9202569591382,1,2008
3,2006,2.32224110068338,2.32224110068338,1,2008
4,2006,3.23995128947625,3.23995128947625,1,2008
1,2007,3.26546227925426,3.26546227925426,1,2008
2,2007,1.24186512622537,1.24186512622537,1,2008
3,2007,3.08608288644814,3.08608288644814,1,2008
4,2007,2.41688084364802,2.25127999445029,1,2008
1,2008,1.82125266602828,1.62251676651215,1,2008
2,2008,1.29498973150943,1.25793560272001,1,2008
3,2008,1.01935425847951,1.33756751286788,1,2008
4,2008,0.927475767469538,1.69477072595443,1,2008
1,2009,,2.108094779751,1,2008
2,2009,,2.35608921202894,1,2008
3,2009,,2.48008642816791,1,2008
4,2009,,2.52141883354757,1,2008
2,1991,0.472924194025082,0.472933848189009,2,2008
3,1991,0.248231853796344,0.248231853796344,2,2008
4,1991,3.88979781079915,3.88979781079915,2,2008
1,1992,4.90857609692299,4.90857609692299,2,2008
2,1992,-2.32958000732851,-2.32958000732851,2,2008
3,1992,-0.669839968852492,-0.669839968852493,2,2008
4,1992,-1.12894134416553,-1.12894134416554,2,2008
1,1993,-3.00576412195292,-3.00576412195293,2,2008
2,1993,0.674577157633105,0.674577157633105,2,2008
3,1993,1.7499747799856,1.7499747799856,2,2008
4,1993,1.22017253115438,1.22017253115438,2,2008
1,1994,3.43288683480183,3.43288683480183,2,2008
2,1994,2.88271984513331,2.88271984513331,2,2008
3,1994,3.25830290835503,3.25830290835503,2,2008
4,1994,3.23611547553799,3.23611547553799,2,2008
1,1995,2.74021940497011,2.74021940497011,2,2008
2,1995,2.28756046918799,2.28756046918799,2,2008
3,1995,1.2337981959357,1.2337981959357,2,2008
4,1995,1.24310728602395,1.24310728602395,2,2008
1,1996,0.170602204052406,0.170602204052406,2,2008
2,1996,2.95609423816054,2.95609423816055,2,2008
3,1996,2.10053713813156,2.10053713813156,2,2008
4,1996,1.15941637903598,1.15941637903598,2,2008
1,1997,1.69339334893954,1.69339334893954,2,2008
2,1997,4.93701557513093,4.93701557513093,2,2008
3,1997,2.57582276723569,2.57582276723569,2,2008
4,1997,4.0366805047477,4.0366805047477,2,2008
1,1998,2.75916412987149,2.75916412987149,2,2008
2,1998,1.77372583403037,1.77372583403037,2,2008
3,1998,2.11802194894106,2.11802194894106,2,2008
4,1998,0.94717558349744,0.947175583497439,2,2008
1,1999,3.90952348381897,3.90952348381897,2,2008
2,1999,2.49109310485121,2.49109310485121,2,2008
3,1999,5.03147054832309,5.03147054832309,2,2008
4,1999,4.86009886272067,4.86009886272067,2,2008
1,2000,4.57662172467719,4.57662172467719,2,2008
2,2000,4.0342769915082,4.0342769915082,2,2008
3,2000,1.76571456660657,1.76571456660657,2,2008
4,2000,2.97103536038088,2.97103536038088,2,2008
1,2001,3.0929523666533,3.0929523666533,2,2008
2,2001,0.312638236587471,0.31263823658747,2,2008
3,2001,0.290101288432632,0.290101288432632,2,2008
4,2001,0.412990262871738,0.412990262871737,2,2008
1,2002,1.031091231728,1.031091231728,2,2008
2,2002,1.77692329136048,1.77692329136048,2,2008
3,2002,1.45791354416207,1.45791354416207,2,2008
4,2002,0.165406647451416,0.165406647451416,2,2008
1,2003,0.252476114613698,0.252476114613698,2,2008
2,2003,0.0357269446942927,0.035726944694292,2,2008
3,2003,2.10748316056995,2.10748316056995,2,2008
4,2003,2.36563969726031,2.36563969726031,2,2008
1,2004,2.24965262105501,2.24965262105501,2,2008
2,2004,1.87365798993631,1.87365798993631,2,2008
3,2004,1.26834249992438,1.26834249992438,2,2008
4,2004,1.23693780204079,1.23693780204079,2,2008
1,2005,1.22825878843291,1.22825878843291,2,2008
2,2005,2.47009470328421,2.47009470328421,2,2008
3,2005,2.45149306137258,2.45149306137258,2,2008
4,2005,1.85426105597222,1.85426105597222,2,2008
1,2006,3.29351008399295,3.29351008399295,2,2008
2,2006,4.09632746094182,4.09632746094182,2,2008
3,2006,2.18074019737606,2.18074019737606,2,2008
4,2006,3.36045627258048,3.36045627258048,2,2008
1,2007,3.01364243499711,3.01364243499711,2,2008
2,2007,1.34179732966993,1.34179732966992,2,2008
3,2007,2.91643765492158,2.91643765492158,2,2008
4,2007,1.41691111059548,1.41691111059548,2,2008
1,2008,1.51451679073206,1.46472386304846,2,2008
2,2008,1.34091718872138,1.31525934709797,2,2008
3,2008,1.38791732293689,1.43356387784849,2,2008
4,2008,1.31858833656948,1.50371498383603,2,2008
1,2009,,1.63174207175653,2,2008
2,2009,,1.70855832450883,2,2008
3,2009,,1.74696645088498,2,2008
4,2009,,1.75976915967703,2,2008
2,1991,0.472542367651356,0.473229898964917,3,2008
3,1991,0.248231853796344,0.248231853796345,3,2008
4,1991,3.88979781079914,3.88979781079915,3,2008
1,1992,4.90857609692299,4.90857609692299,3,2008
2,1992,-2.32958000732851,-2.32958000732851,3,2008
3,1992,-0.669839968852493,-0.669839968852493,3,2008
4,1992,-1.12894134416554,-1.12894134416554,3,2008
1,1993,-3.00576412195293,-3.00576412195292,3,2008
2,1993,0.674577157633105,0.674577157633105,3,2008
3,1993,1.7499747799856,1.7499747799856,3,2008
4,1993,1.22017253115438,1.22017253115438,3,2008
1,1994,3.43288683480183,3.43288683480183,3,2008
2,1994,2.88271984513331,2.88271984513331,3,2008
3,1994,3.25830290835503,3.25830290835503,3,2008
4,1994,3.23611547553799,3.23611547553799,3,2008
1,1995,2.74021940497011,2.74021940497011,3,2008
2,1995,4.06502222408331,4.06502222408331,3,2008
3,1995,1.88668930570874,1.88668930570875,3,2008
4,1995,2.09036734344261,2.09036734344261,3,2008
1,1996,-0.979847764051522,-0.979847764051518,3,2008
2,1996,2.94552019433247,2.94552019433247,3,2008
3,1996,2.09807829275261,2.09807829275261,3,2008
4,1996,1.26104425066307,1.26104425066307,3,2008
1,1997,1.59392400992586,1.59392400992586,3,2008
2,1997,4.89848175978382,4.89848175978382,3,2008
3,1997,2.70202618578375,2.70202618578375,3,2008
4,1997,3.96695916375955,3.96695916375955,3,2008
1,1998,2.77970777415733,2.77970777415733,3,2008
2,1998,1.77125831295841,1.77125831295841,3,2008
3,1998,2.10487253937608,2.10487253937608,3,2008
4,1998,0.819704749059769,0.819704749059769,3,2008
1,1999,3.73990687861188,3.73990687861187,3,2008
2,1999,2.37939237506126,2.37939237506126,3,2008
3,1999,5.05916981194867,5.05916981194867,3,2008
4,1999,4.89979500754412,4.89979500754412,3,2008
1,2000,4.60618737992098,4.60618737992098,3,2008
2,2000,3.9142948610039,3.9142948610039,3,2008
3,2000,1.94158595755565,1.94158595755565,3,2008
4,2000,3.19367716745442,3.19367716745442,3,2008
1,2001,2.94100055305013,2.94100055305013,3,2008
2,2001,0.269910131533658,0.269910131533658,3,2008
3,2001,0.241331456939387,0.241331456939387,3,2008
4,2001,0.445139316068266,0.445139316068266,3,2008
1,2002,1.09252905427677,1.09252905427677,3,2008
2,2002,1.75964290905137,1.75964290905137,3,2008
3,2002,1.34567642792933,1.34567642792933,3,2008
4,2002,0.302311646569798,0.302311646569797,3,2008
1,2003,0.327865103976488,0.327865103976488,3,2008
2,2003,-0.0789849312874291,-0.0789849312874283,3,2008
3,2003,2.05603016902032,2.05603016902032,3,2008
4,2003,2.41766535516095,2.41766535516095,3,2008
1,2004,2.28346141130338,2.28346141130338,3,2008
2,2004,1.67488395169759,1.67488395169759,3,2008
3,2004,1.37894850310971,1.37894850310971,3,2008
4,2004,1.43427178637794,1.43427178637794,3,2008
1,2005,1.19348563591462,1.19348563591462,3,2008
2,2005,2.45079599105891,2.45079599105891,3,2008
3,2005,2.54713650865321,2.54713650865321,3,2008
4,2005,1.97397162197368,1.97397162197368,3,2008
1,2006,3.308761903784,3.308761903784,3,2008
2,2006,4.01496638682344,4.01496638682344,3,2008
3,2006,2.31789163224359,2.31789163224359,3,2008
4,2006,3.36552237793655,3.36552237793655,3,2008
1,2007,3.16058540390567,3.16058540390567,3,2008
2,2007,1.49308736951683,1.49308736951683,3,2008
3,2007,2.66476618797091,2.66476618797091,3,2008
4,2007,1.25374675913799,1.25374675913799,3,2008
1,2008,3.222998120353,3.222998120353,3,2008
2,2008,0.782414699734213,0.606053334559589,3,2008
3,2008,0.264437570053997,0.285300593807162,3,2008
4,2008,0.0547105564284607,0.543859487815157,3,2008
1,2009,,1.40361633603489,3,2008
2,2009,,1.91947044496672,3,2008
3,2009,,2.17739749943264,3,2008
4,2009,,2.26337318425461,3,2008
2,1991,0.473267570570198,0.472908849603145,4,2008
3,1991,0.248231853796344,0.248231853796344,4,2008
4,1991,3.88979781079915,3.88979781079914,4,2008
1,1992,4.90857609692299,4.90857609692299,4,2008
2,1992,-2.32958000732851,-2.32958000732851,4,2008
3,1992,-0.669839968852493,-0.669839968852492,4,2008
4,1992,-1.12894134416554,-1.12894134416553,4,2008
1,1993,-3.00576412195292,-3.00576412195292,4,2008
2,1993,0.674577157633105,0.674577157633104,4,2008
3,1993,1.7499747799856,1.7499747799856,4,2008
4,1993,1.22017253115438,1.22017253115439,4,2008
1,1994,3.43288683480183,3.43288683480183,4,2008
2,1994,2.88271984513331,2.88271984513331,4,2008
3,1994,3.25830290835503,3.25830290835503,4,2008
4,1994,3.23611547553799,3.23611547553799,4,2008
1,1995,2.74021940497011,2.74021940497011,4,2008
2,1995,2.27215293492566,2.27215293492566,4,2008
3,1995,1.32959219420465,1.32959219420465,4,2008
4,1995,1.50294952734369,1.50294952734369,4,2008
1,1996,0.0274139980991133,0.0274139980991139,4,2008
2,1996,3.02616012779891,3.0261601277989,4,2008
3,1996,2.12527477660553,2.12527477660553,4,2008
4,1996,1.30522630093994,1.30522630093994,4,2008
1,1997,1.46778420180345,1.46778420180345,4,2008
2,1997,4.98489510810014,4.98489510810014,4,2008
3,1997,2.73789664692798,2.73789664692798,4,2008
4,1997,4.00973872763588,4.00973872763588,4,2008
1,1998,2.7611411936405,2.7611411936405,4,2008
2,1998,1.6892887174512,1.6892887174512,4,2008
3,1998,2.20275699816701,2.20275699816701,4,2008
4,1998,0.654142904084565,0.654142904084566,4,2008
1,1999,3.80304517962717,3.80304517962717,4,2008
2,1999,2.50156564391764,2.50156564391764,4,2008
3,1999,5.01445738519339,5.01445738519339,4,2008
4,1999,4.74809120310553,4.74809120310553,4,2008
1,2000,4.76504744556261,4.76504744556261,4,2008
2,2000,3.95035411568128,3.95035411568128,4,2008
3,2000,1.94046986253869,1.94046986253869,4,2008
4,2000,2.94602758225362,2.94602758225362,4,2008
1,2001,3.0502395893713,3.0502395893713,4,2008
2,2001,0.289381934803146,0.289381934803147,4,2008
3,2001,0.292894562317891,0.292894562317892,4,2008
4,2001,0.508061837430018,0.508061837430019,4,2008
1,2002,0.954451974327064,0.954451974327064,4,2008
2,2002,1.9300635790412,1.9300635790412,4,2008
3,2002,1.39950127547763,1.39950127547763,4,2008
4,2002,0.314610083857358,0.314610083857359,4,2008
1,2003,0.0656103747016746,0.0656103747016749,4,2008
2,2003,0.0882846908353718,0.0882846908353727,4,2008
3,2003,2.09257379723036,2.09257379723036,4,2008
4,2003,2.4190709314031,2.4190709314031,4,2008
1,2004,2.24202334406889,2.24202334406889,4,2008
2,2004,1.95265943516176,1.95265943516176,4,2008
3,2004,1.37425177316204,1.37425177316204,4,2008
4,2004,1.36327459760031,1.36327459760031,4,2008
1,2005,1.06381165876777,1.06381165876777,4,2008
2,2005,2.92875381703541,2.92875381703541,4,2008
3,2005,2.49927577403681,2.49927577403681,4,2008
4,2005,1.87310787462749,1.87310787462749,4,2008
1,2006,3.2789224725174,3.2789224725174,4,2008
2,2006,4.36845522040494,4.36845522040494,4,2008
3,2006,2.18476022182026,2.18476022182026,4,2008
4,2006,3.38174525120285,3.38174525120285,4,2008
1,2007,2.97922848782575,2.97922848782575,4,2008
2,2007,1.83953775554457,1.83953775554457,4,2008
3,2007,2.30586807907405,2.30586807907405,4,2008
4,2007,1.44283296428203,1.44283296428203,4,2008
1,2008,2.68012846637393,2.68012846637393,4,2008
2,2008,-0.784561275048446,-0.784561275048444,4,2008
3,2008,-0.0193411595062579,-0.0382964530886568,4,2008
4,2008,0.0957460152493681,0.135013172748741,4,2008
1,2009,,0.0818772613517988,4,2008
2,2009,,0.660548199601966,4,2008
3,2009,,0.94988366872705,4,2008
4,2009,,1.04632882510208,4,2008
2,1991,0.472909489869722,0.472542367844966,1,2009
3,1991,0.248231853796344,0.248231853796344,1,2009
4,1991,3.88979781079915,3.88979781079914,1,2009
1,1992,4.90857609692298,4.90857609692299,1,2009
2,1992,-2.32958000732851,-2.32958000732851,1,2009
3,1992,-0.669839968852493,-0.669839968852492,1,2009
4,1992,-1.12894134416554,-1.12894134416553,1,2009
1,1993,-3.00576412195292,-3.00576412195292,1,2009
2,1993,0.674577157633104,0.674577157633105,1,2009
3,1993,1.7499747799856,1.7499747799856,1,2009
4,1993,1.22017253115438,1.22017253115438,1,2009
1,1994,3.43288683480183,3.43288683480183,1,2009
2,1994,2.88271984513331,2.88271984513331,1,2009
3,1994,3.25830290835503,3.25830290835503,1,2009
4,1994,3.23611547553799,3.23611547553799,1,2009
1,1995,2.74021940497011,2.74021940497011,1,2009
2,1995,2.24559577962218,2.24559577962218,1,2009
3,1995,1.26433906981174,1.26433906981174,1,2009
4,1995,1.46414486344824,1.46414486344824,1,2009
1,1996,0.127594162880998,0.127594162880996,1,2009
2,1996,2.98038313811746,2.98038313811746,1,2009
3,1996,2.00028659222815,2.00028659222815,1,2009
4,1996,1.29637835955101,1.29637835955101,1,2009
1,1997,1.65639815363528,1.65639815363528,1,2009
2,1997,4.94464657681854,4.94464657681855,1,2009
3,1997,2.68898787966887,2.68898787966887,1,2009
4,1997,3.99860102156349,3.99860102156349,1,2009
1,1998,2.87990266220004,2.87990266220004,1,2009
2,1998,1.65144246850244,1.65144246850244,1,2009
3,1998,2.14903615905806,2.14903615905806,1,2009
4,1998,0.622016435720373,0.622016435720375,1,2009
1,1999,3.95972595050611,3.95972595050611,1,2009
2,1999,2.50020541703746,2.50020541703746,1,2009
3,1999,4.88634045998226,4.88634045998226,1,2009
4,1999,4.76208266643261,4.76208266643261,1,2009
1,2000,4.89207792192863,4.89207792192863,1,2009
2,2000,3.88857429454763,3.88857429454763,1,2009
3,2000,1.86911703659201,1.86911703659201,1,2009
4,2000,2.94022108175345,2.94022108175345,1,2009
1,2001,3.10073079358792,3.10073079358792,1,2009
2,2001,0.176521725852653,0.176521725852652,1,2009
3,2001,0.340063616005737,0.340063616005737,1,2009
4,2001,0.499988994559697,0.499988994559697,1,2009
1,2002,0.933971856388816,0.933971856388816,1,2009
2,2002,1.89891469886885,1.89891469886885,1,2009
3,2002,1.41621540006975,1.41621540006975,1,2009
4,2002,0.340028315486939,0.34002831548694,1,2009
1,2003,0.117786140633603,0.117786140633603,1,2009
2,2003,0.0738649190535246,0.0738649190535241,1,2009
3,2003,2.05684649552422,2.05684649552422,1,2009
4,2003,2.42692435882737,2.42692435882737,1,2009
1,2004,2.30795418595606,2.30795418595606,1,2009
2,2004,1.91302600781884,1.91302600781884,1,2009
3,2004,1.42262949071934,1.42262949071934,1,2009
4,2004,1.37673006813792,1.37673006813792,1,2009
1,2005,0.99972403468316,0.999724034683159,1,2009
2,2005,2.93757961472616,2.93757961472616,1,2009
3,2005,2.5541749839221,2.5541749839221,1,2009
4,2005,1.83751589116112,1.83751589116112,1,2009
1,2006,3.31647857199329,3.31647857199329,1,2009
2,2006,4.38904063571517,4.38904063571517,1,2009
3,2006,2.21021536320631,2.21021536320631,1,2009
4,2006,3.3682669902724,3.36826699027239,1,2009
1,2007,2.8536662488748,2.8536662488748,1,2009
2,2007,1.83152309405905,1.83152309405905,1,2009
3,2007,2.46633142218076,2.46633142218076,1,2009
4,2007,1.34425699849343,1.34425699849343,1,2009
1,2008,2.66747277262713,2.66747277262713,1,2009
2,2008,-0.715385105252984,-0.715385105252985,1,2009
3,2008,-0.744262123249351,-0.74426212324935,1,2009
4,2008,-0.896849166061523,-1.49245382745165,1,2009
1,2009,-1.79089767622337,-2.51069902624539,1,2009
2,2009,-2.44486079076196,-2.58681600798144,1,2009
3,2009,-3.06613900813907,-1.91709439017367,1,2009
4,2009,-3.27323174726477,-0.476581203935072,1,2009
1,2010,,1.04500960477661,1,2009
2,2010,,1.95796409000362,1,2009
3,2010,,2.41444133261713,1,2009
4,2010,,2.56660041348829,1,2009
2,1991,0.472866712752084,0.472866149841027,2,2009
3,1991,0.248231853796344,0.248231853796345,2,2009
4,1991,3.88979781079915,3.88979781079914,2,2009
1,1992,4.90857609692299,4.90857609692299,2,2009
2,1992,-2.32958000732851,-2.32958000732852,2,2009
3,1992,-0.669839968852492,-0.669839968852492,2,2009
4,1992,-1.12894134416553,-1.12894134416553,2,2009
1,1993,-3.00576412195292,-3.00576412195293,2,2009
2,1993,0.674577157633105,0.674577157633105,2,2009
3,1993,1.7499747799856,1.7499747799856,2,2009
4,1993,1.22017253115438,1.22017253115438,2,2009
1,1994,3.43288683480183,3.43288683480183,2,2009
2,1994,2.88271984513331,2.88271984513331,2,2009
3,1994,3.25830290835503,3.25830290835503,2,2009
4,1994,3.23611547553799,3.23611547553799,2,2009
1,1995,2.74021940497011,2.74021940497011,2,2009
2,1995,2.26548496860386,2.26548496860386,2,2009
3,1995,1.26911944123622,1.26911944123622,2,2009
4,1995,1.44333699267041,1.44333699267041,2,2009
1,1996,0.13309835016866,0.133098350168659,2,2009
2,1996,3.02983759139866,3.02983759139866,2,2009
3,1996,2.03693081368819,2.03693081368819,2,2009
4,1996,1.32803846534078,1.32803846534077,2,2009
1,1997,1.63659104267169,1.63659104267169,2,2009
2,1997,4.92977764816886,4.92977764816887,2,2009
3,1997,2.70639871160787,2.70639871160787,2,2009
4,1997,3.97297993658587,3.97297993658588,2,2009
1,1998,2.90398587072218,2.90398587072218,2,2009
2,1998,1.65237939929332,1.65237939929332,2,2009
3,1998,2.1773776609292,2.1773776609292,2,2009
4,1998,0.622041797095729,0.622041797095728,2,2009
1,1999,3.95738166563506,3.95738166563506,2,2009
2,1999,2.45117908726504,2.45117908726504,2,2009
3,1999,4.88286711183037,4.88286711183037,2,2009
4,1999,4.71981072801673,4.71981072801673,2,2009
1,2000,4.91674881718875,4.91674881718875,2,2009
2,2000,3.88065374752109,3.88065374752109,2,2009
3,2000,1.87996612880537,1.87996612880537,2,2009
4,2000,2.92908941553276,2.92908941553276,2,2009
1,2001,3.12047947723264,3.12047947723264,2,2009
2,2001,0.186243047818913,0.186243047818912,2,2009
3,2001,0.338869440067047,0.338869440067047,2,2009
4,2001,0.505290342281906,0.505290342281905,2,2009
1,2002,0.967852148871184,0.967852148871185,2,2009
2,2002,1.89839375954173,1.89839375954173,2,2009
3,2002,1.41872412665982,1.41872412665982,2,2009
4,2002,0.3576072608104,0.3576072608104,2,2009
1,2003,0.146668754268342,0.146668754268342,2,2009
2,2003,0.0862598349649748,0.0862598349649737,2,2009
3,2003,2.06131713400175,2.06131713400175,2,2009
4,2003,2.44061648857652,2.44061648857652,2,2009
1,2004,2.32119290210007,2.32119290210007,2,2009
2,2004,1.92134074943677,1.92134074943677,2,2009
3,2004,1.42637211938992,1.42637211938992,2,2009
4,2004,1.40760515264082,1.40760515264082,2,2009
1,2005,1.05961749858121,1.05961749858121,2,2009
2,2005,2.9814832453581,2.9814832453581,2,2009
3,2005,2.58990064098597,2.58990064098597,2,2009
4,2005,1.89725402423819,1.89725402423819,2,2009
1,2006,3.41392216962824,3.41392216962824,2,2009
2,2006,4.41986533765688,4.41986533765688,2,2009
3,2006,2.23347963073648,2.23347963073648,2,2009
4,2006,3.52809124865825,3.52809124865825,2,2009
1,2007,2.86722512132993,2.86722512132993,2,2009
2,2007,1.83195221383152,1.83195221383152,2,2009
3,2007,2.42214942201309,2.42214942201309,2,2009
4,2007,1.6574225521218,1.6574225521218,2,2009
1,2008,2.7933285298944,2.7933285298944,2,2009
2,2008,-0.952240082465939,-0.952240082465939,2,2009
3,2008,-0.950611302499893,-0.950611302499893,2,2009
4,2008,-5.75165103511995,-5.75165103511996,2,2009
1,2009,-4.05406281084722,-4.57866591646726,2,2009
2,2009,-3.15405567476221,-3.43418191018695,2,2009
