fredbec/spf-europe/data/filter_spf_data_medianfc_withus_stepahead2.csv
target_quarter,target_year,spf_filter_cy,spf_filter_ny,origin_quarter,origin_year
2,1991,1.2215346726577,1.22156017406073,1,2001
3,1991,0.242686548220705,0.242686548220705,1,2001
4,1991,3.9019132783761,3.9019132783761,1,2001
1,1992,5.67949033371342,5.67949033371342,1,2001
2,1992,-2.15845385305231,-2.15845385305231,1,2001
3,1992,-1.28747712943088,-1.28747712943088,1,2001
4,1992,-0.889854327095995,-0.889854327095995,1,2001
1,1993,-2.76785324946042,-2.76785324946042,1,2001
2,1993,0.308948526366471,0.308948526366471,1,2001
3,1993,1.22447410419595,1.22447410419595,1,2001
4,1993,1.4903550775744,1.4903550775744,1,2001
1,1994,4.05992642595303,4.05992642595303,1,2001
2,1994,2.07549720979923,2.07549720979923,1,2001
3,1994,2.73678377932585,2.73678377932585,1,2001
4,1994,3.37393012264526,3.37393012264526,1,2001
1,1995,2.43561441206268,2.43561441206268,1,2001
2,1995,2.10065976966085,2.10065976966085,1,2001
3,1995,0.407450994216329,0.40745099421633,1,2001
4,1995,0.923318769291126,0.923318769291126,1,2001
1,1996,0.975795507589482,0.975795507589483,1,2001
2,1996,2.58868091543496,2.58868091543496,1,2001
3,1996,2.27653823417493,2.27653823417493,1,2001
4,1996,0.847520542300017,0.847520542300017,1,2001
1,1997,0.707462962374182,0.707462962374184,1,2001
2,1997,4.9673476350411,4.9673476350411,1,2001
3,1997,2.90482768543347,2.90482768543348,1,2001
4,1997,3.39029458423401,3.39029458423401,1,2001
1,1998,3.44358337696575,3.44358337696575,1,2001
2,1998,1.35294053178629,1.3529405317863,1,2001
3,1998,2.16173405029661,2.1617340502966,1,2001
4,1998,1.08394753321359,1.08394753321359,1,2001
1,1999,3.07501228384053,3.07501228384053,1,2001
2,1999,2.31828188277918,2.31828188277918,1,2001
3,1999,3.89934161643468,3.89934161643468,1,2001
4,1999,3.92760695631864,3.92760695631864,1,2001
1,2000,3.71508896273649,3.71508896273649,1,2001
2,2000,3.33240467802769,3.33240467802769,1,2001
3,2000,2.73217648097268,2.73217648097268,1,2001
4,2000,2.66344450765742,2.65093832045492,1,2001
1,2001,2.59963089140875,2.58492033506146,1,2001
2,2001,2.7267658447966,2.72205599651061,1,2001
3,2001,2.81816211676041,2.83747856287712,1,2001
4,2001,2.67869031469369,2.75060063442168,1,2001
1,2002,,2.79478889704993,1,2001
2,2002,,2.82130185462688,1,2001
3,2002,,2.83455833341535,1,2001
4,2002,,2.83897715967818,1,2001
2,1991,1.03481314189856,1.03483028606009,2,2001
3,1991,0.221951484942906,0.221951484942904,2,2001
4,1991,3.86633767332045,3.86633767332045,2,2001
1,1992,5.86906539211933,5.86906539211933,2,2001
2,1992,-2.35096919690088,-2.35096919690088,2,2001
3,1992,-1.08865822184565,-1.08865822184565,2,2001
4,1992,-1.08937515191143,-1.08937515191143,2,2001
1,1993,-2.74514395996807,-2.74514395996806,2,2001
2,1993,0.155283009133945,0.155283009133944,2,2001
3,1993,1.5729998786215,1.5729998786215,2,2001
4,1993,1.56781798588088,1.56781798588088,2,2001
1,1994,3.61303084986029,3.61303084986029,2,2001
2,1994,2.32065514073023,2.32065514073023,2,2001
3,1994,2.95413091159094,2.95413091159094,2,2001
4,1994,3.18283271645303,3.18283271645303,2,2001
1,1995,2.35210954829024,2.35210954829024,2,2001
2,1995,2.0844020883876,2.0844020883876,2,2001
3,1995,0.377715613502794,0.377715613502795,2,2001
4,1995,1.02426197502647,1.02426197502647,2,2001
1,1996,1.14641432399198,1.14641432399198,2,2001
2,1996,2.213971591817,2.213971591817,2,2001
3,1996,2.4763225923129,2.4763225923129,2,2001
4,1996,0.690128817546776,0.690128817546776,2,2001
1,1997,1.16309018329293,1.16309018329293,2,2001
2,1997,4.70743652207279,4.70743652207279,2,2001
3,1997,2.76266170244552,2.76266170244552,2,2001
4,1997,3.59973205362374,3.59973205362374,2,2001
1,1998,3.56629010829461,3.56629010829461,2,2001
2,1998,1.2979694127919,1.2979694127919,2,2001
3,1998,2.32838326100828,2.32838326100828,2,2001
4,1998,1.031845155816,1.031845155816,2,2001
1,1999,3.14396944211055,3.14396944211055,2,2001
2,1999,2.19943459981997,2.19943459981997,2,2001
3,1999,4.07845750807045,4.07845750807045,2,2001
4,1999,4.02089109551278,4.02089109551278,2,2001
1,2000,3.7440865434178,3.7440865434178,2,2001
2,2000,3.06382008204198,3.06382008204198,2,2001
3,2000,2.23845215236032,2.23845215236032,2,2001
4,2000,2.84977351479012,2.84977351479012,2,2001
1,2001,2.33901086064782,2.30281172452889,2,2001
2,2001,2.37806273700355,2.36007040484396,2,2001
3,2001,2.50561171571301,2.53979034147669,2,2001
4,2001,2.41047770186445,2.54107078640262,2,2001
1,2002,,2.72780362656347,2,2001
2,2002,,2.83984333065998,2,2001
3,2002,,2.89586318270824,2,2001
4,2002,,2.91453646672433,2,2001
2,1991,1.05243404356751,1.05121673833849,3,2001
3,1991,-0.00996940672730484,-0.00996940672730484,3,2001
4,1991,3.9205399913538,3.9205399913538,3,2001
1,1992,5.99421609034667,5.99421609034667,3,2001
2,1992,-2.49120673522402,-2.49120673522403,3,2001
3,1992,-0.937605519471374,-0.937605519471374,3,2001
4,1992,-1.15104916961237,-1.15104916961237,3,2001
1,1993,-2.88262496431672,-2.88262496431672,3,2001
2,1993,0.314659308714549,0.314659308714548,3,2001
3,1993,1.60944996498464,1.60944996498464,3,2001
4,1993,1.62043889784009,1.62043889784009,3,2001
1,1994,3.51688399695422,3.51688399695422,3,2001
2,1994,2.32002058474339,2.32002058474339,3,2001
3,1994,2.83021061053559,2.83021061053559,3,2001
4,1994,3.40629517199069,3.40629517199069,3,2001
1,1995,2.21391989285327,2.21391989285327,3,2001
2,1995,2.15905713703166,2.15905713703166,3,2001
3,1995,0.379495896299086,0.379495896299087,3,2001
4,1995,0.93747579658503,0.93747579658503,3,2001
1,1996,1.32324665575336,1.32324665575336,3,2001
2,1996,2.05471436340903,2.05471436340903,3,2001
3,1996,2.49460789548872,2.49460789548872,3,2001
4,1996,0.606355068013964,0.606355068013964,3,2001
1,1997,1.15901880189271,1.15901880189271,3,2001
2,1997,4.82842628678435,4.82842628678435,3,2001
3,1997,2.82310645558796,2.82310645558797,3,2001
4,1997,3.51580695634033,3.51580695634033,3,2001
1,1998,3.91281199136773,3.91281199136773,3,2001
2,1998,1.33558559800491,1.33558559800491,3,2001
3,1998,2.2249500460034,2.2249500460034,3,2001
4,1998,0.911296120925132,0.911296120925131,3,2001
1,1999,3.29251087836839,3.29251087836839,3,2001
2,1999,2.1866755556742,2.1866755556742,3,2001
3,1999,4.11598662193462,4.11598662193462,3,2001
4,1999,4.00286635529183,4.00286635529183,3,2001
1,2000,3.84502351856724,3.84502351856724,3,2001
2,2000,3.02277283784982,3.02277283784982,3,2001
3,2000,2.39410547984214,2.39410547984213,3,2001
4,2000,2.43192810853234,2.43192810853234,3,2001
1,2001,2.20515515349451,2.20515515349451,3,2001
2,2001,1.27666413969388,1.12317066112783,3,2001
3,2001,1.37636428298395,1.3958482403447,3,2001
4,2001,1.49594191894194,1.91874799933524,3,2001
1,2002,,2.68936290327933,3,2001
2,2002,,3.13737808392945,3,2001
3,2002,,3.36138567425451,3,2001
4,2002,,3.43605487102953,3,2001
2,1991,0.841916023218939,0.841926658841787,4,2001
3,1991,0.292186238986237,0.292186238986236,4,2001
4,1991,3.68470964114307,3.68470964114307,4,2001
1,1992,6.06693048044397,6.06693048044398,4,2001
2,1992,-2.72207460449392,-2.72207460449393,4,2001
3,1992,-0.626125724150328,-0.626125724150328,4,2001
4,1992,-1.35108610362086,-1.35108610362086,4,2001
1,1993,-2.72852484101649,-2.72852484101649,4,2001
2,1993,0.161374048233709,0.161374048233709,4,2001
3,1993,1.79007511522771,1.79007511522771,4,2001
4,1993,1.41953252002818,1.41953252002818,4,2001
1,1994,3.41086556010453,3.41086556010453,4,2001
2,1994,2.32592621854888,2.32592621854888,4,2001
3,1994,2.98886113363803,2.98886113363803,4,2001
4,1994,3.30255754421043,3.30255754421043,4,2001
1,1995,2.14354500889271,2.14354500889271,4,2001
2,1995,2.49469266604576,2.49469266604576,4,2001
3,1995,0.404027558746246,0.404027558746245,4,2001
4,1995,0.827940929629678,0.827940929629678,4,2001
1,1996,1.12207578076407,1.12207578076406,4,2001
2,1996,2.40174720864823,2.40174720864823,4,2001
3,1996,2.32072270311447,2.32072270311448,4,2001
4,1996,0.683361866531752,0.683361866531751,4,2001
1,1997,1.11341834296861,1.11341834296861,4,2001
2,1997,4.76930198987044,4.76930198987045,4,2001
3,1997,2.69049087496911,2.69049087496911,4,2001
4,1997,3.92622136013234,3.92622136013234,4,2001
1,1998,3.56600240421159,3.56600240421159,4,2001
2,1998,1.52315176565991,1.52315176565991,4,2001
3,1998,2.05970231992401,2.05970231992401,4,2001
4,1998,0.639755161962265,0.639755161962263,4,2001
1,1999,3.92114602390967,3.92114602390967,4,2001
2,1999,2.02195374370384,2.02195374370384,4,2001
3,1999,4.48486091449987,4.48486091449987,4,2001
4,1999,3.97973979890973,3.97973979890973,4,2001
1,2000,3.96621216858499,3.96621216858499,4,2001
2,2000,3.122870020304,3.122870020304,4,2001
3,2000,2.0006956078134,2.0006956078134,4,2001
4,2000,2.41662200697821,2.41662200697821,4,2001
1,2001,2.06303883718004,2.06303883718004,4,2001
2,2001,0.201769249791095,0.201769249791095,4,2001
3,2001,0.150911804928367,-0.0270324330682691,4,2001
4,2001,0.476538234881658,0.835725791202606,4,2001
1,2002,,2.0409295531016,4,2001
2,2002,,2.36861850816464,4,2001
3,2002,,2.53942375101065,4,2001
4,2002,,2.59635883195932,4,2001
2,1991,0.786928665885373,0.786940163853306,1,2002
3,1991,0.288195043804131,0.288195043804129,1,2002
4,1991,3.69325564874532,3.69325564874532,1,2002
1,1992,5.97145724898835,5.97145724898835,1,2002
2,1992,-2.79774822990261,-2.79774822990261,1,2002
3,1992,-0.723737344476427,-0.723737344476426,1,2002
4,1992,-0.948044383700274,-0.948044383700275,1,2002
1,1993,-2.87990289662321,-2.87990289662321,1,2002
2,1993,0.0643690235962788,0.0643690235962775,1,2002
3,1993,1.82521421678954,1.82521421678954,1,2002
4,1993,1.54027352980426,1.54027352980426,1,2002
1,1994,3.58471206957427,3.58471206957427,1,2002
2,1994,1.84282664278237,1.84282664278237,1,2002
3,1994,2.93809189475087,2.93809189475087,1,2002
4,1994,3.38692934308438,3.38692934308438,1,2002
1,1995,2.00543866781942,2.00543866781941,1,2002
2,1995,2.71771075129092,2.71771075129092,1,2002
3,1995,0.605258348529515,0.605258348529515,1,2002
4,1995,0.725899239844985,0.725899239844985,1,2002
1,1996,0.886956546375651,0.886956546375651,1,2002
2,1996,2.71309327189351,2.71309327189351,1,2002
3,1996,2.14173184003821,2.14173184003821,1,2002
4,1996,0.804261679394936,0.804261679394936,1,2002
1,1997,1.37415590078685,1.37415590078684,1,2002
2,1997,4.48490669018675,4.48490669018675,1,2002
3,1997,2.53794313508893,2.53794313508893,1,2002
4,1997,4.19256644987249,4.19256644987249,1,2002
1,1998,3.59520478034243,3.59520478034243,1,2002
2,1998,1.6559111335777,1.6559111335777,1,2002
3,1998,2.08758882679774,2.08758882679774,1,2002
4,1998,0.486926641901332,0.486926641901332,1,2002
1,1999,3.68906050600992,3.68906050600992,1,2002
2,1999,2.52550991846712,2.52550991846712,1,2002
3,1999,4.41874542105116,4.41874542105116,1,2002
4,1999,3.94443374673268,3.94443374673268,1,2002
1,2000,3.60552915185686,3.60552915185686,1,2002
2,2000,3.55783336618241,3.55783336618241,1,2002
3,2000,1.65103910582047,1.65103910582047,1,2002
4,2000,2.35250056722371,2.35250056722371,1,2002
1,2001,2.32500340291779,2.32500340291779,1,2002
2,2001,0.25253234185534,0.252532341855339,1,2002
3,2001,0.496624005674785,0.496624005674785,1,2002
4,2001,1.10550995149589,1.01191901922146,1,2002
1,2002,1.31657496880589,1.20323213061987,1,2002
2,2002,1.59031535210564,1.56084087934157,1,2002
3,2002,2.18502835390527,2.33498880538494,1,2002
4,2002,1.83249979329471,2.3554951723825,1,2002
1,2003,,2.68066950670453,1,2002
2,2003,,2.87577410729775,1,2002
3,2003,,2.97332640759436,1,2002
4,2003,,3.00584384102656,1,2002
2,1991,0.777490005750684,0.777503247183399,2,2002
3,1991,0.225689915502471,0.225689915502469,2,2002
4,1991,3.71561726558081,3.71561726558081,2,2002
1,1992,6.01893356468819,6.01893356468819,2,2002
2,1992,-2.81194330843926,-2.81194330843926,2,2002
3,1992,-0.770033722316832,-0.770033722316832,2,2002
4,1992,-0.936530950474158,-0.936530950474157,2,2002
1,1993,-2.8379240061918,-2.83792400619181,2,2002
2,1993,0.0324479751942826,0.0324479751942826,2,2002
3,1993,1.83991390890552,1.83991390890552,2,2002
4,1993,1.51358535541912,1.51358535541912,2,2002
1,1994,3.60233648005317,3.60233648005317,2,2002
2,1994,1.86559523521346,1.86559523521346,2,2002
3,1994,2.88508884116343,2.88508884116343,2,2002
4,1994,3.43945734810545,3.43945734810545,2,2002
1,1995,1.99937686420095,1.99937686420095,2,2002
2,1995,2.72954032024495,2.72954032024495,2,2002
3,1995,0.558504595099341,0.558504595099341,2,2002
4,1995,0.744095366510211,0.744095366510211,2,2002
1,1996,0.780341221206849,0.780341221206848,2,2002
2,1996,2.85991541894535,2.85991541894535,2,2002
3,1996,2.10998531818669,2.10998531818669,2,2002
4,1996,0.885786834255153,0.885786834255153,2,2002
1,1997,1.23804014289482,1.23804014289481,2,2002
2,1997,4.52495430723028,4.52495430723028,2,2002
3,1997,2.5092033556706,2.5092033556706,2,2002
4,1997,4.33538722378975,4.33538722378974,2,2002
1,1998,3.53989334836493,3.53989334836493,2,2002
2,1998,1.57094190546569,1.57094190546569,2,2002
3,1998,2.02485233533483,2.02485233533483,2,2002
4,1998,0.64557208309448,0.645572083094481,2,2002
1,1999,3.66898844239227,3.66898844239227,2,2002
2,1999,2.35397182857779,2.35397182857779,2,2002
3,1999,4.45215706398308,4.45215706398308,2,2002
4,1999,4.16833169045137,4.16833169045137,2,2002
1,2000,3.47137380775711,3.47137380775711,2,2002
2,2000,3.49191228614774,3.49191228614774,2,2002
3,2000,1.62286699920469,1.62286699920469,2,2002
4,2000,2.6009432289396,2.6009432289396,2,2002
1,2001,2.05083219419673,2.05083219419673,2,2002
2,2001,0.288494506647407,0.288494506647408,2,2002
3,2001,0.757582858574812,0.757582858574812,2,2002
4,2001,-0.660316880827817,-0.660316880827816,2,2002
1,2002,1.30903465558947,1.36056793935073,2,2002
2,2002,2.16054400053805,2.18908456932171,2,2002
3,2002,3.03514988144142,2.98314542041677,2,2002
4,2002,3.18963932279091,3.00167176566378,2,2002
1,2003,,2.72927813962264,2,2002
2,2003,,2.56584196399795,2,2002
3,2003,,2.48412387618561,2,2002
4,2003,,2.45688451358149,2,2002
2,1991,0.667291044617367,0.66768533447494,3,2002
3,1991,0.306184198387239,0.306184198387238,3,2002
4,1991,3.54926970265108,3.54926970265108,3,2002
1,1992,5.99779741645703,5.99779741645703,3,2002
2,1992,-2.85420737178148,-2.85420737178148,3,2002
3,1992,-0.45906078336696,-0.45906078336696,3,2002
4,1992,-0.950638774360656,-0.950638774360657,3,2002
1,1993,-3.0240936913276,-3.0240936913276,3,2002
2,1993,0.178850920303453,0.178850920303453,3,2002
3,1993,1.90925973917375,1.90925973917375,3,2002
4,1993,1.46421617396748,1.46421617396748,3,2002
1,1994,3.45342580787114,3.45342580787114,3,2002
2,1994,2.07736416364273,2.07736416364273,3,2002
3,1994,2.94263239608419,2.94263239608419,3,2002
4,1994,3.44290711466555,3.44290711466555,3,2002
1,1995,1.85697704427168,1.85697704427168,3,2002
2,1995,2.56535102147619,2.56535102147619,3,2002
3,1995,0.752675748222509,0.752675748222509,3,2002
4,1995,0.988278789111275,0.988278789111274,3,2002
1,1996,0.537155187826954,0.537155187826954,3,2002
2,1996,2.82662062212806,2.82662062212806,3,2002
3,1996,2.15523863275591,2.15523863275591,3,2002
4,1996,0.835145577286079,0.835145577286078,3,2002
1,1997,1.30502380744921,1.30502380744921,3,2002
2,1997,4.46873552964069,4.46873552964069,3,2002
3,1997,2.52134936572452,2.52134936572452,3,2002
4,1997,4.30342612208166,4.30342612208166,3,2002
1,1998,3.30733470002604,3.30733470002604,3,2002
2,1998,1.75028353311579,1.75028353311579,3,2002
3,1998,2.1789257400268,2.1789257400268,3,2002
4,1998,0.839328696405639,0.839328696405639,3,2002
1,1999,3.31138388193228,3.31138388193228,3,2002
2,1999,2.57883287392817,2.57883287392817,3,2002
3,1999,4.84087533194024,4.84087533194024,3,2002
4,1999,4.16247388400284,4.16247388400284,3,2002
1,2000,3.70303378882957,3.70303378882957,3,2002
2,2000,3.56384715335505,3.56384715335505,3,2002
3,2000,1.66434112720715,1.66434112720715,3,2002
4,2000,2.78226191301132,2.78226191301132,3,2002
1,2001,2.03645957584742,2.03645957584742,3,2002
2,2001,0.123589630967458,0.123589630967458,3,2002
3,2001,0.393459944241004,0.393459944241004,3,2002
4,2001,-1.15449083883461,-1.15449083883461,3,2002
1,2002,0.871087304173602,0.871087304173601,3,2002
2,2002,2.53145120355726,2.68376933137861,3,2002
3,2002,3.52868816474511,3.49694625310015,3,2002
4,2002,3.61523771413856,3.22052295801206,3,2002
1,2003,,2.66440010879066,3,2002
2,2003,,1.88408028598484,3,2002
3,2003,,1.49392037458192,3,2002
4,2003,,1.36386707078095,3,2002
2,1991,0.607594871862181,0.607610796727843,4,2002
3,1991,0.0836117815028459,0.0836117815028459,4,2002
4,1991,3.61804415517151,3.61804415517151,4,2002
1,1992,5.8793902782831,5.8793902782831,4,2002
2,1992,-2.62666452122355,-2.62666452122354,4,2002
3,1992,-0.546466672417323,-0.546466672417322,4,2002
4,1992,-0.725766871994915,-0.725766871994916,4,2002
1,1993,-3.15681221590003,-3.15681221590003,4,2002
2,1993,0.237570472707205,0.237570472707205,4,2002
3,1993,1.66410641550967,1.66410641550967,4,2002
4,1993,1.57998932792636,1.57998932792636,4,2002
1,1994,3.3871397463765,3.3871397463765,4,2002
2,1994,2.19380037143457,2.19380037143457,4,2002
3,1994,2.93210432307678,2.93210432307678,4,2002
4,1994,3.45730011421375,3.45730011421375,4,2002
1,1995,1.77094457775337,1.77094457775338,4,2002
2,1995,2.56818889106962,2.56818889106962,4,2002
3,1995,0.856135151610049,0.85613515161005,4,2002
4,1995,0.977816676388255,0.977816676388254,4,2002
1,1996,0.485973311548271,0.485973311548273,4,2002
2,1996,2.81518079667107,2.81518079667107,4,2002
3,1996,2.22324799912992,2.22324799912992,4,2002
4,1996,0.762095992150824,0.762095992150824,4,2002
1,1997,1.26672231784526,1.26672231784526,4,2002
2,1997,4.51657681923865,4.51657681923865,4,2002
3,1997,2.62711197964616,2.62711197964616,4,2002
4,1997,4.20162610169879,4.20162610169879,4,2002
1,1998,3.31635061646964,3.31635061646964,4,2002
2,1998,1.57135994170547,1.57135994170548,4,2002
3,1998,2.26976557395602,2.26976557395602,4,2002
4,1998,1.19869291015544,1.19869291015544,4,2002
1,1999,3.30661004054929,3.30661004054928,4,2002
2,1999,2.17536995105485,2.17536995105485,4,2002
3,1999,5.26349703938161,5.2634970393816,4,2002
4,1999,4.54149394751691,4.54149394751691,4,2002
1,2000,3.31864532175232,3.31864532175232,4,2002
2,2000,3.44350359552477,3.44350359552477,4,2002
3,2000,1.60348148430327,1.60348148430327,4,2002
4,2000,2.6360078233264,2.6360078233264,4,2002
1,2001,2.04880247153765,2.04880247153765,4,2002
2,2001,0.152702882643929,0.15270288264393,4,2002
3,2001,0.653891626050895,0.653891626050895,4,2002
4,2001,-1.15549315344257,-1.15549315344257,4,2002
1,2002,1.42688514205365,1.42688514205365,4,2002
2,2002,1.36578692645493,1.36578692645493,4,2002
3,2002,1.56834519060441,1.57852068348041,4,2002
4,2002,1.87122678053319,1.84969895424284,4,2002
1,2003,,2.14784934509089,4,2002
2,2003,,2.00002163030703,4,2002
3,2003,,1.44133176218787,4,2002
4,2003,,1.25510180614816,4,2002
2,1991,0.667227950910319,0.667925928019138,1,2003
3,1991,0.0901064604855507,0.0901064604855517,1,2003
4,1991,3.62420817979585,3.62420817979585,1,2003
1,1992,5.80768287763365,5.80768287763365,1,2003
2,1992,-2.53762417943673,-2.53762417943672,1,2003
3,1992,-0.589066339022293,-0.589066339022293,1,2003
4,1992,-0.794743857885194,-0.794743857885194,1,2003
1,1993,-3.0715418575637,-3.0715418575637,1,2003
2,1993,0.225807530751365,0.225807530751365,1,2003
3,1993,1.64351033033565,1.64351033033565,1,2003
4,1993,1.52643065312983,1.52643065312983,1,2003
1,1994,3.40471670205385,3.40471670205385,1,2003
2,1994,2.26883938067859,2.26883938067859,1,2003
3,1994,2.93662878963026,2.93662878963026,1,2003
4,1994,3.34691549666741,3.34691549666741,1,2003
1,1995,2.01263585975826,2.01263585975826,1,2003
2,1995,2.32534015365153,2.32534015365153,1,2003
3,1995,0.894136657982503,0.894136657982503,1,2003
4,1995,0.803932516126293,0.803932516126294,1,2003
1,1996,0.724772854483868,0.724772854483869,1,2003
2,1996,2.65033236331005,2.65033236331005,1,2003
3,1996,2.30179056944864,2.30179056944864,1,2003
4,1996,0.8823038400956,0.8823038400956,1,2003
1,1997,1.13635672756449,1.13635672756449,1,2003
2,1997,4.51583540291922,4.51583540291922,1,2003
3,1997,2.69060599960511,2.69060599960511,1,2003
4,1997,4.22074774407393,4.22074774407393,1,2003
1,1998,3.29212528831273,3.29212528831273,1,2003
2,1998,1.54608539630139,1.54608539630139,1,2003
3,1998,2.32435024949886,2.32435024949886,1,2003
4,1998,1.28156707858373,1.28156707858373,1,2003
1,1999,3.38908956625623,3.38908956625623,1,2003
2,1999,2.15872922899629,2.15872922899629,1,2003
3,1999,5.32789670063329,5.32789670063329,1,2003
4,1999,4.38336652673523,4.38336652673523,1,2003
1,2000,3.5635552466752,3.5635552466752,1,2003
2,2000,3.29415245323805,3.29415245323805,1,2003
3,2000,1.52456156036294,1.52456156036294,1,2003
4,2000,2.57858522032781,2.57858522032781,1,2003
1,2001,2.07671028998448,2.07671028998448,1,2003
2,2001,0.00360412451885228,0.00360412451885273,1,2003
3,2001,0.729189350328352,0.729189350328352,1,2003
4,2001,-0.976146818070256,-0.976146818070255,1,2003
1,2002,1.65740257690419,1.65740257690419,1,2003
2,2002,1.34516695428022,1.34516695428022,1,2003
3,2002,1.33087299458941,1.33087299458941,1,2003
4,2002,1.50331966215611,1.36532172527238,1,2003
1,2003,1.43116778027559,1.2655868650827,1,2003
2,2003,1.50184959335739,1.46108726872276,1,2003
3,2003,1.64202014693127,1.86645995532595,1,2003
4,2003,1.1719180479201,1.92213615892123,1,2003
1,2004,,2.37541846989103,1,2003
2,2004,,2.6473878564729,1,2003
3,2004,,2.78337254976384,1,2003
4,2004,,2.82870078086082,1,2003
2,1991,0.662086130027139,0.662095742239967,2,2003
3,1991,0.10719872286542,0.107198722865421,2,2003
4,1991,3.61150841305884,3.61150841305884,2,2003
1,1992,5.81065426800631,5.81065426800631,2,2003
2,1992,-2.5503035659349,-2.5503035659349,2,2003
3,1992,-0.569569956135197,-0.569569956135197,2,2003
4,1992,-0.797734029685127,-0.797734029685127,2,2003
1,1993,-3.06350742607352,-3.06350742607352,2,2003
2,1993,0.201849786532438,0.201849786532438,2,2003
3,1993,1.67076383277862,1.67076383277862,2,2003
4,1993,1.49377188837201,1.49377188837201,2,2003
1,1994,3.41744168619424,3.41744168619424,2,2003
2,1994,2.28449578704559,2.28449578704559,2,2003
3,1994,2.91184575999728,2.91184575999728,2,2003
4,1994,3.36729425891873,3.36729425891873,2,2003
1,1995,2.01696049753626,2.01696049753626,2,2003
2,1995,2.33012645657373,2.33012645657373,2,2003
3,1995,0.893099384687846,0.893099384687846,2,2003
4,1995,0.840839103229918,0.840839103229918,2,2003
1,1996,0.688879807518151,0.68887980751815,2,2003
2,1996,2.64253195708866,2.64253195708866,2,2003
3,1996,2.30963535450863,2.30963535450863,2,2003
4,1996,0.902997582425602,0.902997582425601,2,2003
1,1997,1.12091264210641,1.12091264210641,2,2003
2,1997,4.51922831462348,4.51922831462348,2,2003
3,1997,2.69508832329282,2.69508832329282,2,2003
4,1997,4.22319369515163,4.22319369515163,2,2003
1,1998,3.23656386715965,3.23656386715965,2,2003
2,1998,1.55418894213297,1.55418894213297,2,2003
3,1998,2.33656427032545,2.33656427032545,2,2003
4,1998,1.28563297544471,1.28563297544471,2,2003
1,1999,3.35852928776432,3.35852928776432,2,2003
2,1999,2.16988051129676,2.16988051129676,2,2003
3,1999,5.36113576350736,5.36113576350736,2,2003
4,1999,4.32558034449801,4.32558034449801,2,2003
1,2000,3.65056242144108,3.65056242144108,2,2003
2,2000,3.28090443766098,3.28090443766098,2,2003
3,2000,1.73604020732794,1.73604020732794,2,2003
4,2000,2.40267335448872,2.40267335448872,2,2003
1,2001,2.21309050353962,2.21309050353962,2,2003
2,2001,-0.0373905785937319,-0.0373905785937336,2,2003
3,2001,0.574680267060756,0.574680267060756,2,2003
4,2001,-0.903051255713049,-0.903051255713052,2,2003
1,2002,1.56427636927152,1.56427636927152,2,2003
2,2002,1.31103400431281,1.31103400431281,2,2003
3,2002,1.56915219567277,1.56915219567277,2,2003
4,2002,0.67982324380218,0.67982324380218,2,2003
1,2003,0.529587529621353,0.502860228498622,2,2003
2,2003,0.840520319892806,0.827860323027163,2,2003
3,2003,1.47406041697109,1.49938775229298,2,2003
4,2003,1.92789723776924,2.02225147052615,2,2003
1,2004,,2.15129306434128,2,2003
2,2004,,2.22871802063036,2,2003
3,2004,,2.2674304987749,2,2003
4,2004,,2.28033465815641,2,2003
2,1991,0.665193033767257,0.66482871459916,3,2003
3,1991,0.0530630556513375,0.0530630556513366,3,2003
4,1991,3.63603450103813,3.63603450103813,3,2003
1,1992,5.87671484707535,5.87671484707535,3,2003
2,1992,-2.63457834356004,-2.63457834356004,3,2003
3,1992,-0.528222963846947,-0.528222963846947,3,2003
4,1992,-0.837194098036798,-0.837194098036798,3,2003
1,1993,-2.99276584220347,-2.99276584220347,3,2003
2,1993,0.0806831367059062,0.0806831367059062,3,2003
3,1993,1.82048086998403,1.82048086998403,3,2003
4,1993,1.39204251337042,1.39204251337042,3,2003
1,1994,3.38244782777244,3.38244782777244,3,2003
2,1994,2.39589506499676,2.39589506499676,3,2003
3,1994,2.83133841037806,2.83133841037806,3,2003
4,1994,3.46221215821649,3.46221215821649,3,2003
1,1995,1.97702639926309,1.97702639926309,3,2003
2,1995,2.30520798808505,2.30520798808505,3,2003
3,1995,0.931404891038423,0.931404891038423,3,2003
4,1995,0.771497220763684,0.771497220763684,3,2003
1,1996,0.830870715667609,0.830870715667609,3,2003
2,1996,2.47648348408296,2.47648348408296,3,2003
3,1996,2.31237439127119,2.31237439127119,3,2003
4,1996,0.959839050563293,0.959839050563293,3,2003
1,1997,1.04743535399277,1.04743535399277,3,2003
2,1997,4.70585273571558,4.70585273571558,3,2003
3,1997,2.5726669449146,2.5726669449146,3,2003
4,1997,4.22823013885052,4.22823013885052,3,2003
1,1998,3.27851687194112,3.27851687194112,3,2003
2,1998,1.59032098687863,1.59032098687863,3,2003
3,1998,2.23896357194273,2.23896357194273,3,2003
4,1998,1.22581878458201,1.22581878458201,3,2003
1,1999,3.52160423593368,3.52160423593368,3,2003
2,1999,2.18645894188847,2.18645894188847,3,2003
3,1999,5.2505647250295,5.2505647250295,3,2003
4,1999,4.32329012708403,4.32329012708403,3,2003
1,2000,3.85516062526246,3.85516062526246,3,2003
2,2000,3.20328714534273,3.20328714534273,3,2003
3,2000,1.49947549776155,1.49947549776155,3,2003
4,2000,2.53221302620594,2.53221302620594,3,2003
1,2001,2.38971592778376,2.38971592778376,3,2003
2,2001,-0.00523271282226778,-0.00523271282226778,3,2003
3,2001,0.627308838472041,0.627308838472041,3,2003
4,2001,-0.713947849500418,-0.713947849500418,3,2003
1,2002,1.69226394821267,1.69226394821267,3,2003
2,2002,1.56720075437216,1.56720075437216,3,2003
3,2002,1.29445495035709,1.29445495035709,3,2003
4,2002,0.26889435811499,0.26889435811499,3,2003
1,2003,0.0381512951699525,0.0381512951699525,3,2003
2,2003,0.301158219168984,0.253275261706193,3,2003
3,2003,1.01339744540366,0.997723904616853,3,2003
4,2003,1.56006410450555,1.73523110983767,3,2003
1,2004,,2.28759934634913,3,2003
2,2004,,1.87934388793215,3,2003
3,2004,,1.67521615872366,3,2003
4,2004,,1.60717358232083,3,2003
2,1991,1.00742012412141,1.00745019349597,4,2003
3,1991,-0.167844265078254,-0.167844265078253,4,2003
4,1991,3.86497812734148,3.86497812734148,4,2003
1,1992,6.17315943487071,6.17315943487071,4,2003
2,1992,-2.92162862841186,-2.92162862841186,4,2003
3,1992,-0.950648553249134,-0.950648553249133,4,2003
4,1992,-0.944324582474565,-0.944324582474564,4,2003
1,1993,-2.50684662922609,-2.50684662922609,4,2003
2,1993,0.0828702304034761,0.0828702304034765,4,2003
3,1993,1.58422016107451,1.58422016107451,4,2003
4,1993,1.30000910931376,1.30000910931376,4,2003
1,1994,3.70711839367643,3.70711839367643,4,2003
2,1994,2.37413479044255,2.37413479044255,4,2003
3,1994,2.67160586563913,2.67160586563913,4,2003
4,1994,3.31245232539286,3.31245232539286,4,2003
1,1995,2.07072280026828,2.07072280026828,4,2003
2,1995,2.34982511580859,2.34982511580859,4,2003
3,1995,0.90046870844156,0.90046870844156,4,2003
4,1995,0.905514467958213,0.905514467958213,4,2003
1,1996,0.826226154501653,0.826226154501653,4,2003
2,1996,2.59895900921112,2.59895900921112,4,2003
3,1996,2.1077907910882,2.1077907910882,4,2003
4,1996,0.626045057527857,0.626045057527858,4,2003
1,1997,1.03100474651674,1.03100474651674,4,2003
2,1997,5.12247378166941,5.12247378166941,4,2003
3,1997,2.69901887810933,2.69901887810933,4,2003
4,1997,4.07726606176935,4.07726606176935,4,2003
1,1998,3.21715833270741,3.21715833270741,4,2003
2,1998,1.68524883926775,1.68524883926775,4,2003
3,1998,2.18044339362367,2.18044339362367,4,2003
4,1998,1.13861724198891,1.13861724198892,4,2003
1,1999,3.49312308598628,3.49312308598628,4,2003
2,1999,2.44245695093293,2.44245695093293,4,2003
3,1999,5.10756404599224,5.10756404599224,4,2003
4,1999,4.22075455788153,4.22075455788153,4,2003
1,2000,3.85377832509792,3.85377832509792,4,2003
2,2000,3.43836003192288,3.43836003192288,4,2003
3,2000,1.31129190065531,1.31129190065531,4,2003
4,2000,2.41116725033859,2.41116725033859,4,2003
1,2001,2.73723296734629,2.73723296734629,4,2003
2,2001,0.112340729903294,0.112340729903294,4,2003
3,2001,0.681054385091717,0.681054385091717,4,2003
4,2001,-0.408919495760352,-0.40891949576035,4,2003
1,2002,1.3860043471027,1.3860043471027,4,2003
2,2002,1.9123937829518,1.9123937829518,4,2003
3,2002,0.908574109917781,0.908574109917782,4,2003
4,2002,0.240574967038865,0.240574967038865,4,2003
1,2003,0.098698006773801,0.0986980067738013,4,2003
2,2003,-0.311977767344795,-0.311977767344795,4,2003
3,2003,1.1346156735311,1.15846462794601,4,2003
4,2003,1.82407457809758,1.77441965735005,4,2003
1,2004,,2.11045629674356,4,2003
2,2004,,2.05802951385527,4,2003
3,2004,,1.3030416798181,4,2003
4,2004,,1.05137906847237,4,2003
2,1991,1.22468679809251,1.22548093888427,1,2004
3,1991,-0.176289228282767,-0.176289228282769,1,2004
4,1991,3.92568547224408,3.92568547224408,1,2004
1,1992,6.05690114719641,6.05690114719641,1,2004
2,1992,-2.95299805652298,-2.95299805652298,1,2004
3,1992,-0.95603880036762,-0.95603880036762,1,2004
4,1992,-0.96233582227524,-0.962335822275239,1,2004
1,1993,-2.46720661414054,-2.46720661414054,1,2004
2,1993,0.07573002645529,0.0757300264552905,1,2004
3,1993,1.5374444595682,1.5374444595682,1,2004
4,1993,1.13704350298645,1.13704350298645,1,2004
1,1994,3.94695882197131,3.94695882197131,1,2004
2,1994,2.38043185111621,2.38043185111621,1,2004
3,1994,2.65589774823909,2.65589774823909,1,2004
4,1994,3.23239614942077,3.23239614942077,1,2004
1,1995,2.20656134950181,2.20656134950181,1,2004
2,1995,2.29961537022547,2.29961537022547,1,2004
3,1995,0.835771922424633,0.835771922424634,1,2004
4,1995,0.950115934852747,0.950115934852747,1,2004
1,1996,0.565495681547268,0.56549568154727,1,2004
2,1996,2.9061348881851,2.9061348881851,1,2004
3,1996,2.17249932422405,2.17249932422405,1,2004
4,1996,0.660453005259631,0.660453005259632,1,2004
1,1997,0.939926060999885,0.939926060999887,1,2004
2,1997,4.98079735301333,4.98079735301333,1,2004
3,1997,2.78353619433771,2.78353619433771,1,2004
4,1997,4.09812727067931,4.09812727067931,1,2004
1,1998,3.2674433031352,3.2674433031352,1,2004
2,1998,1.59699200188972,1.59699200188972,1,2004
3,1998,2.18298175669338,2.18298175669338,1,2004
4,1998,1.08098977493745,1.08098977493745,1,2004
1,1999,3.64615255697471,3.64615255697471,1,2004
2,1999,2.30040226035957,2.30040226035957,1,2004
3,1999,5.06956639726,5.06956639725999,1,2004
4,1999,4.31239854856027,4.31239854856027,1,2004
1,2000,3.85201938998963,3.85201938998962,1,2004
2,2000,3.51401942068157,3.51401942068157,1,2004
3,2000,1.29188395697091,1.29188395697091,1,2004
4,2000,2.49146910394755,2.49146910394755,1,2004
1,2001,2.7249600630479,2.7249600630479,1,2004
2,2001,0.0917830902954049,0.0917830902954062,1,2004
3,2001,0.776822286087908,0.776822286087908,1,2004
4,2001,-0.516730087300021,-0.51673008730002,1,2004
1,2002,1.53256420348793,1.53256420348793,1,2004
2,2002,1.97944645253352,1.97944645253352,1,2004
3,2002,0.891602966424077,0.891602966424077,1,2004
4,2002,0.0380902538851923,0.0380902538851934,1,2004
1,2003,-0.0660495724325139,-0.0660495724325132,1,2004
2,2003,-0.411664245131505,-0.411664245131503,1,2004
3,2003,1.54413532335784,1.54413532335784,1,2004
4,2003,1.77203024035761,1.72701478949773,1,2004
1,2004,1.93927803149448,1.884913513095,1,2004
2,2004,2.18986588154118,2.17607638543395,1,2004
3,2004,2.29754603058055,2.37152467609803,1,2004
4,2004,1.88800831288481,2.13408137792993,1,2004
1,2005,,2.2805009083481,1,2004
2,2005,,2.36835262659901,1,2004
3,2005,,2.41227848572446,1,2004
4,2005,,2.42692043876628,1,2004
2,1991,1.22298441216952,1.22459935389344,2,2004
3,1991,-0.176185150616116,-0.176185150616117,2,2004
4,1991,3.91398123811415,3.91398123811415,2,2004
1,1992,6.05705341424437,6.05705341424436,2,2004
2,1992,-2.93855106466615,-2.93855106466615,2,2004
3,1992,-0.959471272404688,-0.959471272404688,2,2004
4,1992,-0.965368413904588,-0.965368413904587,2,2004
1,1993,-2.46837005939173,-2.46837005939173,2,2004
2,1993,0.0771523143741737,0.0771523143741741,2,2004
3,1993,1.53479347912469,1.53479347912469,2,2004
4,1993,1.14399862276771,1.14399862276771,2,2004
1,1994,3.93807772545574,3.93807772545574,2,2004
2,1994,2.38117399207389,2.38117399207389,2,2004
3,1994,2.66669036966347,2.66669036966347,2,2004
4,1994,3.22628492863208,3.22628492863208,2,2004
1,1995,2.20233030656991,2.20233030656991,2,2004
2,1995,2.30945216709078,2.30945216709078,2,2004
3,1995,0.827532975043654,0.827532975043655,2,2004
4,1995,0.950313658013169,0.950313658013169,2,2004
1,1996,0.57147206418906,0.571472064189061,2,2004
2,1996,2.90008733123313,2.90008733123313,2,2004
3,1996,2.17165994499655,2.17165994499655,2,2004
4,1996,0.662638380728132,0.662638380728132,2,2004
1,1997,0.940950289247898,0.9409502892479,2,2004
2,1997,4.98073174206768,4.98073174206768,2,2004
3,1997,2.77960187305868,2.77960187305868,2,2004
4,1997,4.10249885314156,4.10249885314156,2,2004
1,1998,3.26214681515864,3.26214681515864,2,2004
2,1998,1.5982399697569,1.5982399697569,2,2004
3,1998,2.18139631548289,2.18139631548289,2,2004
4,1998,1.09613941279445,1.09613941279445,2,2004
1,1999,3.63914588722736,3.63914588722736,2,2004
2,1999,2.29415075655977,2.29415075655977,2,2004
3,1999,5.07242433811022,5.07242433811021,2,2004
4,1999,4.30930369156488,4.30930369156488,2,2004
1,2000,3.76740369160826,3.76740369160826,2,2004
2,2000,3.56389811138931,3.56389811138931,2,2004
3,2000,1.22555043764698,1.22555043764698,2,2004
4,2000,2.47154440175974,2.47154440175974,2,2004
1,2001,2.72705464165655,2.72705464165655,2,2004
2,2001,0.140826700524622,0.140826700524622,2,2004
3,2001,0.712008090876215,0.712008090876215,2,2004
4,2001,-0.528307517940173,-0.528307517940173,2,2004
1,2002,1.52101284942108,1.52101284942108,2,2004
2,2002,2.01956722313039,2.01956722313039,2,2004
3,2002,0.923696449975009,0.92369644997501,2,2004
4,2002,0.00456240145008158,0.00456240145008202,2,2004
1,2003,-0.0570022396637503,-0.0570022396637496,2,2004
2,2003,-0.350421416123713,-0.350421416123713,2,2004
3,2003,1.55394005415075,1.55394005415075,2,2004
4,2003,1.24123691900133,1.24123691900133,2,2004
1,2004,1.43970245608493,1.51460929946095,2,2004
2,2004,1.89937482821026,1.93435638418109,2,2004
3,2004,2.42095509058499,2.34754491180739,2,2004
4,2004,2.82339645967479,2.56537862278176,2,2004
1,2005,,2.23803883958325,2,2004
2,2005,,2.04163496966414,2,2004
3,2005,,1.94343303470459,2,2004
4,2005,,1.91069905638474,2,2004
2,1991,1.19345738755491,1.19420794044234,3,2004
3,1991,-0.11046162331807,-0.11046162331807,3,2004
4,1991,3.85861376388277,3.85861376388277,3,2004
1,1992,6.17632015723351,6.1763201572335,3,2004
2,1992,-3.01851872238129,-3.01851872238129,3,2004
3,1992,-1.11541873342903,-1.11541873342903,3,2004
4,1992,-0.797438459107813,-0.797438459107813,3,2004
1,1993,-2.69768655969261,-2.69768655969261,3,2004
2,1993,0.297037800842826,0.297037800842825,3,2004
3,1993,1.66878901236494,1.66878901236494,3,2004
4,1993,1.0515539788533,1.0515539788533,3,2004
1,1994,3.75829992148429,3.75829992148429,3,2004
2,1994,2.51468094643317,2.51468094643317,3,2004
3,1994,2.72104894865002,2.72104894865002,3,2004
4,1994,3.21168444187441,3.21168444187441,3,2004
1,1995,2.19052812109859,2.19052812109859,3,2004
2,1995,2.26254420786167,2.26254420786167,3,2004
3,1995,0.781056351684306,0.781056351684306,3,2004
4,1995,1.03526317471869,1.03526317471869,3,2004
1,1996,0.670223881824383,0.670223881824384,3,2004
2,1996,2.83564488865313,2.83564488865313,3,2004
3,1996,1.98627484219218,1.98627484219218,3,2004
4,1996,0.708926347909289,0.708926347909289,3,2004
1,1997,0.887826265078417,0.887826265078417,3,2004
2,1997,5.0780136856438,5.0780136856438,3,2004
3,1997,2.87208348124859,2.87208348124859,3,2004
4,1997,4.13907364673085,4.13907364673085,3,2004
1,1998,3.06114331645786,3.06114331645786,3,2004
2,1998,1.71941677224947,1.71941677224947,3,2004
3,1998,2.20920382638696,2.20920382638696,3,2004
4,1998,1.08772019941763,1.08772019941763,3,2004
1,1999,3.46813323065152,3.46813323065152,3,2004
2,1999,2.47574860914424,2.47574860914423,3,2004
3,1999,5.02728741405072,5.02728741405072,3,2004
4,1999,4.37736364134076,4.37736364134076,3,2004
1,2000,3.66968532826999,3.66968532826999,3,2004
2,2000,3.48331352690401,3.48331352690401,3,2004
3,2000,1.40739909299132,1.40739909299132,3,2004
4,2000,2.43143508532899,2.43143508532899,3,2004
1,2001,2.65146004735855,2.65146004735855,3,2004
2,2001,0.142783216409014,0.142783216409016,3,2004
3,2001,0.91315875139848,0.91315875139848,3,2004
4,2001,-0.795270050918429,-0.795270050918427,3,2004
1,2002,1.68396955202888,1.68396955202887,3,2004
2,2002,1.97477059905009,1.97477059905009,3,2004
3,2002,0.792483792295839,0.79248379229584,3,2004
4,2002,0.13261700179914,0.132617001799141,3,2004
1,2003,-0.0360122930470941,-0.0360122930470941,3,2004
2,2003,-0.320051242018582,-0.320051242018581,3,2004
3,2003,1.65244117537877,1.65244117537877,3,2004
4,2003,1.49186166378825,1.49186166378825,3,2004
1,2004,2.31179840937314,2.31179840937314,3,2004
2,2004,1.80910307993276,1.83947658304738,3,2004
3,2004,2.08635591042671,2.06487741839483,3,2004
4,2004,2.4974529440445,2.44896742312482,3,2004
1,2005,,2.57348534394658,3,2004
2,2005,,2.07125173520287,3,2004
3,2005,,1.82013493083102,3,2004
4,2005,,1.73642932937373,3,2004
2,1991,1.26816961143898,1.26818286435777,4,2004
3,1991,0.0349341486787653,0.0349341486787669,4,2004
4,1991,3.87741144686709,3.87741144686709,4,2004
1,1992,6.0770579188951,6.0770579188951,4,2004
2,1992,-3.02385208752432,-3.02385208752431,4,2004
3,1992,-1.08872346113972,-1.08872346113972,4,2004
4,1992,-0.877276483947132,-0.877276483947131,4,2004
1,1993,-2.6899547613002,-2.6899547613002,4,2004
2,1993,0.310313554154805,0.310313554154806,4,2004
3,1993,1.71666939429447,1.71666939429447,4,2004
4,1993,1.07903350143132,1.07903350143133,4,2004
1,1994,3.71363121496262,3.71363121496262,4,2004
2,1994,2.48931020146674,2.48931020146674,4,2004
3,1994,2.82179723957834,2.82179723957834,4,2004
4,1994,3.06964038221829,3.06964038221829,4,2004
1,1995,2.40118969567709,2.40118969567709,4,2004
2,1995,2.17062848664167,2.17062848664167,4,2004
3,1995,0.622867033817397,0.622867033817398,4,2004
4,1995,1.03837752579718,1.03837752579719,4,2004
1,1996,0.740177601121327,0.740177601121328,4,2004
2,1996,2.86054362509312,2.86054362509312,4,2004
3,1996,2.02916688215511,2.02916688215511,4,2004
4,1996,0.667123863514751,0.667123863514751,4,2004
1,1997,0.912326279322605,0.912326279322606,4,2004
2,1997,5.06102818895791,5.06102818895791,4,2004
3,1997,2.86020886378324,2.86020886378324,4,2004
4,1997,4.13039494078573,4.13039494078573,4,2004
1,1998,3.07246421812584,3.07246421812584,4,2004
2,1998,1.77309153781124,1.77309153781124,4,2004
3,1998,2.17841726942492,2.17841726942491,4,2004
4,1998,1.00899052392576,1.00899052392576,4,2004
1,1999,3.45733584988486,3.45733584988486,4,2004
2,1999,2.49452831188668,2.49452831188668,4,2004
3,1999,5.14196516155936,5.14196516155936,4,2004
4,1999,4.38440557433444,4.38440557433444,4,2004
1,2000,3.6306591001543,3.6306591001543,4,2004
2,2000,3.57112429185211,3.57112429185211,4,2004
3,2000,1.31939241211902,1.31939241211902,4,2004
4,2000,2.24438248955336,2.24438248955336,4,2004
1,2001,2.96901341817391,2.9690134181739,4,2004
2,2001,-0.0889844688081189,-0.0889844688081172,4,2004
3,2001,0.881464945571064,0.881464945571064,4,2004
4,2001,-0.676441047288969,-0.676441047288967,4,2004
1,2002,1.6887493442667,1.6887493442667,4,2004
2,2002,1.56659911416621,1.56659911416621,4,2004
3,2002,1.10015265689487,1.10015265689487,4,2004
4,2002,0.166797378309357,0.166797378309358,4,2004
1,2003,0.0439737281563873,0.0439737281563879,4,2004
2,2003,-0.708250639720266,-0.708250639720265,4,2004
3,2003,1.88518054621465,1.88518054621465,4,2004
4,2003,1.4847535663677,1.4847535663677,4,2004
1,2004,2.60165794073493,2.60165794073493,4,2004
2,2004,2.06106278369218,2.06106278369218,4,2004
3,2004,1.98236986224618,2.03739116929098,4,2004
4,2004,2.33538122921326,2.22315342362972,4,2004
1,2005,,2.28520145119777,4,2004
2,2005,,2.05162047471267,4,2004
3,2005,,1.37530005545576,4,2004
4,2005,,1.14985991570346,4,2004
2,1991,1.28054103803985,1.27984862110839,1,2005
3,1991,0.0775189729543138,0.0775189729543158,1,2005
4,1991,3.9121579693201,3.9121579693201,1,2005
1,1992,6.00237740181572,6.00237740181573,1,2005
2,1992,-3.00461526703194,-3.00461526703194,1,2005
3,1992,-0.989428438320394,-0.989428438320394,1,2005
4,1992,-1.01459593468755,-1.01459593468755,1,2005
1,1993,-2.64917631432506,-2.64917631432506,1,2005
2,1993,0.300287609749118,0.300287609749117,1,2005
3,1993,1.71503933942885,1.71503933942885,1,2005
4,1993,1.10581581672331,1.10581581672331,1,2005
1,1994,3.68139344116585,3.68139344116585,1,2005
2,1994,2.5037171664311,2.5037171664311,1,2005
3,1994,2.92977905974812,2.92977905974812,1,2005
4,1994,2.90214451543989,2.90214451543989,1,2005
1,1995,2.54272310330121,2.54272310330121,1,2005
2,1995,2.11872837182963,2.11872837182963,1,2005
3,1995,0.64969828138164,0.649698281381639,1,2005
4,1995,0.997468379061739,0.997468379061739,1,2005
1,1996,0.889792928041456,0.889792928041455,1,2005
2,1996,2.86559132536683,2.86559132536683,1,2005
3,1996,1.98050483448378,1.98050483448378,1,2005
4,1996,0.612051354906341,0.61205135490634,1,2005
1,1997,1.1093854354884,1.1093854354884,1,2005
2,1997,4.97580749866213,4.97580749866213,1,2005
3,1997,2.75263210112249,2.75263210112249,1,2005
4,1997,4.14742416829503,4.14742416829503,1,2005
1,1998,3.11969375256518,3.11969375256518,1,2005
2,1998,1.71279048749078,1.71279048749078,1,2005
3,1998,2.25409890016837,2.25409890016837,1,2005
4,1998,0.961897520148881,0.96189752014888,1,2005
1,1999,3.61357869839736,3.61357869839736,1,2005
2,1999,2.41445692355493,2.41445692355493,1,2005
3,1999,5.09379120863997,5.09379120863998,1,2005
4,1999,4.47413500527272,4.47413500527272,1,2005
1,2000,3.60450107040111,3.60450107040111,1,2005
2,2000,3.64488396197731,3.64488396197731,1,2005
3,2000,1.37666468781024,1.37666468781024,1,2005
4,2000,2.145124619288,2.145124619288,1,2005
1,2001,3.04959479640878,3.04959479640878,1,2005
2,2001,-0.0440630335024155,-0.0440630335024173,1,2005
3,2001,0.768700947320089,0.768700947320089,1,2005
4,2001,-0.609843073732961,-0.609843073732963,1,2005
1,2002,1.81119159601986,1.81119159601986,1,2005
2,2002,1.51393022747301,1.51393022747301,1,2005
3,2002,1.18342359269559,1.18342359269559,1,2005
4,2002,0.041129807327934,0.0411298073279329,1,2005
1,2003,0.13496095451171,0.134960954511709,1,2005
2,2003,-0.696094923422295,-0.696094923422297,1,2005
3,2003,2.13934360587582,2.13934360587582,1,2005
4,2003,1.58893831984304,1.58893831984304,1,2005
1,2004,2.65164831326712,2.65164831326712,1,2005
2,2004,1.88795915541298,1.88795915541298,1,2005
3,2004,1.06557062757231,1.06557062757231,1,2005
4,2004,1.82983261469316,1.76073465274772,1,2005
1,2005,1.92882855148793,1.84829626741672,1,2005
2,2005,1.99405818446929,1.97590172194556,1,2005
3,2005,1.98385022873931,2.09584641378977,1,2005
4,2005,1.62849518140914,1.98861963208958,1,2005
1,2006,,2.2018070280748,1,2005
2,2006,,2.32971946566593,1,2005
3,2006,,2.39367568446149,1,2005
4,2006,,2.41499442406002,1,2005
2,1991,1.33366531189353,1.33367726504432,2,2005
3,1991,-0.0105062022201723,-0.0105062022201723,2,2005
4,1991,3.68862953925557,3.68862953925557,2,2005
1,1992,5.57210378994731,5.5721037899473,2,2005
2,1992,-3.25496649873057,-3.25496649873057,2,2005
3,1992,-1.09844742353213,-1.09844742353213,2,2005
4,1992,-0.974551812593016,-0.974551812593017,2,2005
1,1993,-2.5199208463267,-2.5199208463267,2,2005
2,1993,0.405561262522958,0.405561262522957,2,2005
3,1993,1.76277759548074,1.76277759548074,2,2005
4,1993,1.11653860998289,1.11653860998289,2,2005
1,1994,3.63460260103852,3.63460260103852,2,2005
2,1994,2.51689304194351,2.51689304194351,2,2005
3,1994,2.96323628527713,2.96323628527713,2,2005
4,1994,3.00108688040714,3.00108688040714,2,2005
1,1995,2.68666003513722,2.68666003513722,2,2005
2,1995,2.18899153851,2.18899153851,2,2005
3,1995,0.651329278165779,0.65132927816578,2,2005
4,1995,0.954686264444926,0.954686264444926,2,2005
1,1996,0.779656888334856,0.779656888334857,2,2005
2,1996,2.81703212117148,2.81703212117148,2,2005
3,1996,2.00079742211805,2.00079742211805,2,2005
4,1996,0.671944699333626,0.671944699333627,2,2005
1,1997,1.23219791655247,1.23219791655247,2,2005
2,1997,5.05928030093163,5.05928030093163,2,2005
3,1997,2.75099158953993,2.75099158953993,2,2005
4,1997,4.0788653058075,4.0788653058075,2,2005
1,1998,2.98587554365204,2.98587554365204,2,2005
2,1998,1.59979819163958,1.59979819163958,2,2005
3,1998,2.1604451331398,2.1604451331398,2,2005
4,1998,0.83217157498019,0.83217157498019,2,2005
1,1999,3.46666348822131,3.46666348822131,2,2005
2,1999,2.37565829950501,2.37565829950501,2,2005
3,1999,5.14540581226022,5.14540581226022,2,2005
4,1999,4.6106417679143,4.6106417679143,2,2005
1,2000,3.86674277091756,3.86674277091756,2,2005
2,2000,3.78627388855615,3.78627388855615,2,2005
3,2000,1.44753557012531,1.44753557012531,2,2005
4,2000,2.21212186015762,2.21212186015762,2,2005
1,2001,3.03758424935339,3.03758424935339,2,2005
2,2001,-0.0322130119159274,-0.0322130119159265,2,2005
3,2001,0.783854306386256,0.783854306386256,2,2005
4,2001,-0.613511576617765,-0.613511576617764,2,2005
1,2002,1.88459815755868,1.88459815755868,2,2005
2,2002,1.51818637730896,1.51818637730896,2,2005
3,2002,1.22145178178157,1.22145178178157,2,2005
4,2002,0.0385163064533511,0.0385163064533514,2,2005
1,2003,0.049763375758727,0.0497633757587267,2,2005
2,2003,-0.640239752528582,-0.640239752528582,2,2005
3,2003,2.26144607063164,2.26144607063163,2,2005
4,2003,1.71356265213307,1.71356265213307,2,2005
1,2004,2.95925320794399,2.95925320794399,2,2005
2,2004,1.89901692412835,1.89901692412835,2,2005
3,2004,0.983808670774189,0.983808670774189,2,2005
4,2004,0.619556677607136,0.619556677607136,2,2005
1,2005,1.56119474122839,1.64868288633377,2,2005
2,2005,2.04988693264568,2.09159421748963,2,2005
3,2005,2.40351966750528,2.3175525759198,2,2005
4,2005,2.67524315333747,2.37177164530581,2,2005
1,2006,,1.99098565928074,2,2005
2,2006,,1.7625140676657,2,2005
3,2006,,1.64827827185818,2,2005
4,2006,,1.61019967325568,2,2005
2,1991,0.541507731908439,0.541515186070404,3,2005
3,1991,0.27912463626989,0.27912463626989,3,2005
4,1991,3.85583135018199,3.85583135018199,3,2005
1,1992,4.8664327605936,4.8664327605936,3,2005
2,1992,-2.40252242113969,-2.40252242113969,3,2005
3,1992,-0.606628903219808,-0.606628903219808,3,2005
4,1992,-1.11833291344036,-1.11833291344036,3,2005
1,1993,-3.0108678211238,-3.0108678211238,3,2005
2,1993,0.697203086368048,0.697203086368049,3,2005
3,1993,1.84815559577822,1.84815559577822,3,2005
4,1993,1.18887553142994,1.18887553142994,3,2005
1,1994,3.44656698253387,3.44656698253387,3,2005
2,1994,2.94272226448968,2.94272226448968,3,2005
3,1994,3.21704230292432,3.21704230292432,3,2005
4,1994,3.14708100547239,3.14708100547239,3,2005
1,1995,2.65837908815787,2.65837908815787,3,2005
2,1995,2.71104510309643,2.71104510309643,3,2005
3,1995,1.06438818806187,1.06438818806187,3,2005
4,1995,0.607625003606338,0.607625003606338,3,2005
1,1996,0.624449994319321,0.624449994319321,3,2005
2,1996,3.15347690048162,3.15347690048162,3,2005
3,1996,1.98783463004952,1.98783463004952,3,2005
4,1996,0.829850455559078,0.829850455559078,3,2005
1,1997,1.69100020617468,1.69100020617468,3,2005
2,1997,5.22819830623735,5.22819830623735,3,2005
3,1997,2.83472551689219,2.83472551689219,3,2005
4,1997,4.15151990780855,4.15151990780855,3,2005
1,1998,3.18910686336713,3.18910686336713,3,2005
2,1998,1.46432207368554,1.46432207368554,3,2005
3,1998,2.1134815306413,2.1134815306413,3,2005
4,1998,0.526664321114834,0.526664321114834,3,2005
1,1999,3.59301614324132,3.59301614324132,3,2005
2,1999,2.41154618911648,2.41154618911648,3,2005
3,1999,5.02083712679906,5.02083712679906,3,2005
4,1999,4.86035527581958,4.86035527581958,3,2005
1,2000,4.13019295358603,4.13019295358603,3,2005
2,2000,3.58892495786929,3.58892495786929,3,2005
3,2000,1.77552623809774,1.77552623809774,3,2005
4,2000,2.69507493921932,2.69507493921932,3,2005
1,2001,2.77733462411243,2.77733462411243,3,2005
2,2001,0.35846855850492,0.35846855850492,3,2005
3,2001,0.74316268893555,0.74316268893555,3,2005
4,2001,-0.158317749618542,-0.158317749618542,3,2005
1,2002,1.42566686680083,1.42566686680083,3,2005
2,2002,1.56137800466665,1.56137800466665,3,2005
3,2002,1.64646368462365,1.64646368462364,3,2005
4,2002,0.209191517873774,0.209191517873775,3,2005
1,2003,0.178296437548298,0.178296437548298,3,2005
2,2003,-0.452055062732815,-0.452055062732815,3,2005
3,2003,2.08651895826584,2.08651895826584,3,2005
4,2003,1.89307016591618,1.89307016591618,3,2005
1,2004,2.64074004221071,2.64074004221071,3,2005
2,2004,1.65907440163384,1.65907440163384,3,2005
3,2004,1.12874963733787,1.12874963733787,3,2005
4,2004,0.602261658850067,0.602261658850067,3,2005
1,2005,2.00869283449305,2.00869283449305,3,2005
2,2005,1.32273106967191,1.29943151988874,3,2005
3,2005,1.44304800530877,1.43327891620342,3,2005
4,2005,1.79347167893784,1.88303876354413,3,2005
1,2006,,2.17372938754527,3,2005
2,2006,,1.91911387696243,3,2005
3,2006,,1.79180612167101,3,2005
4,2006,,1.74937020324054,3,2005
2,1991,0.509871400389032,0.509794302301484,4,2005
3,1991,0.398855550964084,0.398855550964083,4,2005
4,1991,4.25431127440576,4.25431127440576,4,2005
1,1992,5.46195820346251,5.46195820346251,4,2005
2,1992,-2.20728313459675,-2.20728313459675,4,2005
3,1992,-0.80269483519837,-0.80269483519837,4,2005
4,1992,-1.60708295050731,-1.60708295050731,4,2005
1,1993,-3.94847254439385,-3.94847254439386,4,2005
2,1993,0.23172714216546,0.231727142165461,4,2005
3,1993,1.7266100342876,1.7266100342876,4,2005
4,1993,1.54519049994866,1.54519049994866,4,2005
1,1994,4.23566811832123,4.23566811832123,4,2005
2,1994,3.34447873720758,3.34447873720758,4,2005
3,1994,3.48063540711912,3.48063540711912,4,2005
4,1994,3.25408150521374,3.25408150521374,4,2005
1,1995,2.61681509685756,2.61681509685756,4,2005
2,1995,2.69969406450097,2.69969406450097,4,2005
3,1995,1.06087956241394,1.06087956241394,4,2005
4,1995,0.602088097358533,0.602088097358533,4,2005
1,1996,0.541244235806726,0.541244235806726,4,2005
2,1996,3.2432653935083,3.2432653935083,4,2005
3,1996,1.95818060721968,1.95818060721968,4,2005
4,1996,0.841532904653697,0.841532904653697,4,2005
1,1997,1.67277807728781,1.67277807728781,4,2005
2,1997,5.23829869186094,5.23829869186094,4,2005
3,1997,2.80139060850269,2.80139060850269,4,2005
4,1997,4.18000970635974,4.18000970635974,4,2005
1,1998,3.11813705480351,3.11813705480351,4,2005
2,1998,1.50320573232057,1.50320573232057,4,2005
3,1998,2.13066321054067,2.13066321054067,4,2005
4,1998,0.547549995024022,0.547549995024022,4,2005
1,1999,3.36226417307472,3.36226417307473,4,2005
2,1999,2.56210725093757,2.56210725093757,4,2005
3,1999,5.19272186096027,5.19272186096027,4,2005
4,1999,4.89657043362257,4.89657043362257,4,2005
1,2000,4.01519178177199,4.01519178177199,4,2005
2,2000,3.67388521278502,3.67388521278502,4,2005
3,2000,1.6860133267288,1.6860133267288,4,2005
4,2000,2.48143661005358,2.48143661005358,4,2005
1,2001,2.73624248917166,2.73624248917166,4,2005
2,2001,0.349956294125687,0.349956294125686,4,2005
3,2001,0.700334656509338,0.700334656509338,4,2005
4,2001,-0.0216357115121798,-0.0216357115121801,4,2005
1,2002,1.02606609003115,1.02606609003115,4,2005
2,2002,1.61253385593603,1.61253385593603,4,2005
3,2002,1.57360220021714,1.57360220021714,4,2005
4,2002,0.352855517100226,0.352855517100226,4,2005
1,2003,0.0624920165577914,0.0624920165577914,4,2005
2,2003,-0.461633513534109,-0.46163351353411,4,2005
3,2003,2.32515305484051,2.32515305484051,4,2005
4,2003,1.86622075910565,1.86622075910565,4,2005
1,2004,2.57203281309089,2.57203281309089,4,2005
2,2004,1.83000898050296,1.83000898050296,4,2005
3,2004,1.04510855922899,1.04510855922899,4,2005
4,2004,0.720573288795445,0.720573288795445,4,2005
1,2005,1.50460027059351,1.50460027059351,4,2005
2,2005,1.17100512102082,1.17100512102082,4,2005
3,2005,1.59956204395027,1.63965845847399,4,2005
4,2005,1.99157559000078,1.90944035808171,4,2005
1,2006,,1.97095361424168,4,2005
2,2006,,1.87022105697309,4,2005
3,2006,,1.36547383405131,4,2005
4,2006,,1.19722475974404,4,2005
2,1991,0.472896604832039,0.473259886975739,1,2006
3,1991,0.248231853097013,0.248231853097014,1,2006
4,1991,3.8897978104617,3.8897978104617,1,2006
1,1992,4.90857609945596,4.90857609945596,1,2006
2,1992,-2.32958000905685,-2.32958000905685,1,2006
3,1992,-0.669839967683961,-0.669839967683962,1,2006
4,1992,-1.12894134611107,-1.12894134611107,1,2006
1,1993,-3.0057641213536,-3.00576412135361,1,2006
2,1993,0.674577159691947,0.674577159691947,1,2006
3,1993,1.74997477897223,1.74997477897223,1,2006
4,1993,1.22017253227869,1.22017253227869,1,2006
1,1994,3.43288683394709,3.43288683394709,1,2006
2,1994,2.88271984399262,2.88271984399262,1,2006
3,1994,3.25830290892175,3.25830290892175,1,2006
4,1994,3.23611547498819,3.23611547498819,1,2006
1,1995,2.74021940548166,2.74021940548166,1,2006
2,1995,2.72827593688654,2.72827593688654,1,2006
3,1995,1.29134419922841,1.29134419922841,1,2006
4,1995,0.474010013035198,0.474010013035198,1,2006
1,1996,0.720684842838005,0.720684842838004,1,2006
2,1996,3.21056328382627,3.21056328382627,1,2006
3,1996,2.04403616442896,2.04403616442896,1,2006
4,1996,0.762270403319021,0.762270403319021,1,2006
1,1997,1.77479488257273,1.77479488257273,1,2006
2,1997,5.19836558931284,5.19836558931284,1,2006
3,1997,2.90532866404401,2.90532866404401,1,2006
4,1997,4.31941408543739,4.31941408543739,1,2006
1,1998,2.77787952869073,2.77787952869073,1,2006
2,1998,1.73970427486156,1.73970427486156,1,2006
3,1998,2.32094803586962,2.32094803586962,1,2006
4,1998,0.599562461620318,0.599562461620318,1,2006
1,1999,3.47419845702752,3.47419845702752,1,2006
2,1999,2.62034180607147,2.62034180607147,1,2006
3,1999,5.2100938999716,5.2100938999716,1,2006
4,1999,4.92075993953272,4.92075993953272,1,2006
1,2000,4.41172684270519,4.41172684270519,1,2006
2,2000,3.41967799247924,3.41967799247924,1,2006
3,2000,1.85277834364226,1.85277834364226,1,2006
4,2000,2.67526577389057,2.67526577389057,1,2006
1,2001,2.97132269988358,2.97132269988358,1,2006
2,2001,0.589131742452564,0.589131742452564,1,2006
3,2001,0.833290284978827,0.833290284978827,1,2006
4,2001,0.0685328060066492,0.0685328060066492,1,2006
1,2002,1.19660929811711,1.19660929811711,1,2006
2,2002,1.57878843060455,1.57878843060455,1,2006
3,2002,1.5288107620854,1.5288107620854,1,2006
4,2002,0.377841453040961,0.377841453040961,1,2006
1,2003,0.272160153823786,0.272160153823786,1,2006
2,2003,-0.44425169767619,-0.44425169767619,1,2006
3,2003,2.26445364766514,2.26445364766514,1,2006
4,2003,1.78317000912611,1.78317000912611,1,2006
1,2004,2.83690645871355,2.83690645871355,1,2006
2,2004,1.75684111186687,1.75684111186687,1,2006
3,2004,1.14550270644633,1.14550270644633,1,2006
4,2004,0.764393995438017,0.764393995438017,1,2006
1,2005,1.30163345547498,1.30163345547498,1,2006
2,2005,1.60047991701739,1.60047991701739,1,2006
3,2005,2.55445183200291,2.55445183200291,1,2006
4,2005,2.21807310856792,2.17653645444931,1,2006
1,2006,1.93202721287331,1.88284842934338,1,2006
2,2006,1.90326074999206,1.89228015393022,1,2006
3,2006,1.82649252563811,1.89636980610603,1,2006
4,2006,1.54793553543565,1.76261109700534,1,2006
1,2007,,1.8859623202331,1,2006
2,2007,,1.95997305416976,1,2006
3,2007,,1.99697842113809,1,2006
4,2007,,2.00931354346087,1,2006
2,1991,0.473231668492967,0.472890249716584,2,2006
3,1991,0.248231811573029,0.248231811573029,2,2006
4,1991,3.88979780990226,3.88979780990226,2,2006
1,1992,4.90857615405116,4.90857615405116,2,2006
2,1992,-2.32958017936955,-2.32958017936955,2,2006
3,1992,-0.669840045178849,-0.669840045178849,2,2006
4,1992,-1.12894110765577,-1.12894110765577,2,2006
1,1993,-3.00576427160451,-3.00576427160451,2,2006
2,1993,0.674577220646389,0.674577220646389,2,2006
3,1993,1.74997466806595,1.74997466806595,2,2006
4,1993,1.22017263584044,1.22017263584044,2,2006
1,1994,3.43288681137732,3.43288681137732,2,2006
2,1994,2.88271991056697,2.88271991056697,2,2006
3,1994,3.25830285939128,3.25830285939128,2,2006
4,1994,3.23611532461698,3.23611532461698,2,2006
1,1995,2.74021954479917,2.74021954479917,2,2006
2,1995,2.82546638861312,2.82546638861312,2,2006
3,1995,1.30203357788836,1.30203357788836,2,2006
4,1995,0.448088568142668,0.448088568142669,2,2006
1,1996,0.415525853299714,0.415525853299713,2,2006
2,1996,3.2978973405744,3.2978973405744,2,2006
3,1996,2.04310736797069,2.04310736797069,2,2006
4,1996,0.740631123298785,0.740631123298784,2,2006
1,1997,1.69638900003604,1.69638900003604,2,2006
2,1997,5.17899128047596,5.17899128047596,2,2006
3,1997,2.87333415844493,2.87333415844493,2,2006
4,1997,4.3113623147826,4.3113623147826,2,2006
1,1998,2.5677622100049,2.5677622100049,2,2006
2,1998,1.69372517280042,1.69372517280042,2,2006
3,1998,2.30673807837283,2.30673807837283,2,2006
4,1998,0.608600355080568,0.60860035508057,2,2006
1,1999,3.60017873593923,3.60017873593923,2,2006
2,1999,2.65482423808281,2.65482423808281,2,2006
3,1999,5.23492743215537,5.23492743215537,2,2006
4,1999,5.00627105424634,5.00627105424634,2,2006
1,2000,4.68136843059785,4.68136843059785,2,2006
2,2000,3.49443356073327,3.49443356073327,2,2006
3,2000,1.82930987060956,1.82930987060956,2,2006
4,2000,2.66222890355059,2.66222890355059,2,2006
1,2001,3.00910987938356,3.00910987938356,2,2006
2,2001,0.5475743595865,0.5475743595865,2,2006
3,2001,0.833478378428798,0.833478378428798,2,2006
4,2001,0.10630900090689,0.106309000906891,2,2006
1,2002,1.09161791589367,1.09161791589367,2,2006
2,2002,1.59566699524036,1.59566699524036,2,2006
3,2002,1.57641132512389,1.57641132512389,2,2006
4,2002,0.429682949080101,0.429682949080101,2,2006
1,2003,0.0895445989032461,0.0895445989032461,2,2006
2,2003,-0.457932388366389,-0.457932388366387,2,2006
3,2003,2.26105927179172,2.26105927179172,2,2006
4,2003,1.82860288684448,1.82860288684448,2,2006
1,2004,2.66332670672578,2.66332670672578,2,2006
2,2004,1.74908620222747,1.74908620222747,2,2006
3,2004,1.15609390251392,1.15609390251392,2,2006
4,2004,0.772822581133936,0.772822581133937,2,2006
1,2005,1.12035287432291,1.12035287432291,2,2006
2,2005,1.78140455390794,1.78140455390794,2,2006
3,2005,2.69818020318648,2.69818020318648,2,2006
4,2005,1.03109391910412,1.03109391910412,2,2006
1,2006,1.99358856033432,2.11595896228405,2,2006
2,2006,2.45578118131198,2.51325776801247,2,2006
3,2006,2.63044756378476,2.5083804214797,2,2006
4,2006,2.72705824976493,2.30870503611318,2,2006
1,2007,,1.81947437728266,2,2006
2,2007,,1.52593598198436,2,2006
3,2007,,1.3791667843352,2,2006
4,2007,,1.33024371845215,2,2006
2,1991,0.472901918370728,0.472908156620391,3,2006
3,1991,0.248231965975521,0.248231965975519,3,2006
4,1991,3.88979773008391,3.88979773008391,3,2006
1,1992,4.90857610566926,4.90857610566926,3,2006
2,1992,-2.32958011265123,-2.32958011265123,3,2006
3,1992,-0.669839863343391,-0.669839863343391,3,2006
4,1992,-1.12894125987366,-1.12894125987366,3,2006
1,1993,-3.00576410121189,-3.00576410121189,3,2006
2,1993,0.674576941385307,0.674576941385307,3,2006
3,1993,1.74997499401071,1.74997499401071,3,2006
4,1993,1.2201724941117,1.2201724941117,3,2006
1,1994,3.43288680907552,3.43288680907552,3,2006
2,1994,2.88271970996792,2.88271970996792,3,2006
3,1994,3.25830301027974,3.25830301027974,3,2006
4,1994,3.23611551683578,3.23611551683578,3,2006
1,1995,2.74021932293944,2.74021932293944,3,2006
2,1995,2.70671436607426,2.70671436607426,3,2006
3,1995,1.4000773148058,1.4000773148058,3,2006
4,1995,0.750503955407633,0.750503955407633,3,2006
1,1996,0.220048187848665,0.220048187848665,3,2006
2,1996,3.28896403747385,3.28896403747385,3,2006
3,1996,1.94778192069567,1.94778192069567,3,2006
4,1996,0.723150453385801,0.723150453385802,3,2006
1,1997,2.36222628581906,2.36222628581906,3,2006
2,1997,4.33226284285322,4.33226284285322,3,2006
3,1997,2.88856092156318,2.88856092156318,3,2006
4,1997,4.02844257812505,4.02844257812505,3,2006
1,1998,2.81637694379893,2.81637694379893,3,2006
2,1998,1.566801846333,1.566801846333,3,2006
3,1998,2.3274624758262,2.3274624758262,3,2006
4,1998,0.69133027544408,0.69133027544408,3,2006
1,1999,3.65327859447917,3.65327859447917,3,2006
2,1999,2.66737521047629,2.66737521047629,3,2006
3,1999,5.23166824025361,5.23166824025361,3,2006
4,1999,4.88811111706007,4.88811111706007,3,2006
1,2000,4.79815883544805,4.79815883544805,3,2006
2,2000,3.74591456687419,3.74591456687419,3,2006
3,2000,1.81931027169466,1.81931027169466,3,2006
4,2000,2.87566939077837,2.87566939077837,3,2006
1,2001,3.3193900089572,3.3193900089572,3,2006
2,2001,0.39573000896036,0.39573000896036,3,2006
3,2001,0.389486214507162,0.389486214507162,3,2006
4,2001,0.163880620169321,0.163880620169321,3,2006
1,2002,1.35191483539951,1.35191483539951,3,2006
2,2002,1.63759106591503,1.63759106591503,3,2006
3,2002,1.57334101710527,1.57334101710527,3,2006
4,2002,0.173351640997854,0.173351640997854,3,2006
1,2003,0.577269440795059,0.577269440795059,3,2006
2,2003,-0.274326260847324,-0.274326260847324,3,2006
3,2003,2.04817005150921,2.04817005150921,3,2006
4,2003,1.7947534804732,1.7947534804732,3,2006
1,2004,3.12009718920208,3.12009718920208,3,2006
2,2004,1.66307163471104,1.66307163471104,3,2006
3,2004,1.00703682804604,1.00703682804604,3,2006
4,2004,0.541635302135957,0.541635302135957,3,2006
1,2005,1.42747897290487,1.42747897290487,3,2006
2,2005,1.62728145759283,1.62728145759283,3,2006
3,2005,2.64159974737459,2.64159974737459,3,2006
4,2005,1.15674651996744,1.15674651996744,3,2006
1,2006,2.37170284882551,2.37170284882551,3,2006
2,2006,2.50768176724297,2.63077623305122,3,2006
3,2006,2.57699865547928,2.54816186096588,3,2006
4,2006,2.65667784399493,2.34374360798151,3,2006
1,2007,,1.98762624523833,3,2006
2,2007,,1.4353954479581,3,2006
3,2007,,1.15928004931798,3,2006
4,2007,,1.06724158310461,3,2006
2,1991,0.472903443133993,0.472910434358947,4,2006
3,1991,0.248231846014858,0.248231846014857,4,2006
4,1991,3.88979762044048,3.88979762044048,4,2006
1,1992,4.90857619934453,4.90857619934453,4,2006
2,1992,-2.32957985273523,-2.32957985273523,4,2006
3,1992,-0.669840105544817,-0.669840105544817,4,2006
4,1992,-1.12894128362626,-1.12894128362626,4,2006
1,1993,-3.00576404577939,-3.00576404577939,4,2006
2,1993,0.674577079837513,0.674577079837512,4,2006
3,1993,1.74997467802505,1.74997467802505,4,2006
4,1993,1.22017262574594,1.22017262574594,4,2006
1,1994,3.43288691135528,3.43288691135528,4,2006
2,1994,2.88271981224049,2.88271981224049,4,2006
3,1994,3.25830276109009,3.25830276109009,4,2006
4,1994,3.23611554889383,3.23611554889383,4,2006
1,1995,2.74021938950697,2.74021938950697,4,2006
2,1995,2.47448189389967,2.47448189389967,4,2006
3,1995,1.41442389578992,1.41442389578992,4,2006
4,1995,0.911398598392043,0.911398598392044,4,2006
1,1996,0.0146345544615344,0.0146345544615347,4,2006
2,1996,3.32825028433255,3.32825028433255,4,2006
3,1996,1.98938127834156,1.98938127834156,4,2006
4,1996,0.837620276179307,0.837620276179308,4,2006
1,1997,2.05194943956784,2.05194943956784,4,2006
2,1997,4.61912322248437,4.61912322248437,4,2006
3,1997,2.88533849734998,2.88533849734998,4,2006
4,1997,4.00738911129455,4.00738911129455,4,2006
1,1998,2.85770109946315,2.85770109946315,4,2006
2,1998,1.58678238157459,1.58678238157459,4,2006
3,1998,2.35169632189216,2.35169632189216,4,2006
4,1998,0.767894743584141,0.767894743584142,4,2006
1,1999,3.60706148741912,3.60706148741912,4,2006
2,1999,2.68907803764247,2.68907803764247,4,2006
3,1999,5.19347270931378,5.19347270931378,4,2006
4,1999,5.05142683347681,5.05142683347681,4,2006
1,2000,4.66689082905452,4.66689082905452,4,2006
2,2000,3.72347070642254,3.72347070642254,4,2006
3,2000,1.86504355782295,1.86504355782295,4,2006
4,2000,2.90249678544035,2.90249678544035,4,2006
1,2001,3.17230271645717,3.17230271645717,4,2006
2,2001,0.373445522989702,0.373445522989701,4,2006
3,2001,0.252360142372465,0.252360142372465,4,2006
4,2001,0.353022254021251,0.353022254021252,4,2006
1,2002,0.944232642064824,0.944232642064824,4,2006
2,2002,1.68667845535002,1.68667845535002,4,2006
3,2002,1.53926976580039,1.53926976580039,4,2006
4,2002,0.1701638594646,0.170163859464601,4,2006
1,2003,0.644441077102753,0.644441077102753,4,2006
2,2003,-0.430509200402518,-0.43050920040252,4,2006
3,2003,2.13108018726493,2.13108018726493,4,2006
4,2003,1.80971340115657,1.80971340115657,4,2006
1,2004,2.8294375886615,2.8294375886615,4,2006
2,2004,1.33412616648012,1.33412616648012,4,2006
3,2004,0.928300044889929,0.928300044889929,4,2006
4,2004,0.869195724044891,0.869195724044892,4,2006
1,2005,1.70617629536518,1.70617629536518,4,2006
2,2005,1.61523593840691,1.61523593840691,4,2006
3,2005,2.41667224098765,2.41667224098765,4,2006
4,2005,1.40407505100051,1.40407505100051,4,2006
1,2006,3.16911818872441,3.16911818872441,4,2006
2,2006,3.57638019632733,3.57638019632733,4,2006
3,2006,2.56937290564561,2.65858978965329,4,2006
4,2006,2.39977086950795,2.21809764236265,4,2006
1,2007,,1.94368568330081,4,2006
2,2007,,1.7148282462227,4,2006
3,2007,,1.23179377599554,4,2006
4,2007,,1.07078228591982,4,2006
2,1991,0.472911788962727,0.472917301805189,1,2007
3,1991,0.248231852123373,0.248231852123371,1,2007
4,1991,3.88979781129497,3.88979781129497,1,2007
1,1992,4.90857609689051,4.90857609689051,1,2007
2,1992,-2.32958000761242,-2.32958000761242,1,2007
3,1992,-0.669839967312358,-0.669839967312357,1,2007
4,1992,-1.12894134749469,-1.12894134749469,1,2007
1,1993,-3.00576411942616,-3.00576411942616,1,2007
2,1993,0.674577159683287,0.674577159683289,1,2007
3,1993,1.74997477807253,1.74997477807253,1,2007
4,1993,1.22017253173419,1.22017253173419,1,2007
1,1994,3.43288683323846,3.43288683323846,1,2007
2,1994,2.88271984385344,2.88271984385344,1,2007
3,1994,3.25830290937446,3.25830290937446,1,2007
4,1994,3.23611547503075,3.23611547503075,1,2007
1,1995,2.74021940614984,2.74021940614984,1,2007
2,1995,2.64665898573711,2.64665898573711,1,2007
3,1995,1.39070913165744,1.39070913165744,1,2007
4,1995,0.972549035453141,0.972549035453141,1,2007
1,1996,0.069635384844835,0.069635384844835,1,2007
2,1996,3.22601670109541,3.22601670109541,1,2007
3,1996,1.95800427104027,1.95800427104027,1,2007
4,1996,0.889066588558384,0.889066588558385,1,2007
1,1997,2.02747016907801,2.02747016907801,1,2007
2,1997,4.57289104202741,4.57289104202741,1,2007
3,1997,2.90281210296786,2.90281210296785,1,2007
4,1997,4.04768093656987,4.04768093656986,1,2007
1,1998,2.62963894296557,2.62963894296557,1,2007
2,1998,1.62980100768106,1.62980100768106,1,2007
3,1998,2.43171251828327,2.43171251828327,1,2007
4,1998,0.8893854554729,0.889385455472902,1,2007
1,1999,3.53582609503,3.53582609503,1,2007
2,1999,2.69360827665908,2.69360827665908,1,2007
3,1999,5.04254370283213,5.04254370283213,1,2007
4,1999,5.00594700611203,5.00594700611203,1,2007
1,2000,4.80227458528038,4.80227458528038,1,2007
2,2000,3.63908980748176,3.63908980748175,1,2007
3,2000,1.88989150108014,1.88989150108014,1,2007
4,2000,2.85940568749477,2.85940568749477,1,2007
1,2001,3.11527691046145,3.11527691046145,1,2007
2,2001,0.479223032448849,0.47922303244885,1,2007
3,2001,0.212597261541014,0.212597261541015,1,2007
4,2001,0.404775949865232,0.404775949865233,1,2007
1,2002,0.843002485782396,0.843002485782396,1,2007
2,2002,1.67954966426196,1.67954966426196,1,2007
3,2002,1.64845043867397,1.64845043867397,1,2007
4,2002,0.158603623601405,0.158603623601405,1,2007
1,2003,0.498191569720552,0.498191569720552,1,2007
2,2003,-0.399400439002908,-0.399400439002906,1,2007
3,2003,2.19917377396635,2.19917377396635,1,2007
4,2003,1.87515169041434,1.87515169041435,1,2007
1,2004,2.88781640392806,2.88781640392806,1,2007
2,2004,1.30748772875895,1.30748772875895,1,2007
3,2004,0.946133524458315,0.946133524458315,1,2007
4,2004,0.870407225816927,0.870407225816927,1,2007
1,2005,1.59916986146202,1.59916986146202,1,2007
2,2005,1.44614665455132,1.44614665455132,1,2007
3,2005,2.60513565656542,2.60513565656542,1,2007
4,2005,1.51500774791715,1.51500774791715,1,2007
1,2006,3.33074624641807,3.33074624641807,1,2007
2,2006,4.02085637233309,4.02085637233309,1,2007
3,2006,2.12341374502176,2.12341374502176,1,2007
4,2006,2.02918711865879,1.99140539460131,1,2007
1,2007,1.90256212797363,1.85809494430974,1,2007
2,2007,1.94672483451732,1.93724515384602,1,2007
3,2007,1.99899838371676,2.06188747715123,1,2007
4,2007,1.79815049027988,1.99218912821404,1,2007
1,2008,,2.10454653578769,1,2007
2,2008,,2.17196098033188,1,2007
3,2008,,2.20566820260398,1,2007
4,2008,,2.21690394336134,1,2007
2,1991,0.472910122021339,0.47291510636133,2,2007
3,1991,0.248231853796343,0.248231853796344,2,2007
4,1991,3.88979781079914,3.88979781079915,2,2007
1,1992,4.90857609692299,4.90857609692299,2,2007
2,1992,-2.32958000732851,-2.32958000732852,2,2007
3,1992,-0.669839968852492,-0.669839968852492,2,2007
4,1992,-1.12894134416554,-1.12894134416554,2,2007
1,1993,-3.00576412195293,-3.00576412195293,2,2007
2,1993,0.674577157633104,0.674577157633105,2,2007
3,1993,1.7499747799856,1.7499747799856,2,2007
4,1993,1.22017253115438,1.22017253115438,2,2007
1,1994,3.43288683480183,3.43288683480183,2,2007
2,1994,2.88271984513331,2.88271984513331,2,2007
3,1994,3.25830290835503,3.25830290835503,2,2007
4,1994,3.23611547553799,3.23611547553799,2,2007
1,1995,2.74021940497011,2.74021940497011,2,2007
2,1995,2.65817924241381,2.65817924241381,2,2007
3,1995,1.37658257168221,1.37658257168221,2,2007
4,1995,1.01705811647173,1.01705811647173,2,2007
1,1996,0.0668651129480002,0.0668651129479994,2,2007
2,1996,3.20207054394723,3.20207054394723,2,2007
3,1996,1.92806415348232,1.92806415348232,2,2007
4,1996,0.90983371753135,0.909833717531349,2,2007
1,1997,2.01460256399377,2.01460256399377,2,2007
2,1997,4.58681724305578,4.58681724305578,2,2007
3,1997,2.93094231491193,2.93094231491193,2,2007
4,1997,4.0186762423861,4.0186762423861,2,2007
1,1998,2.6024781101901,2.6024781101901,2,2007
2,1998,1.65623193403344,1.65623193403344,2,2007
3,1998,2.45546956114988,2.45546956114988,2,2007
4,1998,0.88285448392016,0.882854483920161,2,2007
1,1999,3.52752361829449,3.52752361829449,2,2007
2,1999,2.71253375291842,2.71253375291842,2,2007
3,1999,5.03789565121191,5.03789565121191,2,2007
4,1999,4.94357178670632,4.94357178670632,2,2007
1,2000,4.86155476050205,4.86155476050205,2,2007
2,2000,3.62762687981306,3.62762687981306,2,2007
3,2000,1.87737823705236,1.87737823705236,2,2007
4,2000,2.86393629518618,2.86393629518618,2,2007
1,2001,3.11479393697189,3.11479393697189,2,2007
2,2001,0.463136285857569,0.463136285857568,2,2007
3,2001,0.243200685340494,0.243200685340494,2,2007
4,2001,0.415095441030067,0.415095441030067,2,2007
1,2002,0.818863025171845,0.818863025171845,2,2007
2,2002,1.69612956664436,1.69612956664436,2,2007
3,2002,1.60029520800022,1.60029520800022,2,2007
4,2002,0.214040329124954,0.214040329124953,2,2007
1,2003,0.50371434376626,0.50371434376626,2,2007
2,2003,-0.384324756196974,-0.384324756196973,2,2007
3,2003,2.19991590537147,2.19991590537148,2,2007
4,2003,1.85022460098572,1.85022460098572,2,2007
1,2004,3.02260409074351,3.02260409074351,2,2007
2,2004,1.29600753583983,1.29600753583983,2,2007
3,2004,0.96828444142778,0.96828444142778,2,2007
4,2004,0.867887194329642,0.867887194329642,2,2007
1,2005,1.6619489075137,1.6619489075137,2,2007
2,2005,1.50233199020293,1.50233199020293,2,2007
3,2005,2.60734438801291,2.60734438801291,2,2007
4,2005,1.43502323785119,1.43502323785118,2,2007
1,2006,3.37121057718661,3.37121057718661,2,2007
2,2006,4.00173074695978,4.00173074695977,2,2007
3,2006,2.35369364645217,2.35369364645217,2,2007
4,2006,3.59215224383174,3.59215224383174,2,2007
1,2007,2.21765875426165,2.18320697543274,2,2007
2,2007,1.87064127079462,1.8542760147004,2,2007
3,2007,1.96547488748556,1.99976501763999,2,2007
4,2007,2.10420071819631,2.22273665991357,2,2007
1,2008,,2.3631811313688,2,2007
2,2008,,2.44744781424194,2,2007
3,2008,,2.48958115567851,2,2007
4,2008,,2.50362560282404,2,2007
2,1991,0.47291820653076,0.472925382854557,3,2007
3,1991,0.248231853796345,0.248231853796344,3,2007
4,1991,3.88979781079915,3.88979781079915,3,2007
1,1992,4.90857609692299,4.90857609692299,3,2007
2,1992,-2.32958000732851,-2.32958000732851,3,2007
3,1992,-0.669839968852493,-0.669839968852493,3,2007
4,1992,-1.12894134416554,-1.12894134416554,3,2007
1,1993,-3.00576412195292,-3.00576412195293,3,2007
2,1993,0.674577157633105,0.674577157633105,3,2007
3,1993,1.7499747799856,1.7499747799856,3,2007
4,1993,1.22017253115439,1.22017253115438,3,2007
1,1994,3.43288683480183,3.43288683480183,3,2007
2,1994,2.88271984513331,2.88271984513331,3,2007
3,1994,3.25830290835503,3.25830290835503,3,2007
4,1994,3.23611547553799,3.23611547553799,3,2007
1,1995,2.74021940497011,2.74021940497011,3,2007
2,1995,2.58612498222712,2.58612498222712,3,2007
3,1995,1.5158091695276,1.5158091695276,3,2007
4,1995,1.18126558053309,1.18126558053309,3,2007
1,1996,-0.105902690138359,-0.10590269013836,3,2007
2,1996,3.14555882584004,3.14555882584004,3,2007
3,1996,2.08989306567215,2.08989306567215,3,2007
4,1996,0.870608346352398,0.870608346352397,3,2007
1,1997,1.89533945025755,1.89533945025755,3,2007
2,1997,4.80992912924971,4.80992912924971,3,2007
3,1997,2.83328424015106,2.83328424015106,3,2007
4,1997,4.03828447234773,4.03828447234773,3,2007
1,1998,2.52682202747492,2.52682202747492,3,2007
2,1998,1.75102962155653,1.75102962155653,3,2007
3,1998,2.44126939416645,2.44126939416645,3,2007
4,1998,0.93884966516602,0.938849665166019,3,2007
1,1999,3.52098193623835,3.52098193623835,3,2007
2,1999,2.80449772354203,2.80449772354203,3,2007
3,1999,4.99773784120898,4.99773784120898,3,2007
4,1999,4.93688419420377,4.93688419420377,3,2007
1,2000,4.78355100577501,4.78355100577501,3,2007
2,2000,3.67696661320973,3.67696661320973,3,2007
3,2000,1.82707056133518,1.82707056133518,3,2007
4,2000,2.75762404032025,2.75762404032025,3,2007
1,2001,3.17446120136513,3.17446120136513,3,2007
2,2001,0.38608075533766,0.386080755337659,3,2007
3,2001,0.365774094225025,0.365774094225024,3,2007
4,2001,0.539462754282072,0.539462754282072,3,2007
1,2002,0.770882662823924,0.770882662823924,3,2007
2,2002,1.65402253775999,1.65402253775999,3,2007
3,2002,1.5609418745903,1.5609418745903,3,2007
4,2002,0.168137332053542,0.168137332053542,3,2007
1,2003,0.584647485848255,0.584647485848255,3,2007
2,2003,-0.357393965468588,-0.357393965468589,3,2007
3,2003,2.09628787554732,2.09628787554732,3,2007
4,2003,1.99218797406,1.99218797406,3,2007
1,2004,2.99264262856809,2.99264262856809,3,2007
2,2004,1.31570902247296,1.31570902247296,3,2007
3,2004,1.16045867626071,1.16045867626071,3,2007
4,2004,0.992225395017977,0.992225395017976,3,2007
1,2005,1.8090405852162,1.8090405852162,3,2007
2,2005,1.736531395792,1.736531395792,3,2007
3,2005,2.5491200696248,2.5491200696248,3,2007
4,2005,1.58801031953841,1.58801031953841,3,2007
1,2006,3.58281910129272,3.58281910129272,3,2007
2,2006,3.79394589710509,3.79394589710509,3,2007
3,2006,2.4029770505611,2.4029770505611,3,2007
4,2006,3.50756736019355,3.50756736019355,3,2007
1,2007,2.43408060520518,2.43408060520518,3,2007
2,2007,2.33321256318874,2.36207985745947,3,2007
3,2007,2.42505738602075,2.4166832938756,3,2007
4,2007,2.49298926851728,2.42280603619355,3,2007
1,2008,,2.36022321163172,3,2007
2,2008,,2.1951138040652,3,2007
3,2008,,2.11255910028195,3,2007
4,2008,,2.08504086568753,3,2007
2,1991,0.472918587739186,0.472925741175685,4,2007
3,1991,0.248231853796344,0.248231853796344,4,2007
4,1991,3.88979781079914,3.88979781079914,4,2007
1,1992,4.90857609692299,4.90857609692299,4,2007
2,1992,-2.32958000732852,-2.32958000732851,4,2007
3,1992,-0.669839968852493,-0.669839968852493,4,2007
4,1992,-1.12894134416553,-1.12894134416553,4,2007
1,1993,-3.00576412195293,-3.00576412195292,4,2007
2,1993,0.674577157633105,0.674577157633105,4,2007
3,1993,1.7499747799856,1.7499747799856,4,2007
4,1993,1.22017253115438,1.22017253115438,4,2007
1,1994,3.43288683480183,3.43288683480183,4,2007
2,1994,2.88271984513331,2.88271984513331,4,2007
3,1994,3.25830290835503,3.25830290835503,4,2007
4,1994,3.23611547553799,3.23611547553799,4,2007
1,1995,2.74021940497011,2.74021940497011,4,2007
2,1995,2.51072345915697,2.51072345915697,4,2007
3,1995,1.49554537485648,1.49554537485648,4,2007
4,1995,1.02911986354242,1.02911986354242,4,2007
1,1996,0.0791875919796462,0.0791875919796465,4,2007
2,1996,2.97829453355947,2.97829453355947,4,2007
3,1996,2.16353278613202,2.16353278613202,4,2007
4,1996,0.999677163577851,0.99967716357785,4,2007
1,1997,1.70590429606901,1.70590429606901,4,2007
2,1997,4.9906883181607,4.9906883181607,4,2007
3,1997,2.7420244454756,2.7420244454756,4,2007
4,1997,4.05915681156439,4.05915681156439,4,2007
1,1998,2.5363294482015,2.5363294482015,4,2007
2,1998,1.79962050987918,1.79962050987919,4,2007
3,1998,2.22633367767606,2.22633367767606,4,2007
4,1998,1.08431148007044,1.08431148007044,4,2007
1,1999,3.65488908082363,3.65488908082363,4,2007
2,1999,2.69320158769346,2.69320158769346,4,2007
3,1999,4.95045663639753,4.95045663639753,4,2007
4,1999,4.85405077594951,4.85405077594951,4,2007
1,2000,4.65615498371892,4.65615498371892,4,2007
2,2000,3.90852222734808,3.90852222734808,4,2007
3,2000,1.9181914810277,1.9181914810277,4,2007
4,2000,2.74322822733144,2.74322822733144,4,2007
1,2001,3.17587539888267,3.17587539888267,4,2007
2,2001,0.344488006710496,0.344488006710498,4,2007
3,2001,0.321868793246938,0.321868793246938,4,2007
4,2001,0.432794937941461,0.432794937941461,4,2007
1,2002,0.866242028593156,0.866242028593156,4,2007
2,2002,1.82399430538034,1.82399430538034,4,2007
3,2002,1.44811705020205,1.44811705020205,4,2007
4,2002,-0.0374002674032639,-0.0374002674032645,4,2007
1,2003,0.550855748519274,0.550855748519274,4,2007
2,2003,-0.183213484999047,-0.183213484999045,4,2007
3,2003,2.20418525072896,2.20418525072896,4,2007
4,2003,1.83960505485046,1.83960505485046,4,2007
1,2004,2.6314542554539,2.6314542554539,4,2007
2,2004,1.5821962351529,1.5821962351529,4,2007
3,2004,1.36381930758498,1.36381930758498,4,2007
4,2004,0.940043684471071,0.940043684471071,4,2007
1,2005,1.30435274777789,1.30435274777789,4,2007
2,2005,2.11944937914363,2.11944937914363,4,2007
3,2005,2.66192493842547,2.66192493842548,4,2007
4,2005,1.44672165498265,1.44672165498265,4,2007
1,2006,3.57584924867835,3.57584924867835,4,2007
2,2006,3.98696595102985,3.98696595102985,4,2007
3,2006,2.29317599771231,2.29317599771231,4,2007
4,2006,3.54201104964755,3.54201104964755,4,2007
1,2007,2.85699624824367,2.85699624824367,4,2007
2,2007,1.40449548281325,1.40449548281325,4,2007
3,2007,2.16576558153265,2.20402480125714,4,2007
4,2007,2.42793357162583,2.34998602505151,4,2007
1,2008,,2.21723410982084,4,2007
2,2008,,2.02545402352682,4,2007
3,2008,,1.83634406476299,4,2007
4,2008,,1.77330741184171,4,2007
2,1991,0.47291472282453,0.472919402933704,1,2008
3,1991,0.248231853796344,0.248231853796343,1,2008
4,1991,3.88979781079914,3.88979781079914,1,2008
1,1992,4.90857609692299,4.90857609692299,1,2008
2,1992,-2.32958000732851,-2.32958000732851,1,2008
3,1992,-0.669839968852493,-0.669839968852493,1,2008
4,1992,-1.12894134416554,-1.12894134416553,1,2008
1,1993,-3.00576412195293,-3.00576412195292,1,2008
2,1993,0.674577157633105,0.674577157633105,1,2008
3,1993,1.7499747799856,1.7499747799856,1,2008
4,1993,1.22017253115438,1.22017253115438,1,2008
1,1994,3.43288683480183,3.43288683480183,1,2008
2,1994,2.88271984513331,2.88271984513331,1,2008
3,1994,3.25830290835503,3.25830290835503,1,2008
4,1994,3.23611547553799,3.23611547553799,1,2008
1,1995,2.74021940497011,2.74021940497011,1,2008
2,1995,2.31289496259834,2.31289496259834,1,2008
3,1995,1.30341428522931,1.30341428522931,1,2008
4,1995,1.12988564522785,1.12988564522785,1,2008
1,1996,0.216118437050938,0.216118437050939,1,2008
2,1996,2.94900731356143,2.94900731356142,1,2008
3,1996,2.14836567976906,2.14836567976906,1,2008
4,1996,1.07274142523823,1.07274142523823,1,2008
1,1997,1.68325032603249,1.68325032603249,1,2008
2,1997,5.01897149649795,5.01897149649795,1,2008
3,1997,2.66114355776668,2.66114355776668,1,2008
4,1997,3.92615763156177,3.92615763156177,1,2008
1,1998,2.77913340606042,2.77913340606042,1,2008
2,1998,1.76286864871409,1.76286864871409,1,2008
3,1998,2.21448834906395,2.21448834906395,1,2008
4,1998,0.858302321198368,0.858302321198368,1,2008
1,1999,3.88925775687701,3.88925775687701,1,2008
2,1999,2.51556148706538,2.51556148706538,1,2008
3,1999,5.13432431965242,5.13432431965242,1,2008
4,1999,4.81612022290809,4.81612022290809,1,2008
1,2000,4.562994080473,4.562994080473,1,2008
2,2000,4.0426787179771,4.0426787179771,1,2008
3,2000,1.82878455596645,1.82878455596645,1,2008
4,2000,2.85183607845791,2.85183607845791,1,2008
1,2001,3.17460084794992,3.17460084794992,1,2008
2,2001,0.282493559360697,0.282493559360698,1,2008
3,2001,0.308401848295525,0.308401848295526,1,2008
4,2001,0.329842340732101,0.329842340732101,1,2008
1,2002,1.0360114251154,1.0360114251154,1,2008
2,2002,1.70215751072498,1.70215751072498,1,2008
3,2002,1.51054533538586,1.51054533538586,1,2008
4,2002,0.05497728095778,0.0549772809577804,1,2008
1,2003,0.44506298107585,0.44506298107585,1,2008
2,2003,-0.106301358230509,-0.106301358230509,1,2008
3,2003,2.14443615337452,2.14443615337452,1,2008
4,2003,2.17766168571698,2.17766168571698,1,2008
1,2004,2.35245154793191,2.35245154793191,1,2008
2,2004,1.62574010030965,1.62574010030965,1,2008
3,2004,1.27638124803204,1.27638124803204,1,2008
4,2004,1.07050128926194,1.07050128926194,1,2008
1,2005,1.21907039164793,1.21907039164793,1,2008
2,2005,2.28229718495809,2.28229718495809,1,2008
3,2005,2.47314149987541,2.47314149987541,1,2008
4,2005,1.69398054456005,1.69398054456005,1,2008
1,2006,3.50366016463597,3.50366016463597,1,2008
2,2006,3.9202569591382,3.9202569591382,1,2008
3,2006,2.32224110068338,2.32224110068338,1,2008
4,2006,3.23995128947625,3.23995128947625,1,2008
1,2007,3.26546227925426,3.26546227925426,1,2008
2,2007,1.24186512622537,1.24186512622537,1,2008
3,2007,3.08608288644814,3.08608288644814,1,2008
4,2007,2.1696442855526,2.0661340654881,1,2008
1,2008,1.61037106524001,1.48537756785569,1,2008
2,2008,1.42798099015975,1.40100600750995,1,2008
3,2008,1.47789463887486,1.65292792204135,1,2008
4,2008,1.19836646178081,1.74021361163744,1,2008
1,2009,,2.06008115376108,1,2008
2,2009,,2.25200167903527,1,2008
3,2009,,2.34796194167237,1,2008
4,2009,,2.37994869588473,1,2008
2,1991,0.473312409267226,0.472931035821634,2,2008
3,1991,0.248231853796344,0.248231853796345,2,2008
4,1991,3.88979781079914,3.88979781079915,2,2008
1,1992,4.90857609692299,4.90857609692299,2,2008
2,1992,-2.32958000732851,-2.32958000732851,2,2008
3,1992,-0.669839968852493,-0.669839968852493,2,2008
4,1992,-1.12894134416554,-1.12894134416554,2,2008
1,1993,-3.00576412195292,-3.00576412195293,2,2008
2,1993,0.674577157633105,0.674577157633105,2,2008
3,1993,1.7499747799856,1.7499747799856,2,2008
4,1993,1.22017253115439,1.22017253115438,2,2008
1,1994,3.43288683480183,3.43288683480183,2,2008
2,1994,2.88271984513331,2.88271984513331,2,2008
3,1994,3.25830290835503,3.25830290835503,2,2008
4,1994,3.23611547553799,3.23611547553799,2,2008
1,1995,2.74021940497011,2.74021940497011,2,2008
2,1995,2.28756046918799,2.28756046918799,2,2008
3,1995,1.2337981959357,1.2337981959357,2,2008
4,1995,1.24310728602395,1.24310728602395,2,2008
1,1996,0.170602204052407,0.170602204052406,2,2008
2,1996,2.95609423816054,2.95609423816055,2,2008
3,1996,2.10053713813156,2.10053713813156,2,2008
4,1996,1.15941637903598,1.15941637903598,2,2008
1,1997,1.69339334893954,1.69339334893954,2,2008
2,1997,4.93701557513093,4.93701557513093,2,2008
3,1997,2.57582276723569,2.57582276723569,2,2008
4,1997,4.0366805047477,4.0366805047477,2,2008
1,1998,2.75916412987149,2.75916412987149,2,2008
2,1998,1.77372583403037,1.77372583403037,2,2008
3,1998,2.11802194894106,2.11802194894106,2,2008
4,1998,0.947175583497441,0.947175583497439,2,2008
1,1999,3.90952348381896,3.90952348381897,2,2008
2,1999,2.49109310485121,2.49109310485121,2,2008
3,1999,5.03147054832309,5.03147054832309,2,2008
4,1999,4.86009886272067,4.86009886272067,2,2008
1,2000,4.57662172467719,4.57662172467719,2,2008
2,2000,4.0342769915082,4.0342769915082,2,2008
3,2000,1.76571456660657,1.76571456660657,2,2008
4,2000,2.97103536038088,2.97103536038088,2,2008
1,2001,3.0929523666533,3.0929523666533,2,2008
2,2001,0.312638236587472,0.31263823658747,2,2008
3,2001,0.290101288432632,0.290101288432632,2,2008
4,2001,0.412990262871738,0.412990262871737,2,2008
1,2002,1.031091231728,1.031091231728,2,2008
2,2002,1.77692329136048,1.77692329136048,2,2008
3,2002,1.45791354416207,1.45791354416207,2,2008
4,2002,0.165406647451417,0.165406647451416,2,2008
1,2003,0.252476114613698,0.252476114613698,2,2008
2,2003,0.0357269446942935,0.035726944694292,2,2008
3,2003,2.10748316056994,2.10748316056994,2,2008
4,2003,2.36563969726031,2.36563969726031,2,2008
1,2004,2.24965262105501,2.24965262105501,2,2008
2,2004,1.87365798993631,1.87365798993631,2,2008
3,2004,1.26834249992438,1.26834249992438,2,2008
4,2004,1.23693780204079,1.23693780204079,2,2008
1,2005,1.22825878843291,1.22825878843291,2,2008
2,2005,2.47009470328421,2.47009470328421,2,2008
3,2005,2.45149306137258,2.45149306137258,2,2008
4,2005,1.85426105597222,1.85426105597222,2,2008
1,2006,3.29351008399295,3.29351008399295,2,2008
2,2006,4.09632746094182,4.09632746094182,2,2008
3,2006,2.18074019737606,2.18074019737606,2,2008
4,2006,3.36045627258048,3.36045627258048,2,2008
1,2007,3.01364243499711,3.01364243499711,2,2008
2,2007,1.34179732966993,1.34179732966992,2,2008
3,2007,2.91643765492158,2.91643765492158,2,2008
4,2007,1.41691111059548,1.41691111059548,2,2008
1,2008,1.33017190008342,1.3201643218365,2,2008
2,2008,1.37947302557357,1.37481672091633,2,2008
3,2008,1.59188698886715,1.60129490383951,2,2008
4,2008,1.53420963030288,1.56945559316541,2,2008
1,2009,,1.61189603169431,2,2008
2,2009,,1.63736029481165,2,2008
3,2009,,1.65009242637032,2,2008
4,2009,,1.65433647022321,2,2008
2,1991,0.473221332325442,0.472884358686586,3,2008
3,1991,0.248231853796343,0.248231853796344,3,2008
4,1991,3.88979781079914,3.88979781079915,3,2008
1,1992,4.90857609692299,4.90857609692299,3,2008
2,1992,-2.32958000732851,-2.32958000732851,3,2008
3,1992,-0.669839968852492,-0.669839968852493,3,2008
4,1992,-1.12894134416554,-1.12894134416553,3,2008
1,1993,-3.00576412195293,-3.00576412195292,3,2008
2,1993,0.674577157633105,0.674577157633105,3,2008
3,1993,1.7499747799856,1.7499747799856,3,2008
4,1993,1.22017253115439,1.22017253115438,3,2008
1,1994,3.43288683480183,3.43288683480183,3,2008
2,1994,2.88271984513331,2.88271984513331,3,2008
3,1994,3.25830290835503,3.25830290835503,3,2008
4,1994,3.23611547553799,3.23611547553799,3,2008
1,1995,2.74021940497011,2.74021940497011,3,2008
2,1995,4.06502222408331,4.06502222408331,3,2008
3,1995,1.88668930570874,1.88668930570875,3,2008
4,1995,2.09036734344261,2.09036734344261,3,2008
1,1996,-0.979847764051523,-0.979847764051521,3,2008
2,1996,2.94552019433247,2.94552019433247,3,2008
3,1996,2.09807829275261,2.09807829275261,3,2008
4,1996,1.26104425066307,1.26104425066307,3,2008
1,1997,1.59392400992586,1.59392400992586,3,2008
2,1997,4.89848175978382,4.89848175978382,3,2008
3,1997,2.70202618578375,2.70202618578375,3,2008
4,1997,3.96695916375955,3.96695916375955,3,2008
1,1998,2.77970777415733,2.77970777415733,3,2008
2,1998,1.77125831295841,1.77125831295841,3,2008
3,1998,2.10487253937608,2.10487253937608,3,2008
4,1998,0.81970474905977,0.819704749059768,3,2008
1,1999,3.73990687861188,3.73990687861187,3,2008
2,1999,2.37939237506126,2.37939237506126,3,2008
3,1999,5.05916981194867,5.05916981194867,3,2008
4,1999,4.89979500754412,4.89979500754412,3,2008
1,2000,4.60618737992098,4.60618737992098,3,2008
2,2000,3.9142948610039,3.9142948610039,3,2008
3,2000,1.94158595755565,1.94158595755565,3,2008
4,2000,3.19367716745442,3.19367716745442,3,2008
1,2001,2.94100055305013,2.94100055305013,3,2008
2,2001,0.269910131533658,0.269910131533657,3,2008
3,2001,0.241331456939387,0.241331456939387,3,2008
4,2001,0.445139316068266,0.445139316068266,3,2008
1,2002,1.09252905427677,1.09252905427677,3,2008
2,2002,1.75964290905137,1.75964290905137,3,2008
3,2002,1.34567642792933,1.34567642792933,3,2008
4,2002,0.302311646569798,0.302311646569797,3,2008
1,2003,0.327865103976488,0.327865103976488,3,2008
2,2003,-0.0789849312874282,-0.0789849312874291,3,2008
3,2003,2.05603016902032,2.05603016902032,3,2008
4,2003,2.41766535516095,2.41766535516095,3,2008
1,2004,2.28346141130338,2.28346141130338,3,2008
2,2004,1.67488395169759,1.67488395169759,3,2008
3,2004,1.37894850310971,1.37894850310971,3,2008
4,2004,1.43427178637794,1.43427178637794,3,2008
1,2005,1.19348563591462,1.19348563591462,3,2008
2,2005,2.45079599105891,2.45079599105891,3,2008
3,2005,2.54713650865321,2.54713650865321,3,2008
4,2005,1.97397162197368,1.97397162197368,3,2008
1,2006,3.308761903784,3.308761903784,3,2008
2,2006,4.01496638682344,4.01496638682344,3,2008
3,2006,2.31789163224359,2.31789163224359,3,2008
4,2006,3.36552237793655,3.36552237793655,3,2008
1,2007,3.16058540390567,3.16058540390567,3,2008
2,2007,1.49308736951683,1.49308736951683,3,2008
3,2007,2.66476618797091,2.66476618797091,3,2008
4,2007,1.25374675913799,1.25374675913799,3,2008
1,2008,3.222998120353,3.222998120353,3,2008
2,2008,0.679590316755595,0.522026568988547,3,2008
3,2008,0.292499874926249,0.31399958967851,3,2008
4,2008,0.309686776899083,0.740921919407085,3,2008
1,2009,,1.45523119233003,3,2008
2,2009,,1.83014949086759,3,2008
3,2009,,2.01760864013637,3,2008
4,2009,,2.08009502322596,3,2008
2,1991,0.472904350417666,0.472910127329227,4,2008
3,1991,0.248231853796342,0.248231853796344,4,2008
4,1991,3.88979781079915,3.88979781079914,4,2008
1,1992,4.90857609692299,4.90857609692299,4,2008
2,1992,-2.32958000732851,-2.32958000732851,4,2008
3,1992,-0.669839968852493,-0.669839968852493,4,2008
4,1992,-1.12894134416554,-1.12894134416554,4,2008
1,1993,-3.00576412195293,-3.00576412195293,4,2008
2,1993,0.674577157633105,0.674577157633105,4,2008
3,1993,1.7499747799856,1.7499747799856,4,2008
4,1993,1.22017253115438,1.22017253115438,4,2008
1,1994,3.43288683480183,3.43288683480183,4,2008
2,1994,2.88271984513331,2.88271984513331,4,2008
3,1994,3.25830290835503,3.25830290835503,4,2008
4,1994,3.23611547553799,3.23611547553799,4,2008
1,1995,2.74021940497011,2.74021940497011,4,2008
2,1995,2.27215293492566,2.27215293492566,4,2008
3,1995,1.32959219420465,1.32959219420465,4,2008
4,1995,1.50294952734369,1.50294952734369,4,2008
1,1996,0.0274139980991128,0.0274139980991135,4,2008
2,1996,3.02616012779891,3.02616012779891,4,2008
3,1996,2.12527477660553,2.12527477660553,4,2008
4,1996,1.30522630093994,1.30522630093994,4,2008
1,1997,1.46778420180345,1.46778420180345,4,2008
2,1997,4.98489510810014,4.98489510810014,4,2008
3,1997,2.73789664692798,2.73789664692798,4,2008
4,1997,4.00973872763588,4.00973872763588,4,2008
1,1998,2.7611411936405,2.7611411936405,4,2008
2,1998,1.6892887174512,1.6892887174512,4,2008
3,1998,2.20275699816701,2.20275699816701,4,2008
4,1998,0.654142904084565,0.654142904084565,4,2008
1,1999,3.80304517962717,3.80304517962717,4,2008
2,1999,2.50156564391764,2.50156564391764,4,2008
3,1999,5.01445738519339,5.01445738519339,4,2008
4,1999,4.74809120310553,4.74809120310553,4,2008
1,2000,4.76504744556261,4.76504744556261,4,2008
2,2000,3.95035411568128,3.95035411568128,4,2008
3,2000,1.94046986253869,1.94046986253869,4,2008
4,2000,2.94602758225362,2.94602758225362,4,2008
1,2001,3.0502395893713,3.0502395893713,4,2008
2,2001,0.289381934803146,0.289381934803146,4,2008
3,2001,0.292894562317891,0.292894562317891,4,2008
4,2001,0.508061837430018,0.508061837430018,4,2008
1,2002,0.954451974327064,0.954451974327064,4,2008
2,2002,1.9300635790412,1.9300635790412,4,2008
3,2002,1.39950127547763,1.39950127547763,4,2008
4,2002,0.314610083857358,0.314610083857359,4,2008
1,2003,0.0656103747016745,0.0656103747016746,4,2008
2,2003,0.0882846908353718,0.088284690835372,4,2008
3,2003,2.09257379723036,2.09257379723036,4,2008
4,2003,2.4190709314031,2.4190709314031,4,2008
1,2004,2.24202334406889,2.24202334406889,4,2008
2,2004,1.95265943516176,1.95265943516176,4,2008
3,2004,1.37425177316204,1.37425177316204,4,2008
4,2004,1.36327459760031,1.36327459760031,4,2008
1,2005,1.06381165876777,1.06381165876777,4,2008
2,2005,2.92875381703541,2.92875381703541,4,2008
3,2005,2.49927577403681,2.49927577403681,4,2008
4,2005,1.87310787462749,1.87310787462749,4,2008
1,2006,3.2789224725174,3.2789224725174,4,2008
2,2006,4.36845522040494,4.36845522040494,4,2008
3,2006,2.18476022182026,2.18476022182026,4,2008
4,2006,3.38174525120285,3.38174525120285,4,2008
1,2007,2.97922848782575,2.97922848782575,4,2008
2,2007,1.83953775554457,1.83953775554457,4,2008
3,2007,2.30586807907405,2.30586807907405,4,2008
4,2007,1.44283296428203,1.44283296428203,4,2008
1,2008,2.68012846637393,2.68012846637393,4,2008
2,2008,-0.784561275048446,-0.784561275048445,4,2008
3,2008,-0.085798863183257,-0.116790939837655,4,2008
4,2008,0.232115626976474,0.294348167124571,4,2008
1,2009,,0.618946720773306,4,2008
2,2009,,0.505717758960926,4,2008
3,2009,,0.33337440800507,4,2008
4,2009,,0.275926624353119,4,2008
2,1991,0.472542367756004,0.472542367959634,1,2009
3,1991,0.248231853796343,0.248231853796344,1,2009
4,1991,3.88979781079914,3.88979781079915,1,2009
1,1992,4.90857609692299,4.90857609692299,1,2009
2,1992,-2.32958000732851,-2.32958000732852,1,2009
3,1992,-0.669839968852492,-0.669839968852492,1,2009
4,1992,-1.12894134416553,-1.12894134416554,1,2009
1,1993,-3.00576412195293,-3.00576412195292,1,2009
2,1993,0.674577157633105,0.674577157633106,1,2009
3,1993,1.7499747799856,1.7499747799856,1,2009
4,1993,1.22017253115438,1.22017253115438,1,2009
1,1994,3.43288683480183,3.43288683480183,1,2009
2,1994,2.88271984513331,2.88271984513331,1,2009
3,1994,3.25830290835503,3.25830290835503,1,2009
4,1994,3.23611547553799,3.23611547553799,1,2009
1,1995,2.74021940497011,2.74021940497011,1,2009
2,1995,2.24559577962218,2.24559577962218,1,2009
3,1995,1.26433906981174,1.26433906981174,1,2009
4,1995,1.46414486344824,1.46414486344824,1,2009
1,1996,0.127594162880994,0.127594162880996,1,2009
2,1996,2.98038313811746,2.98038313811746,1,2009
3,1996,2.00028659222815,2.00028659222815,1,2009
4,1996,1.29637835955101,1.29637835955101,1,2009
1,1997,1.65639815363527,1.65639815363528,1,2009
2,1997,4.94464657681854,4.94464657681855,1,2009
3,1997,2.68898787966887,2.68898787966887,1,2009
4,1997,3.99860102156349,3.99860102156349,1,2009
1,1998,2.87990266220004,2.87990266220004,1,2009
2,1998,1.65144246850244,1.65144246850244,1,2009
3,1998,2.14903615905806,2.14903615905806,1,2009
4,1998,0.622016435720375,0.622016435720373,1,2009
1,1999,3.95972595050611,3.95972595050611,1,2009
2,1999,2.50020541703746,2.50020541703746,1,2009
3,1999,4.88634045998226,4.88634045998226,1,2009
4,1999,4.76208266643261,4.76208266643261,1,2009
1,2000,4.89207792192863,4.89207792192863,1,2009
2,2000,3.88857429454763,3.88857429454763,1,2009
3,2000,1.869117036592,1.86911703659201,1,2009
4,2000,2.94022108175345,2.94022108175345,1,2009
1,2001,3.10073079358793,3.10073079358792,1,2009
2,2001,0.176521725852653,0.176521725852651,1,2009
3,2001,0.340063616005737,0.340063616005737,1,2009
4,2001,0.499988994559697,0.499988994559697,1,2009
1,2002,0.933971856388815,0.933971856388816,1,2009
2,2002,1.89891469886885,1.89891469886885,1,2009
3,2002,1.41621540006975,1.41621540006975,1,2009
4,2002,0.34002831548694,0.340028315486939,1,2009
1,2003,0.117786140633602,0.117786140633603,1,2009
2,2003,0.0738649190535239,0.0738649190535225,1,2009
3,2003,2.05684649552422,2.05684649552422,1,2009
4,2003,2.42692435882737,2.42692435882737,1,2009
1,2004,2.30795418595606,2.30795418595606,1,2009
2,2004,1.91302600781884,1.91302600781884,1,2009
3,2004,1.42262949071934,1.42262949071934,1,2009
4,2004,1.37673006813792,1.37673006813792,1,2009
1,2005,0.999724034683158,0.999724034683159,1,2009
2,2005,2.93757961472616,2.93757961472616,1,2009
3,2005,2.5541749839221,2.5541749839221,1,2009
4,2005,1.83751589116112,1.83751589116112,1,2009
1,2006,3.31647857199329,3.31647857199329,1,2009
2,2006,4.38904063571517,4.38904063571517,1,2009
3,2006,2.21021536320631,2.21021536320631,1,2009
4,2006,3.36826699027239,3.3682669902724,1,2009
1,2007,2.8536662488748,2.8536662488748,1,2009
2,2007,1.83152309405905,1.83152309405905,1,2009
3,2007,2.46633142218076,2.46633142218076,1,2009
4,2007,1.34425699849343,1.34425699849343,1,2009
1,2008,2.66747277262713,2.66747277262713,1,2009
2,2008,-0.715385105252985,-0.715385105252987,1,2009
3,2008,-0.74426212324935,-0.74426212324935,1,2009
4,2008,-1.41156240366137,-1.89765558825642,1,2009
1,2009,-2.05345892615196,-2.63508671550024,1,2009
2,2009,-2.22697767442241,-2.34088420223091,1,2009
3,2009,-2.26107983885197,-1.42929433236063,1,2009
4,2009,-2.9383964784625,-0.473483181704654,1,2009
1,2010,,0.961686963836644,1,2009
2,2010,,1.82278905116142,1,2009
3,2010,,2.25334009482381,1,2009
4,2010,,2.39685710937794,1,2009
2,1991,0.472867754042055,0.472864682731875,2,2009
3,1991,0.248231853796344,0.248231853796344,2,2009
4,1991,3.88979781079915,3.88979781079915,2,2009
1,1992,4.90857609692299,4.90857609692299,2,2009
2,1992,-2.32958000732851,-2.32958000732852,2,2009
3,1992,-0.669839968852492,-0.669839968852493,2,2009
4,1992,-1.12894134416554,-1.12894134416553,2,2009
1,1993,-3.00576412195293,-3.00576412195293,2,2009
2,1993,0.674577157633105,0.674577157633105,2,2009
3,1993,1.7499747799856,1.7499747799856,2,2009
4,1993,1.22017253115438,1.22017253115438,2,2009
1,1994,3.43288683480183,3.43288683480183,2,2009
2,1994,2.88271984513331,2.88271984513331,2,2009
3,1994,3.25830290835503,3.25830290835503,2,2009
4,1994,3.23611547553799,3.23611547553799,2,2009
1,1995,2.74021940497011,2.74021940497011,2,2009
2,1995,2.26548496860386,2.26548496860386,2,2009
3,1995,1.26911944123622,1.26911944123622,2,2009
4,1995,1.44333699267041,1.44333699267041,2,2009
1,1996,0.133098350168659,0.133098350168658,2,2009
2,1996,3.02983759139865,3.02983759139865,2,2009
3,1996,2.03693081368819,2.03693081368819,2,2009
4,1996,1.32803846534078,1.32803846534077,2,2009
1,1997,1.63659104267169,1.63659104267169,2,2009
2,1997,4.92977764816887,4.92977764816887,2,2009
3,1997,2.70639871160787,2.70639871160787,2,2009
4,1997,3.97297993658587,3.97297993658587,2,2009
1,1998,2.90398587072218,2.90398587072218,2,2009
2,1998,1.65237939929332,1.65237939929332,2,2009
3,1998,2.1773776609292,2.1773776609292,2,2009
4,1998,0.622041797095729,0.622041797095728,2,2009
1,1999,3.95738166563506,3.95738166563506,2,2009
2,1999,2.45117908726504,2.45117908726504,2,2009
3,1999,4.88286711183037,4.88286711183037,2,2009
4,1999,4.71981072801673,4.71981072801673,2,2009
1,2000,4.91674881718875,4.91674881718875,2,2009
2,2000,3.88065374752109,3.88065374752109,2,2009
3,2000,1.87996612880537,1.87996612880536,2,2009
4,2000,2.92908941553276,2.92908941553276,2,2009
1,2001,3.12047947723264,3.12047947723264,2,2009
2,2001,0.186243047818913,0.186243047818912,2,2009
3,2001,0.338869440067047,0.338869440067047,2,2009
4,2001,0.505290342281906,0.505290342281905,2,2009
1,2002,0.967852148871184,0.967852148871184,2,2009
2,2002,1.89839375954173,1.89839375954173,2,2009
3,2002,1.41872412665982,1.41872412665982,2,2009
4,2002,0.3576072608104,0.357607260810399,2,2009
1,2003,0.146668754268342,0.146668754268342,2,2009
2,2003,0.0862598349649746,0.0862598349649737,2,2009
3,2003,2.06131713400175,2.06131713400175,2,2009
4,2003,2.44061648857652,2.44061648857652,2,2009
1,2004,2.32119290210007,2.32119290210007,2,2009
2,2004,1.92134074943677,1.92134074943677,2,2009
3,2004,1.42637211938992,1.42637211938992,2,2009
4,2004,1.40760515264082,1.40760515264082,2,2009
1,2005,1.05961749858121,1.05961749858121,2,2009
2,2005,2.9814832453581,2.9814832453581,2,2009
3,2005,2.58990064098597,2.58990064098597,2,2009
4,2005,1.89725402423819,1.89725402423819,2,2009
1,2006,3.41392216962824,3.41392216962824,2,2009
2,2006,4.41986533765688,4.41986533765688,2,2009
3,2006,2.23347963073648,2.23347963073648,2,2009
4,2006,3.52809124865825,3.52809124865825,2,2009
1,2007,2.86722512132993,2.86722512132993,2,2009
2,2007,1.83195221383152,1.83195221383152,2,2009
3,2007,2.42214942201309,2.42214942201309,2,2009
4,2007,1.6574225521218,1.6574225521218,2,2009
1,2008,2.7933285298944,2.7933285298944,2,2009
2,2008,-0.952240082465939,-0.952240082465939,2,2009
3,2008,-0.950611302499893,-0.95061130249989,2,2009
4,2008,-5.75165103511996,-5.75165103511996,2,2009
1,2009,-4.36175989362458,-4.64672748204433,2,2009
2,2009,-3.24733176311152,-3.38123281082408,2,2009
