fredbec/spf-europe/data/filter_spf_data_meanfc.csv
target_quarter,target_year,spf_filter_cy,spf_filter_ny,origin_quarter,origin_year
2,1991,0.303701550440216,0.303701552001452,1,2001
3,1991,0.0606164993791625,0.0606164993791623,1,2001
4,1991,0.961521361097617,0.961521361097617,1,2001
1,1992,1.39059636701331,1.39059636701331,1,2001
2,1992,-0.544037027263133,-0.544037027263133,1,2001
3,1992,-0.323435055155386,-0.323435055155386,1,2001
4,1992,-0.223209809591307,-0.223209809591307,1,2001
1,1993,-0.699263726647414,-0.699263726647415,1,2001
2,1993,0.0771478088997801,0.07714780889978,1,2001
3,1993,0.304722854091266,0.304722854091266,1,2001
4,1993,0.370524353369262,0.370524353369262,1,2001
1,1994,0.999884845579446,0.999884845579446,1,2001
2,1994,0.514884051222686,0.514884051222686,1,2001
3,1994,0.677284117631438,0.677284117631438,1,2001
4,1994,0.833015874320342,0.833015874320342,1,2001
1,1995,0.603419865406485,0.603419865406485,1,2001
2,1995,0.521077942231862,0.521077942231862,1,2001
3,1995,0.101707477153301,0.101707477153301,1,2001
4,1995,0.230034734684015,0.230034734684015,1,2001
1,1996,0.243061258418487,0.243061258418487,1,2001
2,1996,0.640981001856456,0.640981001856456,1,2001
3,1996,0.564339376193535,0.564339376193535,1,2001
4,1996,0.211210047612953,0.211210047612953,1,2001
1,1997,0.176398445290316,0.176398445290315,1,2001
2,1997,1.21935274346574,1.21935274346574,1,2001
3,1997,0.718427698578128,0.718427698578128,1,2001
4,1997,0.83700619389917,0.83700619389917,1,2001
1,1998,0.849996881440851,0.849996881440851,1,2001
2,1998,0.336532506451914,0.336532506451914,1,2001
3,1998,0.536106924128355,0.536106924128355,1,2001
4,1998,0.269892288322193,0.269892288322193,1,2001
1,1999,0.760044077305477,0.760044077305478,1,2001
2,1999,0.574599011883636,0.574599011883636,1,2001
3,1999,0.960896634122599,0.960896634122599,1,2001
4,1999,0.967762421082252,0.967762421082252,1,2001
1,2000,0.916106415803086,0.916106415803086,1,2001
2,2000,0.822888159574142,0.822888159574142,1,2001
3,2000,0.676155363963371,0.676155363963371,1,2001
4,2000,2.02270984767278,2.27976902685917,1,2001
1,2001,3.05852098898771,3.34193479515767,1,2001
2,2001,3.68000767377666,3.68217003732644,1,2001
3,2001,3.99075101617114,3.52737366908702,1,2001
4,2001,4.09433213030263,3.10444460616096,1,2001
1,2002,,2.64028176426981,1,2001
2,2002,,2.36178405913513,1,2001
3,2002,,2.22253520656778,1,2001
4,2002,,2.17611892237867,1,2001
2,1991,0.257455802978548,0.257455803567486,2,2001
3,1991,0.0554417473814572,0.0554417473814572,2,2001
4,1991,0.952878044612526,0.952878044612526,2,2001
1,1992,1.436036148229,1.436036148229,2,2001
2,1992,-0.592996144164648,-0.592996144164648,2,2001
3,1992,-0.273282767954153,-0.273282767954153,2,2001
4,1992,-0.273463478464686,-0.273463478464686,2,2001
1,1993,-0.69346612841783,-0.69346612841783,2,2001
2,1993,0.0387981669762282,0.0387981669762283,2,2001
3,1993,0.390951344097545,0.390951344097545,2,2001
4,1993,0.389670922392882,0.389670922392882,2,2001
1,1994,0.8912712876604,0.8912712876604,2,2001
2,1994,0.57518221017987,0.57518221017987,2,2001
3,1994,0.730489454072369,0.730489454072369,2,2001
4,1994,0.786383469226837,0.786383469226837,2,2001
1,1995,0.582910777164747,0.582910777164747,2,2001
2,1995,0.517076162902441,0.517076162902441,2,2001
3,1995,0.0942954450475542,0.0942954450475542,2,2001
4,1995,0.25508778616774,0.25508778616774,2,2001
1,1996,0.285379632147631,0.285379632147631,2,2001
2,1996,0.548956041281534,0.548956041281534,2,2001
3,1996,0.613413391574813,0.613413391574813,2,2001
4,1996,0.172087483018646,0.172087483018646,2,2001
1,1997,0.289512852064333,0.289512852064333,2,2001
2,1997,1.15663681632938,1.15663681632938,2,2001
3,1997,0.683623310050341,0.683623310050341,2,2001
4,1997,0.888033767648921,0.888033767648921,2,2001
1,1998,0.879891129321808,0.879891129321808,2,2001
2,1998,0.32292477683411,0.32292477683411,2,2001
3,1998,0.577081228248666,0.577081228248666,2,2001
4,1998,0.256969094285653,0.256969094285653,2,2001
1,1999,0.77689196245776,0.77689196245776,2,2001
2,1999,0.545380802719109,0.545380802719109,2,2001
3,1999,1.00438108214391,1.00438108214391,2,2001
4,1999,0.990411653684342,0.990411653684342,2,2001
1,2000,0.923159430471499,0.923159430471499,2,2001
2,2000,0.757308757066411,0.757308757066411,2,2001
3,2000,0.554975946688407,0.554975946688407,2,2001
4,2000,0.704953883892312,0.704953883892312,2,2001
1,2001,2.67721968622507,3.12807417665085,2,2001
2,2001,3.86057916762472,4.057272007423,2,2001
3,2001,4.45225890832455,3.94800835809333,2,2001
4,2001,4.64948548855783,3.2557442105464,2,2001
1,2002,,2.43594054666676,2,2001
2,2002,,1.94405834833898,2,2001
3,2002,,1.69811724917509,2,2001
4,2002,,1.61613688278713,2,2001
2,1991,0.261774500729686,0.261774500870191,3,2001
3,1991,-0.00249244486449901,-0.00249244486449907,3,2001
4,1991,0.966045952628636,0.966045952628636,3,2001
1,1992,1.46600044187906,1.46600044187906,3,2001
2,1992,-0.628705939305118,-0.628705939305118,3,2001
3,1992,-0.235230076866189,-0.235230076866189,3,2001
4,1992,-0.289012806100908,-0.289012806100908,3,2001
1,1993,-0.728580070166595,-0.728580070166595,3,2001
2,1993,0.0785721748619572,0.0785721748619571,3,2001
3,1993,0.399956607611962,0.399956607611962,3,2001
4,1993,0.40267102945053,0.40267102945053,3,2001
1,1994,0.86785783404284,0.86785783404284,3,2001
2,1994,0.575026277019708,0.575026277019708,3,2001
3,1994,0.700164806966308,0.700164806966308,3,2001
4,1994,0.840907328298601,0.840907328298601,3,2001
1,1995,0.54894332707589,0.54894332707589,3,2001
2,1995,0.535448338295774,0.535448338295774,3,2001
3,1995,0.0947392561214013,0.0947392561214012,3,2001
4,1995,0.233549494005936,0.233549494005936,3,2001
1,1996,0.32918267543165,0.32918267543165,3,2001
2,1996,0.509767385207427,0.509767385207427,3,2001
3,1996,0.617901315299263,0.617901315299263,3,2001
4,1996,0.151245293813451,0.151245293813451,3,2001
1,1997,0.288503780922267,0.288503780922267,3,2001
2,1997,1.18584586388,1.18584586388,3,2001
3,1997,0.698425512394252,0.698425512394252,3,2001
4,1997,0.867595463308701,0.867595463308701,3,2001
1,1998,0.964168827659528,0.964168827659528,3,2001
2,1998,0.332237007735992,0.332237007735992,3,2001
3,1998,0.551655837678755,0.551655837678755,3,2001
4,1998,0.227049586371808,0.227049586371808,3,2001
1,1999,0.813155514309094,0.813155514309094,3,2001
2,1999,0.542242519662217,0.542242519662217,3,2001
3,1999,1.01348501333665,1.01348501333665,3,2001
4,1999,0.986036464690021,0.986036464690021,3,2001
1,2000,0.947698573296818,0.947698573296818,3,2001
2,2000,0.747275101013378,0.747275101013378,3,2001
3,2000,0.593226693638482,0.593226693638483,3,2001
4,2000,0.602514760895923,0.602514760895923,3,2001
1,2001,0.546787765431512,0.546787765431513,3,2001
2,2001,3.60406082167211,4.31770902899626,3,2001
3,2001,5.1326973497924,4.97775610710829,3,2001
4,2001,5.64224285916584,3.79729916704621,3,2001
1,2002,,2.04670837608859,3,2001
2,2002,,0.996353901514016,3,2001
3,2002,,0.471176664226729,3,2001
4,2002,,0.296117585130967,3,2001
2,1991,0.209672815719455,0.209672816151503,4,2001
3,1991,0.0729666588914044,0.0729666588914046,4,2001
4,1991,0.908715736954679,0.908715736954679,4,2001
1,1992,1.48339795022223,1.48339795022223,4,2001
2,1992,-0.68757764616385,-0.687577646163851,4,2001
3,1992,-0.156900310548247,-0.156900310548247,4,2001
4,1992,-0.339496484204194,-0.339496484204194,4,2001
1,1993,-0.689223971731056,-0.689223971731057,4,2001
2,1993,0.0403191210305519,0.040319121030552,4,2001
3,1993,0.44454567108867,0.44454567108867,4,2001
4,1993,0.353009491555323,0.353009491555323,4,2001
1,1994,0.842021560379047,0.842021560379047,4,2001
2,1994,0.576477474978243,0.576477474978243,4,2001
3,1994,0.738983406113225,0.738983406113225,4,2001
4,1994,0.81560680321946,0.81560680321946,4,2001
1,1995,0.531631722301551,0.531631722301551,4,2001
2,1995,0.617922119888581,0.617922119888581,4,2001
3,1995,0.10085421349042,0.10085421349042,4,2001
4,1995,0.206345675298758,0.206345675298758,4,2001
1,1996,0.279346248907353,0.279346248907353,4,2001
2,1996,0.595103473171088,0.595103473171088,4,2001
3,1996,0.575198812637634,0.575198812637634,4,2001
4,1996,0.170404406680347,0.170404406680347,4,2001
1,1997,0.277199857851085,0.277199857851085,4,2001
2,1997,1.1715753841228,1.1715753841228,4,2001
3,1997,0.665940975848378,0.665940975848378,4,2001
4,1997,0.967425885752271,0.967425885752271,4,2001
1,1998,0.879821068912245,0.879821068912245,4,2001
2,1998,0.378632074405738,0.378632074405738,4,2001
3,1998,0.510995474384357,0.510995474384357,4,2001
4,1998,0.159556509927206,0.159556509927206,4,2001
1,1999,0.966193153021066,0.966193153021067,4,2001
2,1999,0.501700245095904,0.501700245095904,4,2001
3,1999,1.10283698509019,1.10283698509019,4,2001
4,1999,0.980422066453879,0.980422066453879,4,2001
1,2000,0.977137550470819,0.977137550470819,4,2001
2,2000,0.771737765619629,0.771737765619629,4,2001
3,2000,0.49646449513401,0.496464495134008,4,2001
4,2000,0.598756365861731,0.59875636586173,4,2001
1,2001,0.51181693611704,0.511816936117038,4,2001
2,2001,0.0504041909036536,0.0504041909036523,4,2001
3,2001,5.62882213245488,6.61304605794135,4,2001
4,2001,7.48829477963863,5.50563110963667,4,2001
1,2002,,1.3869283129901,4,2001
2,2002,,-1.08429336499784,4,2001
3,2002,,-2.31990420399181,4,2001
4,2002,,-2.73177448365647,4,2001
2,1991,0.196019144486281,0.196019144486281,1,2002
3,1991,0.0719710262353068,0.0719710262353068,1,2002
4,1991,0.910794973134998,0.910794973134999,1,2002
1,1992,1.46055336501354,1.46055336501354,1,2002
2,1992,-0.706897354003822,-0.706897354003822,1,2002
3,1992,-0.181427478151985,-0.181427478151985,1,2002
4,1992,-0.237858400281665,-0.237858400281665,1,2002
1,1993,-0.72788446681864,-0.72788446681864,1,2002
2,1993,0.0160883729464656,0.0160883729464656,1,2002
3,1993,0.453213201461056,0.453213201461056,1,2002
4,1993,0.382863992324434,0.382863992324434,1,2002
1,1994,0.884376858937652,0.884376858937652,1,2002
2,1994,0.457556698432104,0.457556698432104,1,2002
3,1994,0.726566074805946,0.726566074805946,1,2002
4,1994,0.836185650283272,0.836185650283272,1,2002
1,1995,0.49763275297543,0.49763275297543,1,2002
2,1995,0.672611121530964,0.672611121530964,1,2002
3,1995,0.150972353125356,0.150972353125356,1,2002
4,1995,0.18098289476407,0.18098289476407,1,2002
1,1996,0.22100540569201,0.22100540569201,1,2002
2,1996,0.671479716000278,0.671479716000278,1,2002
3,1996,0.531185580460392,0.531185580460392,1,2002
4,1996,0.200461839652788,0.200461839652788,1,2002
1,1997,0.341782747537112,0.341782747537112,1,2002
2,1997,1.10284805858689,1.10284805858689,1,2002
3,1997,0.628535069082892,0.628535069082892,1,2002
4,1997,1.03205435802507,1.03205435802507,1,2002
1,1998,0.886931556340764,0.886931556340764,1,2002
2,1998,0.411431671376072,0.411431671376072,1,2002
3,1998,0.517860606635345,0.517860606635345,1,2002
4,1998,0.121510010774384,0.121510010774384,1,2002
1,1999,0.909774314634659,0.909774314634659,1,2002
2,1999,0.625484507431096,0.625484507431096,1,2002
3,1999,1.08683933086968,1.08683933086968,1,2002
4,1999,0.971849064377595,0.971849064377595,1,2002
1,2000,0.88944507817692,0.88944507817692,1,2002
2,2000,0.877831720447131,0.877831720447131,1,2002
3,2000,0.410228553747904,0.410228553747904,1,2002
4,2000,0.583006842029277,0.583006842029277,1,2002
1,2001,0.576250714608584,0.576250714608584,1,2002
2,2001,0.0630733865862654,0.0630733865862654,1,2002
3,2001,0.123925448290008,0.123925448290008,1,2002
4,2001,0.925797642697738,0.843117822758787,1,2002
1,2002,1.54262240762676,1.45147691036917,1,2002
2,2002,1.91271726658418,1.91205828216836,1,2002
3,2002,2.09776469606288,2.246874192229,1,2002
4,2002,2.15944717255579,2.47793689462375,1,2002
1,2003,,2.62725864342525,1,2002
2,2003,,2.71685169270615,1,2002
3,2003,,2.7616482173466,1,2002
4,2003,,2.77658039222675,1,2002
2,1991,0.193663793640633,0.193663792790644,2,2002
3,1991,0.0563747892036612,0.0563747892036615,2,2002
4,1991,0.916234926911619,0.916234926911619,2,2002
1,1992,1.47191530229549,1.47191530229549,2,2002
2,1992,-0.710522657325208,-0.710522657325208,2,2002
3,1992,-0.1930668333056,-0.1930668333056,2,2002
4,1992,-0.234959530981305,-0.234959530981305,2,2002
1,1993,-0.717158937095186,-0.717158937095186,2,2002
2,1993,0.00811100691870959,0.00811100691870959,2,2002
3,1993,0.456838412037985,0.456838412037985,2,2002
4,1993,0.376267349979131,0.376267349979131,2,2002
1,1994,0.888667825718681,0.888667825718681,2,2002
2,1994,0.46317095106645,0.46317095106645,2,2002
3,1994,0.713597486954209,0.713597486954209,2,2002
4,1994,0.848991221620699,0.848991221620699,2,2002
1,1995,0.496139669620854,0.496139669620854,2,2002
2,1995,0.675509507207561,0.675509507207561,2,2002
3,1995,0.13933466593723,0.13933466593723,2,2002
4,1995,0.185507010186559,0.185507010186559,2,2002
1,1996,0.194517015910134,0.194517015910134,2,2002
2,1996,0.70743639355193,0.70743639355193,2,2002
3,1996,0.52337318225868,0.52337318225868,2,2002
4,1996,0.220714906705655,0.220714906705655,2,2002
1,1997,0.308083378762691,0.308083378762691,2,2002
2,1997,1.11253449665152,1.11253449665152,2,2002
3,1997,0.621483177277971,0.621483177277971,2,2002
4,1997,1.06665871002047,1.06665871002047,2,2002
1,1998,0.873462500805111,0.873462500805111,2,2002
2,1998,0.390442834323901,0.390442834323901,2,2002
3,1998,0.502414087246672,0.502414087246672,2,2002
4,1998,0.161003770038715,0.161003770038715,2,2002
1,1999,0.904890447306528,0.904890447306528,2,2002
2,1999,0.583368296542686,0.583368296542686,2,2002
3,1999,1.09492473779096,1.09492473779096,2,2002
4,1999,1.02617893617607,1.02617893617607,2,2002
1,2000,0.856769613149422,0.856769613149422,2,2002
2,2000,0.861774114240266,0.861774114240266,2,2002
3,2000,0.403270775133646,0.403270775133646,2,2002
4,2000,0.643988243828009,0.643988243828009,2,2002
1,2001,0.508811521744401,0.508811521744401,2,2002
2,2001,0.07204573045001,0.07204573045001,2,2002
3,2001,0.188860019095527,0.188860019095527,2,2002
4,2001,-0.165489569133914,-0.165489569133914,2,2002
1,2002,1.47599972704631,1.57023629884367,2,2002
2,2002,2.46089330475445,2.50192340203971,2,2002
3,2002,2.95334009360851,2.84772962189811,2,2002
4,2002,3.11748902322654,2.82581283986278,2,2002
1,2003,,2.65433093737762,2,2002
2,2003,,2.55144179588652,2,2002
3,2003,,2.49999722514097,2,2002
4,2003,,2.48284903489246,2,2002
2,1991,0.166406931181551,0.166406931181551,3,2002
3,1991,0.076458316778627,0.0764583167786268,3,2002
4,1991,0.87574614523942,0.87574614523942,3,2002
1,1992,1.46685751277866,1.46685751277866,3,2002
2,1992,-0.721318894547674,-0.721318894547673,3,2002
3,1992,-0.114963292322223,-0.114963292322223,3,2002
4,1992,-0.23851165470008,-0.23851165470008,3,2002
1,1993,-0.764751454049739,-0.764751454049739,3,2002
2,1993,0.044682772900817,0.0446827729008171,3,2002
3,1993,0.473935060294006,0.473935060294006,3,2002
4,1993,0.364061106477664,0.364061106477664,3,2002
1,1994,0.85239571005582,0.85239571005582,3,2002
2,1994,0.515343650654399,0.515343650654399,3,2002
3,1994,0.727676794691989,0.727676794691989,3,2002
4,1994,0.84983205435385,0.84983205435385,3,2002
1,1995,0.461045998430998,0.461045998430998,3,2002
2,1995,0.635258772923142,0.635258772923142,3,2002
3,1995,0.187640143733736,0.187640143733736,3,2002
4,1995,0.246159288840331,0.246159288840331,3,2002
1,1996,0.134019139217423,0.134019139217423,3,2002
2,1996,0.69928588929431,0.69928588929431,3,2002
3,1996,0.534508870882933,0.534508870882933,3,2002
4,1996,0.208135685246824,0.208135685246824,3,2002
1,1997,0.324671354350303,0.324671354350303,3,2002
2,1997,1.09893590194474,1.09893590194474,3,2002
3,1997,0.624463629780614,0.624463629780614,3,2002
4,1997,1.05891787305112,1.05891787305112,3,2002
1,1998,0.816772320129422,0.816772320129422,3,2002
2,1998,0.434727834155968,0.434727834155968,3,2002
3,1998,0.540336189896196,0.540336189896196,3,2002
4,1998,0.209174946024771,0.209174946024771,3,2002
1,1999,0.817760196380957,0.817760196380957,3,2002
2,1999,0.638565647087708,0.638565647087708,3,2002
3,1999,1.18884984647143,1.18884984647143,3,2002
4,1999,1.02475862860079,1.02475862860079,3,2002
1,2000,0.913173828424574,0.913173828424574,3,2002
2,2000,0.87929622723526,0.87929622723526,3,2002
3,2000,0.41351330489372,0.41351330489372,3,2002
4,2000,0.68842388414001,0.68842388414001,3,2002
1,2001,0.505272473953222,0.505272473953222,3,2002
2,2001,0.0308830983096974,0.0308830983096974,3,2002
3,2001,0.0982201832161023,0.0982201832161021,3,2002
4,2001,-0.289880738217529,-0.28988073821753,3,2002
1,2002,0.217064050720284,0.217064050720283,3,2002
2,2002,2.48076434218176,2.79083580590931,3,2002
3,2002,3.6126144879125,3.54364385896396,3,2002
4,2002,3.98989786982275,3.18420522003184,3,2002
1,2003,,2.4212368992606,3,2002
2,2003,,1.96345590679785,3,2002
3,2003,,1.73456541056648,3,2002
4,2003,,1.65826857848935,3,2002
2,1991,0.151410972920101,0.15141097350746,4,2002
3,1991,0.0208963945736108,0.0208963945736105,4,2002
4,1991,0.892491668834783,0.892491668834783,4,2002
1,1992,1.43850919647526,1.43850919647526,4,2002
2,1992,-0.663235218552483,-0.663235218552483,4,2002
3,1992,-0.136897525621227,-0.136897525621227,4,2002
4,1992,-0.181937635583995,-0.181937635583995,4,2002
1,1993,-0.798721542326464,-0.798721542326464,4,2002
2,1993,0.0593397791381012,0.0593397791381012,4,2002
3,1993,0.413455348863367,0.413455348863368,4,2002
4,1993,0.392678327056095,0.392678327056095,4,2002
1,1994,0.836236953309122,0.836236953309122,4,2002
2,1994,0.543995013862575,0.543995013862575,4,2002
3,1994,0.725101309240306,0.725101309240306,4,2002
4,1994,0.853339921390806,0.853339921390806,4,2002
1,1995,0.439825924136117,0.439825924136117,4,2002
2,1995,0.635954882220458,0.635954882220458,4,2002
3,1995,0.213350042642246,0.213350042642246,4,2002
4,1995,0.243562880183146,0.243562880183146,4,2002
1,1996,0.121272544028073,0.121272544028073,4,2002
2,1996,0.69648498445285,0.69648498445285,4,2002
3,1996,0.551237288440154,0.551237288440154,4,2002
4,1996,0.189981915086968,0.189981915086968,4,2002
1,1997,0.315187300313591,0.315187300313591,4,2002
2,1997,1.11050843859317,1.11050843859317,4,2002
3,1997,0.650405035647439,0.650405035647439,4,2002
4,1997,1.03425049692232,1.03425049692232,4,2002
1,1998,0.818971887691244,0.818971887691245,4,2002
2,1998,0.39054612857734,0.39054612857734,4,2002
3,1998,0.562674514862582,0.562674514862582,4,2002
4,1998,0.298335509110848,0.298335509110848,4,2002
1,1999,0.816595522368968,0.816595522368968,4,2002
2,1999,0.539461486816539,0.539461486816539,4,2002
3,1999,1.2906710842798,1.2906710842798,4,2002
4,1999,1.11653417723852,1.11653417723852,4,2002
1,2000,0.819531692357045,0.819531692357045,4,2002
2,2000,0.849977436154492,0.849977436154492,4,2002
3,2000,0.398482216200513,0.398482216200513,4,2002
4,2000,0.652586089828278,0.652586089828278,4,2002
1,2001,0.508311754791535,0.508311754791535,4,2002
2,2001,0.0381538793287062,0.0381538793287062,4,2002
3,2001,0.163073577797857,0.163073577797856,4,2002
4,2001,-0.290133509663548,-0.290133509663548,4,2002
1,2002,0.354828267659691,0.354828267659689,4,2002
2,2002,0.339711746808558,0.339711746808558,4,2002
3,2002,3.40725647443586,3.81785359622597,4,2002
4,2002,4.42977138364497,3.57721104030166,4,2002
1,2003,,1.82718207480568,4,2002
2,2003,,0.777164695508088,4,2002
3,2003,,0.252156005859293,4,2002
4,2003,,0.0771531093096947,4,2002
2,1991,0.166391237471158,0.166391235649585,1,2003
3,1991,0.0225190073939621,0.0225190073939618,1,2003
4,1991,0.893992107139696,0.893992107139696,1,2003
1,1992,1.42132988545087,1.42132988545087,1,2003
2,1992,-0.640534065191756,-0.640534065191756,1,2003
3,1992,-0.147593018850212,-0.147593018850212,1,2003
4,1992,-0.199280866420004,-0.199280866420004,1,2003
1,1993,-0.776892084936464,-0.776892084936465,1,2003
2,1993,0.056404143329969,0.056404143329969,1,2003
3,1993,0.408369283367649,0.408369283367649,1,2003
4,1993,0.379442545335507,0.379442545335507,1,2003
1,1994,0.840522498604423,0.840522498604424,1,2003
2,1994,0.56244683078388,0.56244683078388,1,2003
3,1994,0.726208154969354,0.726208154969354,1,2003
4,1994,0.826427575916689,0.826427575916688,1,2003
1,1995,0.499405407514364,0.499405407514364,1,2003
2,1995,0.576333463407264,0.576333463407264,1,2003
3,1995,0.222788537090901,0.222788537090901,1,2003
4,1995,0.200380041643022,0.200380041643022,1,2003
1,1996,0.180702820655387,0.180702820655387,1,2003
2,1996,0.656097836267078,0.656097836267078,1,2003
3,1996,0.570546198807231,0.570546198807231,1,2003
4,1996,0.219849887224321,0.219849887224321,1,2003
1,1997,0.282886544540073,0.282886544540073,1,2003
2,1997,1.1103291245008,1.1103291245008,1,2003
3,1997,0.665969189573046,0.665969189573046,1,2003
4,1997,1.03888528033691,1.03888528033691,1,2003
1,1998,0.813061430516537,0.813061430516537,1,2003
2,1998,0.384300366439771,0.384300366439771,1,2003
3,1998,0.576090216496983,0.576090216496983,1,2003
4,1998,0.318863416874193,0.318863416874193,1,2003
1,1999,0.836712377789883,0.836712377789884,1,2003
2,1999,0.535367664046338,0.535367664046338,1,2003
3,1999,1.30615980799935,1.30615980799935,1,2003
4,1999,1.0782757461457,1.0782757461457,1,2003
1,2000,0.879225142169471,0.879225142169471,1,2003
2,2000,0.8135560548588,0.813556054858799,1,2003
3,2000,0.378980547942121,0.37898054794212,1,2003
4,2000,0.638504904717707,0.638504904717707,1,2003
1,2001,0.515182683299198,0.515182683299198,1,2003
2,2001,0.000901018952115029,0.00090101895211514,1,2003
3,2001,0.181800962577983,0.181800962577983,1,2003
4,2001,-0.244935134272639,-0.244935134272639,1,2003
1,2002,0.411799965590509,0.411799965590509,1,2003
2,2002,0.334608545877901,0.334608545877901,1,2003
3,2002,0.331070501700581,0.331070501700581,1,2003
4,2002,1.04592770449362,1.01042734033638,1,2003
1,2003,1.59581786048826,1.55668351164113,1,2003
2,2003,1.92575195408504,1.9254721265045,1,2003
3,2003,2.09071900088344,2.15474836902426,1,2003
4,2003,2.1457080164829,2.28246742329815,1,2003
1,2004,,2.34658447342396,1,2003
2,2004,,2.38505470349945,1,2003
3,2004,,2.40428981853719,1,2003
4,2004,,2.41070152354977,1,2003
2,1991,0.164943726844391,0.164943728038372,2,2003
3,1991,0.0267889141049471,0.0267889141049471,2,2003
4,1991,0.890900674453143,0.890900674453144,2,2003
1,1992,1.42204193012803,1.42204193012803,2,2003
2,1992,-0.643765770057225,-0.643765770057225,2,2003
3,1992,-0.142697637805267,-0.142697637805267,2,2003
4,1992,-0.200032904872094,-0.200032904872094,2,2003
1,1993,-0.774835989907308,-0.774835989907308,2,2003
2,1993,0.0504242946681722,0.0504242946681722,2,2003
3,1993,0.415099188267165,0.415099188267165,2,2003
4,1993,0.371369120247667,0.371369120247667,2,2003
1,1994,0.843624714050884,0.843624714050884,2,2003
2,1994,0.566295403240158,0.566295403240158,2,2003
3,1994,0.72014489536707,0.72014489536707,2,2003
4,1994,0.83139764654423,0.83139764654423,2,2003
1,1995,0.500470512372209,0.500470512372209,2,2003
2,1995,0.577509565911161,0.577509565911161,2,2003
3,1995,0.22253094327449,0.22253094327449,2,2003
4,1995,0.209550185957208,0.209550185957208,2,2003
1,1996,0.17177683557652,0.17177683557652,2,2003
2,1996,0.654185565724963,0.654185565724963,2,2003
3,1996,0.572474150477764,0.572474150477764,2,2003
4,1996,0.224988955618777,0.224988955618777,2,2003
1,1997,0.279057886335687,0.279057886335687,2,2003
2,1997,1.1111497040847,1.1111497040847,2,2003
3,1997,0.667067659263565,0.667067659263565,2,2003
4,1997,1.03947809414968,1.03947809414968,2,2003
1,1998,0.799501715362849,0.799501715362849,2,2003
2,1998,0.386303014875677,0.386303014875677,2,2003
3,1998,0.579091416782762,0.579091416782762,2,2003
4,1998,0.319870214121165,0.319870214121165,2,2003
1,1999,0.829260093263828,0.829260093263828,2,2003
2,1999,0.538111072237513,0.538111072237513,2,2003
3,1999,1.31415133612411,1.31415133612411,2,2003
4,1999,1.06428371653466,1.06428371653466,2,2003
1,2000,0.9004064651849,0.9004064651849,2,2003
2,2000,0.8103234328523,0.8103234328523,2,2003
3,2000,0.431212857099106,0.431212857099106,2,2003
4,2000,0.595330923930515,0.595330923930515,2,2003
1,2001,0.548739356635908,0.548739356635908,2,2003
2,2001,-0.00934895561128812,-0.00934895561128801,2,2003
3,2001,0.143361484288018,0.143361484288018,2,2003
4,2001,-0.226531399229879,-0.226531399229879,2,2003
1,2002,0.38879577713975,0.38879577713975,2,2003
2,2002,0.326159329941445,0.326159329941445,2,2003
3,2002,0.390000604138563,0.390000604138563,2,2003
4,2002,0.169524246505026,0.169524246505026,2,2003
1,2003,1.06444850599904,1.0249984247216,2,2003
2,2003,1.60140306169545,1.58424014848428,2,2003
3,2003,1.86988033954365,1.91412671627642,2,2003
4,2003,1.95937276549305,2.08153542658138,2,2003
1,2004,,2.15334357788252,2,2003
2,2004,,2.19642846866321,2,2003
3,2004,,2.21797091405355,2,2003
4,2004,,2.22515172918367,2,2003
2,1991,0.165794407191609,0.165794407212355,3,2003
3,1991,0.0132631250222335,0.0132631250222335,3,2003
4,1991,0.896870666407112,0.896870666407113,3,2003
1,1992,1.43786838638904,1.43786838638904,3,2003
2,1992,-0.665253629097106,-0.665253629097107,3,2003
3,1992,-0.132318130690268,-0.132318130690268,3,2003
4,1992,-0.209958840157865,-0.209958840157864,3,2003
1,1993,-0.756737993616152,-0.756737993616152,3,2003
2,1993,0.0201646841392121,0.0201646841392122,3,2003
3,1993,0.452045788781885,0.452045788781885,3,2003
4,1993,0.346208569478423,0.346208569478423,3,2003
1,1994,0.83509289547683,0.83509289547683,3,2003
2,1994,0.59366621836614,0.59366621836614,3,2003
3,1994,0.700440915422762,0.700440915422762,3,2003
4,1994,0.854537002754041,0.854537002754041,3,2003
1,1995,0.490633949618769,0.490633949618769,3,2003
2,1995,0.571386084775027,0.571386084775027,3,2003
3,1995,0.232042318073922,0.232042318073922,3,2003
4,1995,0.192318795740709,0.192318795740709,3,2003
1,1996,0.207073598409147,0.207073598409147,3,2003
2,1996,0.613452883284293,0.613452883284293,3,2003
3,1996,0.573147276077046,0.573147276077046,3,2003
4,1996,0.239100856608343,0.239100856608343,3,2003
1,1997,0.260836527311859,0.260836527311859,3,2003
2,1997,1.15625429476405,1.15625429476405,3,2003
3,1997,0.637053287709444,0.637053287709444,3,2003
4,1997,1.04069872077657,1.04069872077657,3,2003
1,1998,0.809740814602789,0.809740814602789,3,2003
2,1998,0.395230954207793,0.395230954207793,3,2003
3,1998,0.555101696067095,0.555101696067095,3,2003
4,1998,0.305055968001589,0.305055968001589,3,2003
1,1999,0.869007676065525,0.869007676065525,3,2003
2,1999,0.542189237634561,0.542189237634561,3,2003
3,1999,1.28755988431422,1.28755988431422,3,2003
4,1999,1.06372905609764,1.06372905609764,3,2003
1,2000,0.950162052282955,0.950162052282955,3,2003
2,2000,0.791377940272064,0.791377940272064,3,2003
3,2000,0.372779224061981,0.372779224061981,3,2003
4,2000,0.627129188174402,0.627129188174402,3,2003
1,2001,0.592148588844554,0.592148588844554,3,2003
2,2001,-0.00130820387630448,-0.00130820387630459,3,2003
3,2001,0.156459632213335,0.156459632213335,3,2003
4,2001,-0.178966826290172,-0.178966826290172,3,2003
1,2002,0.420407412969292,0.420407412969292,3,2003
2,2002,0.389518404079303,0.389518404079303,3,2003
3,2002,0.322054607027589,0.322054607027589,3,2003
4,2002,0.0671559104922005,0.0671559104922004,3,2003
1,2003,0.00953645954484594,0.00953645954484601,3,2003
2,2003,1.19182959764286,1.24613621716811,3,2003
3,2003,1.78297616669187,1.77041374862831,3,2003
4,2003,1.98002502304154,1.83771881452292,3,2003
1,2004,,1.70340117544943,3,2003
2,2004,,1.62281059200534,3,2003
3,2004,,1.5825153002833,3,2003
4,2004,,1.56908353637595,3,2003
2,1991,0.250582148692957,0.250582148692957,4,2003
3,1991,-0.0419875031244297,-0.0419875031244299,4,2003
4,1991,0.952547690341388,0.952547690341388,4,2003
1,1992,1.50879801770145,1.50879801770145,4,2003
2,1992,-0.738548761113467,-0.738548761113467,4,2003
3,1992,-0.238514116998911,-0.238514116998911,4,2003
4,1992,-0.236921795576694,-0.236921795576694,4,2003
1,1993,-0.632690836313099,-0.632690836313099,4,2003
2,1993,0.0207111224535206,0.0207111224535206,4,2003
3,1993,0.393723656062939,0.393723656062939,4,2003
4,1993,0.32342978887141,0.32342978887141,4,2003
1,1994,0.91416749354658,0.91416749354658,4,2003
2,1994,0.588321472230624,0.588321472230624,4,2003
3,1994,0.661312484113097,0.661312484113097,4,2003
4,1994,0.818020858988477,0.818020858988477,4,2003
1,1995,0.513708676986968,0.513708676986968,4,2003
2,1995,0.582349536188187,0.582349536188187,4,2003
3,1995,0.224360979356142,0.224360979356142,4,2003
4,1995,0.225613943159364,0.225613943159364,4,2003
1,1996,0.205919621658435,0.205919621658435,4,2003
2,1996,0.643501646850875,0.643501646850875,4,2003
3,1996,0.522833070917628,0.522833070917628,4,2003
4,1996,0.156145163848054,0.156145163848054,4,2003
1,1997,0.256760602715889,0.256760602715889,4,2003
2,1997,1.25672882796402,1.25672882796402,4,2003
3,1997,0.668030879012371,0.668030879012371,4,2003
4,1997,1.00409201701044,1.00409201701044,4,2003
1,1998,0.794764522388114,0.794764522388114,4,2003
2,1998,0.418675525273815,0.418675525273815,4,2003
3,1998,0.540709516763438,0.540709516763438,4,2003
4,1998,0.283446899438311,0.283446899438311,4,2003
1,1999,0.862069120104314,0.862069120104314,4,2003
2,1999,0.605099861109015,0.605099861109015,4,2003
3,1999,1.25313827469857,1.25313827469857,4,2003
4,1999,1.03888693178233,1.03888693178233,4,2003
1,2000,0.949826141863896,0.949826141863896,4,2003
2,2000,0.848723761617687,0.848723761617687,4,2003
3,2000,0.326223177194374,0.326223177194374,4,2003
4,2000,0.597416855039046,0.597416855039046,4,2003
1,2001,0.67739416330872,0.67739416330872,4,2003
2,2001,0.0280733585612536,0.0280733585612536,4,2003
3,2001,0.169830470403154,0.169830470403154,4,2003
4,2001,-0.102387013141125,-0.102387013141125,4,2003
1,2002,0.344714565096038,0.344714565096038,4,2003
2,2002,0.474707527095464,0.474707527095464,4,2003
3,2002,0.226373691049875,0.226373691049875,4,2003
4,2002,0.0600895587335559,0.0600895587335559,4,2003
1,2003,0.0246653744822914,0.0246653744822911,4,2003
2,2003,-0.0780858552452579,-0.0780858552452579,4,2003
3,2003,1.89224945411758,2.00320628137476,4,2003
4,2003,2.54902789057186,2.30637113227824,4,2003
1,2004,,1.81812213898258,4,2003
2,2004,,1.52517274300519,4,2003
3,2004,,1.37869804501649,4,2003
4,2004,,1.32987314568693,4,2003
2,1991,0.3047755444056,0.3047755444056,1,2004
3,1991,-0.0441014725924392,-0.0441014725924392,1,2004
4,1991,0.967295727731132,0.967295727731132,1,2004
1,1992,1.48099888270701,1.48099888270701,1,2004
2,1992,-0.746568447423901,-0.746568447423901,1,2004
3,1992,-0.239871395032998,-0.239871395032998,1,2004
4,1992,-0.241457071447493,-0.241457071447493,1,2004
1,1993,-0.62259186765724,-0.622591867657241,1,2004
2,1993,0.0189271323906449,0.0189271323906448,1,2004
3,1993,0.382164779268224,0.382164779268224,1,2004
4,1993,0.283056789070746,0.283056789070746,1,2004
1,1994,0.972462274686436,0.972462274686436,1,2004
2,1994,0.589868240256353,0.589868240256353,1,2004
3,1994,0.657462124448038,0.657462124448038,1,2004
4,1994,0.79848436691643,0.79848436691643,1,2004
1,1995,0.54713360846117,0.54713360846117,1,2004
2,1995,0.570011597415965,0.570011597415965,1,2004
3,1995,0.208291297489138,0.208291297489138,1,2004
4,1995,0.236687343506192,0.236687343506192,1,2004
1,1996,0.141075106731403,0.141075106731403,1,2004
2,1996,0.718747554268129,0.718747554268129,1,2004
3,1996,0.538755312920136,0.538755312920136,1,2004
4,1996,0.164705883893501,0.164705883893501,1,2004
1,1997,0.234157782607047,0.234157782607047,1,2004
2,1997,1.22259495728236,1.22259495728236,1,2004
3,1997,0.688735963236731,0.688735963236731,1,2004
4,1997,1.0091529423814,1.0091529423814,1,2004
1,1998,0.807038489563161,0.807038489563161,1,2004
2,1998,0.396879048225918,0.396879048225918,1,2004
3,1998,0.541333918160958,0.541333918160958,1,2004
4,1998,0.269158795603364,0.269158795603364,1,2004
1,1999,0.899333233631716,0.899333233631716,1,2004
2,1999,0.570204993357271,0.570204993357271,1,2004
3,1999,1.24398597699262,1.24398597699262,1,2004
4,1999,1.06109113450503,1.06109113450503,1,2004
1,2000,0.949398701177562,0.949398701177562,1,2004
2,2000,0.867160009061196,0.867160009061196,1,2004
3,2000,0.321418022838449,0.321418022838449,1,2004
4,2000,0.617130976617686,0.617130976617686,1,2004
1,2001,0.674387319189673,0.674387319189673,1,2004
2,2001,0.0229378791724022,0.0229378791724023,1,2004
3,2001,0.193642384466464,0.193642384466464,1,2004
4,2001,-0.129433600909989,-0.129433600909989,1,2004
1,2002,0.380958575235346,0.380958575235346,1,2004
2,2002,0.491230139103105,0.491230139103105,1,2004
3,2002,0.222159323062576,0.222159323062576,1,2004
4,2002,0.00952120358521658,0.0095212035852166,1,2004
1,2003,-0.0165164845715271,-0.0165164845715271,1,2004
2,2003,-0.103075319621226,-0.103075319621226,1,2004
3,2003,0.383818422411397,0.383818422411397,1,2004
4,2003,1.33382567169726,1.44267410921444,1,2004
1,2004,2.06460047884023,2.18458999298892,1,2004
2,2004,2.50306536312601,2.50391947272532,1,2004
3,2004,2.7222978052689,2.5259685323282,1,2004
4,2004,2.7953752859832,2.37604315570214,1,2004
1,2005,,2.17944932675169,1,2004
2,2005,,2.06149302938142,1,2004
3,2005,,2.00251488069629,1,2004
4,2005,,1.98285549780124,1,2004
2,1991,0.304353812987279,0.304353817791031,2,2004
3,1991,-0.0440754187307379,-0.0440754187307377,2,2004
4,1991,0.964452843474128,0.964452843474128,2,2004
1,1992,1.48103530703121,1.48103530703121,2,2004
2,1992,-0.742874790103698,-0.742874790103698,2,2004
3,1992,-0.240735729157815,-0.240735729157815,2,2004
4,1992,-0.242220746556976,-0.242220746556976,2,2004
1,1993,-0.622888231287255,-0.622888231287255,2,2004
2,1993,0.0192825006540831,0.019282500654083,2,2004
3,1993,0.381509568369021,0.381509568369021,2,2004
4,1993,0.284780842547105,0.284780842547106,2,2004
1,1994,0.970305465757648,0.970305465757648,2,2004
2,1994,0.590050530116026,0.590050530116027,2,2004
3,1994,0.660107649641395,0.660107649641395,2,2004
4,1994,0.796992549687747,0.796992549687747,2,2004
1,1995,0.546093005397941,0.546093005397941,2,2004
2,1995,0.572429131198415,0.572429131198415,2,2004
3,1995,0.20624431524936,0.20624431524936,2,2004
4,1995,0.236736424925943,0.236736424925943,2,2004
1,1996,0.142562863645446,0.142562863645446,2,2004
2,1996,0.717267769349528,0.717267769349528,2,2004
3,1996,0.538548822907381,0.538548822907381,2,2004
4,1996,0.165249532621492,0.165249532621492,2,2004
1,1997,0.234412048359922,0.234412048359922,2,2004
2,1997,1.222579141743,1.222579141743,2,2004
3,1997,0.687772415139598,0.687772415139598,2,2004
4,1997,1.01021339106431,1.01021339106431,2,2004
1,1998,0.805745890657605,0.805745890657605,2,2004
2,1998,0.397187353372108,0.397187353372108,2,2004
3,1998,0.540943923420922,0.540943923420922,2,2004
4,1998,0.272915575387689,0.272915575387689,2,2004
1,1999,0.897627945468349,0.897627945468349,2,2004
2,1999,0.568668514973747,0.568668514973747,2,2004
3,1999,1.24467444079313,1.24467444079313,2,2004
4,1999,1.06034152777295,1.06034152777295,2,2004
1,2000,0.928829734266645,0.928829734266645,2,2004
2,2000,0.879308636511822,0.879308636511822,2,2004
3,2000,0.30498949143114,0.30498949143114,2,2004
4,2000,0.612240539018538,0.612240539018538,2,2004
1,2001,0.674900507040088,0.674900507040088,2,2004
2,2001,0.0351880977404351,0.0351880977404352,2,2004
3,2001,0.177528716286735,0.177528716286734,2,2004
4,2001,-0.132339353353184,-0.132339353353183,2,2004
1,2002,0.378103369428762,0.378103369428762,2,2004
2,2002,0.501112500325029,0.501112500325029,2,2004
3,2002,0.230128506112171,0.230128506112171,2,2004
4,2002,0.00114058084850213,0.00114058084850216,2,2004
1,2003,-0.0142536071060961,-0.0142536071060961,2,2004
2,2003,-0.0877207103907929,-0.0877207103907927,2,2004
3,2003,0.386241508384355,0.386241508384355,2,2004
4,2003,0.308875222141891,0.308875222141892,2,2004
1,2004,1.76658443960888,2.00804786141648,2,2004
2,2004,2.64120997008908,2.74635100229392,2,2004
3,2004,3.07852273532917,2.80793958854338,2,2004
4,2004,3.22429365707587,2.47696856393405,2,2004
1,2005,,2.03759287223511,2,2004
2,2005,,1.77396745721575,2,2004
3,2005,,1.64215474970607,2,2004
4,2005,,1.59821718053617,2,2004
2,1991,0.297038247499046,0.29703824832934,3,2004
3,1991,-0.0276268523656364,-0.0276268523656364,3,2004
4,1991,0.951001178992717,0.951001178992716,3,2004
1,1992,1.50955347592638,1.50955347592638,3,2004
2,1992,-0.76332527118681,-0.76332527118681,3,2004
3,1992,-0.280028730366178,-0.280028730366178,3,2004
4,1992,-0.199958567102077,-0.199958567102077,3,2004
1,1993,-0.681353705523868,-0.681353705523868,3,2004
2,1993,0.0741768762549054,0.0741768762549055,3,2004
3,1993,0.414611577019186,0.414611577019186,3,2004
4,1993,0.261858152603312,0.261858152603311,3,2004
1,1994,0.926615977675116,0.926615977675116,3,2004
2,1994,0.622827330399756,0.622827330399756,3,2004
3,1994,0.673429045106566,0.673429045106566,3,2004
4,1994,0.793428139660213,0.793428139660213,3,2004
1,1995,0.543190148325534,0.543190148325534,3,2004
2,1995,0.560899261164827,0.560899261164827,3,2004
3,1995,0.194694758814307,0.194694758814307,3,2004
4,1995,0.257817034525631,0.257817034525631,3,2004
1,1996,0.167136484306063,0.167136484306063,3,2004
2,1996,0.701495208446223,0.701495208446223,3,2004
3,1996,0.492912282101732,0.492912282101732,3,2004
4,1996,0.176762360459337,0.176762360459337,3,2004
1,1997,0.221221399424043,0.221221399424043,3,2004
2,1997,1.24602084634808,1.24602084634808,3,2004
3,1997,0.710414618835165,0.710414618835165,3,2004
4,1997,1.0190843142007,1.0190843142007,3,2004
1,1998,0.756654535432122,0.756654535432122,3,2004
2,1998,0.42711004837217,0.42711004837217,3,2004
3,1998,0.547783495554932,0.547783495554932,3,2004
4,1998,0.270827846214594,0.270827846214594,3,2004
1,1999,0.855979931025064,0.855979931025064,3,2004
2,1999,0.613272504085716,0.613272504085716,3,2004
3,1999,1.23379953815848,1.23379953815848,3,2004
4,1999,1.07682251080052,1.07682251080052,3,2004
1,2000,0.905060023128912,0.905060023128912,3,2004
2,2000,0.85967899125674,0.85967899125674,3,2004
3,2000,0.350007898767646,0.350007898767646,3,2004
4,2000,0.602393706200055,0.602393706200055,3,2004
1,2001,0.656374279133098,0.656374279133098,3,2004
2,2001,0.0356767071493236,0.0356767071493236,3,2004
3,2001,0.227512083316661,0.227512083316661,3,2004
4,2001,-0.199413204538001,-0.199413204538001,3,2004
1,2002,0.418359685617409,0.418359685617409,3,2004
2,2002,0.490078214954992,0.490078214954992,3,2004
3,2002,0.197534876500183,0.197534876500183,3,2004
4,2002,0.0331377751284778,0.0331377751284778,3,2004
1,2003,-0.0090042893471698,-0.00900428934716979,3,2004
2,2003,-0.0801090209338605,-0.0801090209338606,3,2004
3,2003,0.410574790731477,0.410574790731477,3,2004
4,2003,0.370896841982527,0.370896841982527,3,2004
1,2004,0.573005728109611,0.57300572810961,3,2004
2,2004,3.28468754943363,3.92867129601576,3,2004
3,2004,4.64052846009564,4.49940953891923,3,2004
4,2004,5.09247543031631,3.42440471583036,3,2004
1,2005,,1.8428410857595,3,2004
2,2005,,0.893902907716983,3,2004
3,2005,,0.419433818695724,3,2004
4,2005,,0.261277455688638,3,2004
2,1991,0.315372483049559,0.315372483354148,4,2004
3,1991,0.00873239328271786,0.00873239328271769,4,2004
4,1991,0.955568725352785,0.955568725352784,4,2004
1,1992,1.48582031236693,1.48582031236693,4,2004
2,1992,-0.764689645936823,-0.764689645936822,4,2004
3,1992,-0.273299212231737,-0.273299212231737,4,2004
4,1992,-0.220044348860804,-0.220044348860804,4,2004
1,1993,-0.679380759451586,-0.679380759451587,4,2004
2,1993,0.0774882755097517,0.0774882755097517,4,2004
3,1993,0.426431923114467,0.426431923114467,4,2004
4,1993,0.268673651653728,0.268673651653728,4,2004
1,1994,0.915751812132748,0.915751812132748,4,2004
2,1994,0.616601117178028,0.616601117178028,4,2004
3,1994,0.698104970093838,0.698104970093838,4,2004
4,1994,0.758731238211352,0.758731238211352,4,2004
1,1995,0.594966553657872,0.594966553657872,4,2004
2,1995,0.538295079063889,0.538295079063889,4,2004
3,1995,0.155354358709792,0.155354358709792,4,2004
4,1995,0.258589622287708,0.258589622287708,4,2004
1,1996,0.184532985271124,0.184532985271124,4,2004
2,1996,0.707590158226723,0.707590158226723,4,2004
3,1996,0.503476611437592,0.503476611437592,4,2004
4,1996,0.166365343816355,0.166365343816355,4,2004
1,1997,0.22730537870006,0.22730537870006,4,2004
2,1997,1.24192908122585,1.24192908122585,4,2004
3,1997,0.70750821950476,0.70750821950476,4,2004
4,1997,1.01697957508358,1.01697957508358,4,2004
1,1998,0.759421361896262,0.759421361896262,4,2004
2,1998,0.440355639639556,0.440355639639556,4,2004
3,1998,0.540211110531041,0.540211110531041,4,2004
4,1998,0.251298776876729,0.251298776876729,4,2004
1,1999,0.853348630445927,0.853348630445927,4,2004
2,1999,0.617881783692886,0.617881783692886,4,2004
3,1999,1.26142215395608,1.26142215395608,4,2004
4,1999,1.07852728226492,1.07852728226492,4,2004
1,2000,0.895562309521658,0.895562309521658,4,2004
2,2000,0.881068306216237,0.881068306216237,4,2004
3,2000,0.328228554233912,0.328228554233911,4,2004
4,2000,0.556434086777857,0.556434086777857,4,2004
1,2001,0.734129523930505,0.734129523930505,4,2004
2,2001,-0.0222535444036277,-0.0222535444036276,4,2004
3,2001,0.219641540115134,0.219641540115134,4,2004
4,2001,-0.16954093663607,-0.16954093663607,4,2004
1,2002,0.419539739950792,0.419539739950792,4,2004
2,2002,0.389369737717904,0.389369737717904,4,2004
3,2002,0.273910701657409,0.273910701657409,4,2004
4,2002,0.0416732873961045,0.0416732873961045,4,2004
1,2003,0.0109916196707527,0.0109916196707527,4,2004
2,2003,-0.177534880117614,-0.177534880117614,4,2004
3,2003,0.467999520994345,0.467999520994344,4,2004
4,2003,0.369139398480067,0.369139398480067,4,2004
1,2004,0.644163513312291,0.64416351331229,4,2004
2,2004,0.511330427556378,0.511330427556378,4,2004
3,2004,7.30245488352762,8.55885405671275,4,2004
4,2004,9.56616303551803,7.0401065309601,4,2004
1,2005,,1.78853727828747,4,2004
2,2005,,-1.36240427331611,4,2004
3,2005,,-2.9378750491179,4,2004
4,2005,,-3.46303197438516,4,2004
2,1991,0.318261262837784,0.318261266395808,1,2005
3,1991,0.0193741121679913,0.0193741121679911,1,2005
4,1991,0.964009961425849,0.964009961425849,1,2005
1,1992,1.46795354779887,1.46795354779887,1,2005
2,1992,-0.759768771304836,-0.759768771304837,1,2005
3,1992,-0.248280226114705,-0.248280226114705,1,2005
4,1992,-0.254619802649325,-0.254619802649325,1,2005
1,1993,-0.668977146222183,-0.668977146222183,1,2005
2,1993,0.0749875133555512,0.0749875133555512,1,2005
3,1993,0.426029576137466,0.426029576137466,1,2005
4,1993,0.275314891561962,0.275314891561962,1,2005
1,1994,0.907908873783647,0.907908873783648,1,2005
2,1994,0.620136860168019,0.620136860168019,1,2005
3,1994,0.724532452783877,0.724532452783877,1,2005
4,1994,0.717771151865176,0.717771151865176,1,2005
1,1995,0.629707788117218,0.629707788117218,1,2005
2,1995,0.525524913607023,0.525524913607023,1,2005
3,1995,0.162030337328178,0.162030337328178,1,2005
4,1995,0.248439725924698,0.248439725924698,1,2005
1,1996,0.221709812968873,0.221709812968873,1,2005
2,1996,0.708825647458111,0.708825647458111,1,2005
3,1996,0.491490872255485,0.491490872255485,1,2005
4,1996,0.152662893409916,0.152662893409916,1,2005
1,1997,0.276199954166545,0.276199954166545,1,2005
2,1997,1.22139213014252,1.22139213014252,1,2005
3,1997,0.681166548163059,0.681166548163059,1,2005
4,1997,1.02110933864117,1.02110933864117,1,2005
1,1998,0.770961793915559,0.770961793915559,1,2005
2,1998,0.425474483338006,0.425474483338006,1,2005
3,1998,0.558823002342068,0.558823002342068,1,2005
4,1998,0.239611796316441,0.239611796316441,1,2005
1,1999,0.891404651739536,0.891404651739536,1,2005
2,1999,0.598224698193417,0.598224698193417,1,2005
3,1999,1.24982116914978,1.24982116914978,1,2005
4,1999,1.1002422034381,1.1002422034381,1,2005
1,2000,0.889194794832049,0.889194794832049,1,2005
2,2000,0.899024488507716,0.899024488507716,1,2005
3,2000,0.342403551291381,0.342403551291381,1,2005
4,2000,0.532020390742605,0.532020390742605,1,2005
1,2001,0.753831844198705,0.753831844198705,1,2005
2,2001,-0.0110175790475897,-0.0110175790475898,1,2005
3,2001,0.191623738002655,0.191623738002655,1,2005
4,2001,-0.15281067829076,-0.15281067829076,1,2005
1,2002,0.449754603129926,0.449754603129926,1,2005
2,2002,0.376352601931518,0.376352601931518,1,2005
3,2002,0.294551928159081,0.294551928159081,1,2005
4,2002,0.0102808662801434,0.0102808662801434,1,2005
1,2003,0.0337231760034307,0.0337231760034307,1,2005
2,2003,-0.174479848175768,-0.174479848175768,1,2005
3,2003,0.530597931042665,0.530597931042665,1,2005
4,2003,0.394889352066197,0.394889352066197,1,2005
1,2004,0.656420430816462,0.656420430816462,1,2005
2,2004,0.468684503960404,0.468684503960404,1,2005
3,2004,0.265334749689306,0.265334749689305,1,2005
4,2004,1.25893938280408,1.38428360167416,1,2005
1,2005,2.02325063904622,2.1614218205132,1,2005
2,2005,2.4818373927915,2.48281252849118,1,2005
3,2005,2.71113076966415,2.48503201321796,1,2005
4,2005,2.78756189528836,2.3046565623034,1,2005
1,2006,,2.07826246335739,1,2005
2,2006,,1.94242600398977,1,2005
3,2006,,1.87450777430597,1,2005
4,2006,,1.85186836441137,1,2005
2,1991,0.331561708062567,0.331561710460276,2,2005
3,1991,-0.00262665404290302,-0.00262665404290319,2,2005
4,1991,0.909669460695661,0.909669460695661,2,2005
1,1992,1.3648294535644,1.3648294535644,2,2005
2,1992,-0.823867176147963,-0.823867176147963,2,2005
3,1992,-0.275750334274072,-0.275750334274072,2,2005
4,1992,-0.244533440870798,-0.244533440870798,2,2005
1,1993,-0.636022391057766,-0.636022391057767,2,2005
2,1993,0.101236479477329,0.101236479477329,2,2005
3,1993,0.437810823049189,0.43781082304919,2,2005
4,1993,0.277973464419246,0.277973464419246,2,2005
1,1994,0.896522151099854,0.896522151099854,2,2005
2,1994,0.623370144125057,0.623370144125057,2,2005
3,1994,0.732716558324009,0.732716558324009,2,2005
4,1994,0.741972939313196,0.741972939313196,2,2005
1,1995,0.665002134072501,0.665002134072501,2,2005
2,1995,0.542812193075259,0.542812193075259,2,2005
3,1995,0.16243610843194,0.16243610843194,2,2005
4,1995,0.237821831854079,0.237821831854079,2,2005
1,1996,0.194346926745537,0.194346926745537,2,2005
2,1996,0.696938275030989,0.696938275030989,2,2005
3,1996,0.496489573330194,0.496489573330194,2,2005
4,1996,0.167564536044629,0.167564536044629,2,2005
1,1997,0.306636207303113,0.306636207303113,2,2005
2,1997,1.24150799106835,1.24150799106835,2,2005
3,1997,0.680764685929991,0.680764685929991,2,2005
4,1997,1.00448002023952,1.00448002023952,2,2005
1,1998,0.738253306356729,0.738253306356729,2,2005
2,1998,0.3975723014642,0.3975723014642,2,2005
3,1998,0.535789820744737,0.535789820744737,2,2005
4,1998,0.207396799709736,0.207396799709736,2,2005
1,1999,0.85562176977767,0.85562176977767,2,2005
2,1999,0.58869570338882,0.58869570338882,2,2005
3,1999,1.26225055988138,1.26225055988138,2,2005
4,1999,1.13325063608023,1.13325063608023,2,2005
1,2000,0.9529764781123,0.9529764781123,2,2005
2,2000,0.933417921312829,0.933417921312829,2,2005
3,2000,0.359935917258381,0.359935917258381,2,2005
4,2000,0.548501138085356,0.548501138085356,2,2005
1,2001,0.750895972557997,0.750895972557997,2,2005
2,2001,-0.00805422598507677,-0.00805422598507688,2,2005
3,2001,0.195390170503962,0.195390170503962,2,2005
4,2001,-0.153732034045262,-0.153732034045262,2,2005
1,2002,0.467855948719364,0.467855948719365,2,2005
2,2002,0.377404699113981,0.377404699113981,2,2005
3,2002,0.303974130501494,0.303974130501494,2,2005
4,2002,0.00962768613899106,0.00962768613899101,2,2005
1,2003,0.0124385229944179,0.0124385229944179,2,2005
2,2003,-0.160445667448594,-0.160445667448594,2,2005
3,2003,0.560629294010884,0.560629294010884,2,2005
4,2003,0.425665080753168,0.425665080753168,2,2005
1,2004,0.731742346471576,0.731742346471576,2,2005
2,2004,0.471410327193911,0.471410327193911,2,2005
3,2004,0.245049953087229,0.245049953087229,2,2005
4,2004,0.154530604628156,0.154530604628156,2,2005
1,2005,1.66318719319223,1.92369143622668,2,2005
2,2005,2.56838114633068,2.68179402771999,2,2005
3,2005,3.02097812289991,2.72900823717591,2,2005
4,2005,3.17184378175631,2.36550392266229,2,2005
1,2006,,1.89145094224696,2,2005
2,2006,,1.60701915399776,2,2005
3,2006,,1.46480325987317,2,2005
4,2006,,1.41739796183163,2,2005
2,1991,0.135007499835085,0.13500749975763,3,2005
3,1991,0.0697082366148961,0.0697082366148961,3,2005
4,1991,0.95032504280006,0.95032504280006,3,2005
1,1992,1.19501607320536,1.19501607320536,3,2005
2,1992,-0.606119076426192,-0.606119076426192,3,2005
3,1992,-0.152003450468008,-0.152003450468008,3,2005
4,1992,-0.280763438333054,-0.280763438333054,3,2005
1,1993,-0.761368125531403,-0.761368125531403,3,2005
2,1993,0.17384690475617,0.173846904756169,3,2005
3,1993,0.458870789741694,0.458870789741694,3,2005
4,1993,0.2959029120579,0.2959029120579,3,2005
1,1994,0.850724073374742,0.850724073374742,3,2005
2,1994,0.727698778374863,0.727698778374863,3,2005
3,1994,0.794736195703427,0.794736195703427,3,2005
4,1994,0.777651992683337,0.777651992683337,3,2005
1,1995,0.658070377652331,0.658070377652331,3,2005
2,1995,0.670977847838161,0.670977847838161,3,2005
3,1995,0.265041479160177,0.265041479160178,3,2005
4,1995,0.151561340023698,0.151561340023698,3,2005
1,1996,0.155748257828825,0.155748257828825,3,2005
2,1996,0.77921419950433,0.77921419950433,3,2005
3,1996,0.493296516954866,0.493296516954866,3,2005
4,1996,0.206820110397499,0.206820110397499,3,2005
1,1997,0.420095427384548,0.420095427384548,3,2005
2,1997,1.28217839172129,1.28217839172129,3,2005
3,1997,0.701270134685395,0.701270134685395,3,2005
4,1997,1.02210252222406,1.02210252222406,3,2005
1,1998,0.787915541330531,0.787915541330531,3,2005
2,1998,0.364087294334859,0.364087294334858,3,2005
3,1998,0.524233643054228,0.524233643054228,3,2005
4,1998,0.131406836942105,0.131406836942105,3,2005
1,1999,0.886398697143154,0.886398697143154,3,2005
2,1999,0.597509911807981,0.597509911807981,3,2005
3,1999,1.23224517514007,1.23224517514007,3,2005
4,1999,1.19354986395313,1.19354986395313,3,2005
1,2000,1.01693058806187,1.01693058806187,3,2005
2,2000,0.885402609069907,0.885402609069907,3,2005
3,2000,0.440956338618981,0.440956338618981,3,2005
4,2000,0.667064379322135,0.667064379322135,3,2005
1,2001,0.687217134397611,0.687217134397611,3,2005
2,2001,0.0894969224389587,0.0894969224389587,3,2005
3,2001,0.185275132825025,0.185275132825025,3,2005
4,2001,-0.0396029571071208,-0.0396029571071209,3,2005
1,2002,0.3545269167055,0.3545269167055,3,2005
2,2002,0.388079564568278,0.388079564568278,3,2005
3,2002,0.409098641926664,0.409098641926664,3,2005
4,2002,0.0522569034369981,0.052256903436998,3,2005
1,2003,0.0445443375774568,0.0445443375774568,3,2005
2,2003,-0.113205854125686,-0.113205854125686,3,2005
3,2003,0.517597251119195,0.517597251119195,3,2005
4,2003,0.4699444341004,0.4699444341004,3,2005
1,2004,0.653746262177979,0.653746262177979,3,2005
2,2004,0.41221279803263,0.41221279803263,3,2005
3,2004,0.281000767483564,0.281000767483564,3,2005
4,2004,0.150226555284939,0.150226555284939,3,2005
1,2005,0.498434259589265,0.498434259589265,3,2005
2,2005,2.49001401091147,2.92684434279972,3,2005
3,2005,3.48580388657258,3.38778844154248,3,2005
4,2005,3.81773384512628,2.68056682547105,3,2005
1,2006,,1.60447976423895,3,2005
2,2006,,0.958827527499694,3,2005
3,2006,,0.636001409130064,3,2005
4,2006,,0.528392703006854,3,2005
2,1991,0.127186336574784,0.127186336620855,4,2005
3,1991,0.0995650909056068,0.0995650909056068,4,2005
4,1991,1.04701900681845,1.04701900681845,4,2005
1,1992,1.33838009085561,1.33838009085561,4,2005
2,1992,-0.556448095307316,-0.556448095307315,4,2005
3,1992,-0.201280601954956,-0.201280601954956,4,2005
4,1992,-0.404214986167761,-0.404214986167761,4,2005
1,1993,-1.00208023476939,-1.00208023476939,4,2005
2,1993,0.0578815121050404,0.05788151210504,4,2005
3,1993,0.428885469881912,0.428885469881912,4,2005
4,1993,0.384079201239751,0.384079201239751,4,2005
1,1994,1.04250129991172,1.04250129991172,4,2005
2,1994,0.825833238092444,0.825833238092444,4,2005
3,1994,0.859026429713072,0.859026429713072,4,2005
4,1994,0.803777469933786,0.803777469933786,4,2005
1,1995,0.64788030217442,0.64788030217442,4,2005
2,1995,0.668196337060789,0.668196337060789,4,2005
3,1995,0.264171249095879,0.264171249095879,4,2005
4,1995,0.150183359849621,0.150183359849621,4,2005
1,1996,0.135037286595563,0.135037286595563,4,2005
2,1996,0.80113750710209,0.80113750710209,4,2005
3,1996,0.485990852747076,0.485990852747076,4,2005
4,1996,0.209722550025759,0.209722550025759,4,2005
1,1997,0.415596526567574,0.415596526567574,4,2005
2,1997,1.28460871043581,1.28460871043581,4,2005
3,1997,0.693108310613266,0.693108310613267,4,2005
4,1997,1.0290102566707,1.0290102566707,4,2005
1,1998,0.770581481452903,0.770581481452903,4,2005
2,1998,0.373701418112859,0.37370141811286,4,2005
3,1998,0.528461944274938,0.528461944274938,4,2005
4,1998,0.136607320338822,0.136607320338822,4,2005
1,1999,0.830170953311082,0.830170953311082,4,2005
2,1999,0.634463081308256,0.634463081308257,4,2005
3,1999,1.2736407894562,1.2736407894562,4,2005
4,1999,1.2022859249619,1.2022859249619,4,2005
1,2000,0.989028306884743,0.989028306884743,4,2005
2,2000,0.906081978485607,0.906081978485606,4,2005
3,2000,0.418864266027108,0.418864266027108,4,2005
4,2000,0.614668630685533,0.614668630685533,4,2005
1,2001,0.677151507556672,0.677151507556672,4,2005
2,2001,0.0873744922839981,0.0873744922839982,4,2005
3,2001,0.174625719261301,0.174625719261301,4,2005
4,2001,-0.00540936678095072,-0.00540936678095061,4,2005
1,2002,0.255535377898131,0.255535377898131,4,2005
2,2002,0.40071839451743,0.40071839451743,4,2005
3,2002,0.391100171796865,0.391100171796865,4,2005
4,2002,0.0880973936248308,0.0880973936248309,4,2005
1,2003,0.0156193442996333,0.0156193442996333,4,2005
2,2003,-0.115608704501191,-0.115608704501191,4,2005
3,2003,0.576287488174532,0.576287488174532,4,2005
4,2003,0.463325178725116,0.463325178725116,4,2005
1,2004,0.636897746014009,0.636897746014009,4,2005
2,2004,0.454395720251943,0.454395720251944,4,2005
3,2004,0.260259351842019,0.26025935184202,4,2005
4,2004,0.179658583948883,0.179658583948885,4,2005
1,2005,0.374046171379661,0.374046171379664,4,2005
2,2005,0.291474441906869,0.291474441906873,4,2005
3,2005,5.13894756981039,5.96315888732865,4,2005
4,2005,6.75477194577822,5.08215720397783,4,2005
1,2006,,1.61770324753023,4,2005
2,2006,,-0.460969126338333,4,2005
3,2006,,-1.50030531327261,4,2005
4,2006,,-1.84675070891737,4,2005
2,1991,0.117926826570303,0.117926827151641,1,2006
3,1991,0.0620002789186503,0.0620002789186503,1,2006
4,1991,0.958578081411621,0.95857808141162,1,2006
1,1992,1.20518151219948,1.20518151219948,1,2006
2,1992,-0.587553027030807,-0.587553027030807,1,2006
3,1992,-0.167882285881082,-0.167882285881083,1,2006
4,1992,-0.283438118585744,-0.283438118585744,1,2006
1,1993,-0.760062633418101,-0.760062633418102,1,2006
2,1993,0.16821934746698,0.16821934746698,1,2006
3,1993,0.434651643523898,0.434651643523898,1,2006
4,1993,0.303657215423447,0.303657215423448,1,2006
1,1994,0.847389691783373,0.847389691783373,1,2006
2,1994,0.713017732661436,0.713017732661436,1,2006
3,1994,0.804807760722137,0.804807760722137,1,2006
4,1994,0.799392263393073,0.799392263393073,1,2006
1,1995,0.678125795656537,0.678125795656537,1,2006
2,1995,0.675199730131904,0.675199730131903,1,2006
3,1995,0.321284375975028,0.321284375975028,1,2006
4,1995,0.118292441157508,0.118292441157508,1,2006
1,1996,0.179686322674177,0.179686322674177,1,2006
2,1996,0.793154416234176,0.793154416234176,1,2006
3,1996,0.507138145057873,0.507138145057873,1,2006
4,1996,0.190025270279892,0.190025270279892,1,2006
1,1997,0.440775896795143,0.440775896795143,1,2006
2,1997,1.274999128248,1.274999128248,1,2006
3,1997,0.71855028195682,0.71855028195682,1,2006
4,1997,1.06279030914984,1.06279030914984,1,2006
1,1998,0.687350589932123,0.687350589932123,1,2006
2,1998,0.432117113289432,0.432117113289432,1,2006
3,1998,0.575254184773733,0.575254184773733,1,2006
4,1998,0.149554781287242,0.149554781287243,1,2006
1,1999,0.857457924500382,0.857457924500382,1,2006
2,1999,0.648745051367672,0.648745051367672,1,2006
3,1999,1.27782173625528,1.27782173625528,1,2006
4,1999,1.20811981832718,1.20811981832718,1,2006
1,2000,1.08514063255969,1.08514063255969,1,2006
2,2000,0.844169872100076,0.844169872100076,1,2006
3,2000,0.460010692873714,0.460010692873714,1,2006
4,2000,0.662209534082292,0.662209534082292,1,2006
1,2001,0.734694309196393,0.734694309196393,1,2006
2,2001,0.146958665372199,0.146958665372199,1,2006
3,2001,0.207674743119512,0.207674743119512,1,2006
4,2001,0.017128800062216,0.0171288000622162,1,2006
1,2002,0.297819236551256,0.297819236551256,1,2006
2,2002,0.392381610562476,0.392381610562476,1,2006
3,2002,0.380030845121837,0.380030845121837,1,2006
4,2002,0.0943268160892075,0.0943268160892076,1,2006
1,2003,0.0679707067932966,0.0679707067932966,1,2006
2,2003,-0.111248429971478,-0.111248429971477,1,2006
3,2003,0.56136867457699,0.56136867457699,1,2006
4,2003,0.442842170307944,0.442842170307944,1,2006
1,2004,0.70180405419491,0.70180405419491,1,2006
2,2004,0.436345993579335,0.436345993579335,1,2006
3,2004,0.285153667091809,0.285153667091809,1,2006
4,2004,0.190553149082451,0.190553149082451,1,2006
1,2005,0.323831958129839,0.323831958129839,1,2006
2,2005,0.397740715678374,0.397740715678374,1,2006
3,2005,0.632585144710318,0.632585144710318,1,2006
4,2005,1.51829569625718,1.70768434072569,1,2006
1,2006,2.19961150513939,2.40834365912144,1,2006
2,2006,2.60840099046871,2.60974980735769,1,2006
3,2006,2.81279573313337,2.470933178412,1,2006
4,2006,2.88092731402159,2.15092416526194,1,2006
1,2007,,1.80875316088506,1,2006
2,2007,,1.60345055825894,1,2006
3,2007,,1.50079925694587,1,2006
4,2007,,1.46658215650819,1,2006
2,1991,0.117926829928442,0.117926830753689,2,2006
3,1991,0.0620002685569385,0.062000268556939,2,2006
4,1991,0.958578081275707,0.958578081275707,2,2006
1,1992,1.20518152536646,1.20518152536646,2,2006
2,1992,-0.587553070368396,-0.587553070368396,2,2006
3,1992,-0.167882305352707,-0.167882305352707,2,2006
4,1992,-0.283438058462127,-0.283438058462127,2,2006
1,1993,-0.760062671850514,-0.760062671850514,2,2006
2,1993,0.168219362628941,0.168219362628941,2,2006
3,1993,0.434651616155746,0.434651616155746,2,2006
4,1993,0.303657241079458,0.303657241079458,2,2006
1,1994,0.847389686281974,0.847389686281974,2,2006
2,1994,0.713017748954026,0.713017748954026,2,2006
3,1994,0.80480774863374,0.80480774863374,2,2006
4,1994,0.79939222668759,0.79939222668759,2,2006
1,1995,0.678125829786858,0.678125829786858,2,2006
2,1995,0.699003299583434,0.699003299583434,2,2006
3,1995,0.323931023053414,0.323931023053414,2,2006
4,1995,0.111834398136934,0.111834398136934,2,2006
1,1996,0.103719984188944,0.103719984188944,2,2006
2,1996,0.814469781017957,0.814469781017957,2,2006
3,1996,0.506909442342662,0.506909442342662,2,2006
4,1996,0.184645740261047,0.184645740261047,2,2006
1,1997,0.421425762516137,0.421425762516137,2,2006
2,1997,1.27033586987444,1.27033586987444,2,2006
3,1997,0.710720716564728,0.710720716564728,2,2006
4,1997,1.06084014970405,1.06084014970405,2,2006
1,1998,0.635850221302126,0.635850221302126,2,2006
2,1998,0.420768148319395,0.420768148319395,2,2006
3,1998,0.57176212242025,0.57176212242025,2,2006
4,1998,0.151804071670214,0.151804071670214,2,2006
1,1999,0.888142515101187,0.888142515101187,2,2006
2,1999,0.657198970469519,0.657198970469519,2,2006
3,1999,1.28379754941752,1.28379754941752,2,2006
4,1999,1.22873484098132,1.22873484098132,2,2006
1,2000,1.15034020843547,1.15034020843547,2,2006
2,2000,0.862388408388748,0.862388408388748,2,2006
3,2000,0.45422330338929,0.45422330338929,2,2006
4,2000,0.659014064720775,0.659014064720775,2,2006
1,2001,0.743934639821786,0.743934639821786,2,2006
2,2001,0.136613386584106,0.136613386584106,2,2006
3,2001,0.207721474695011,0.207721474695011,2,2006
4,2001,0.0265666615389737,0.0265666615389737,2,2006
1,2002,0.271794386972668,0.271794386972668,2,2006
2,2002,0.396551707867987,0.396551707867987,2,2006
3,2002,0.391794269990453,0.391794269990453,2,2006
4,2002,0.107248081613443,0.107248081613442,2,2006
1,2003,0.0223786365544098,0.0223786365544098,2,2006
2,2003,-0.114680219604069,-0.114680219604069,2,2006
3,2003,0.560534202479768,0.560534202479768,2,2006
4,2003,0.454048943742724,0.454048943742724,2,2006
1,2004,0.659283159166013,0.659283159166013,2,2006
2,2004,0.434432370280158,0.434432370280158,2,2006
3,2004,0.287778840708164,0.287778840708164,2,2006
4,2004,0.192648229850234,0.192648229850234,2,2006
1,2005,0.278919109150477,0.278919109150477,2,2006
2,2005,0.442406615752966,0.442406615752966,2,2006
3,2005,0.667825356086005,0.667825356086005,2,2006
4,2005,0.256782725013416,0.256782725013416,2,2006
1,2006,2.1874035355747,2.68492428792957,2,2006
2,2006,3.34577602191147,3.562581859498,2,2006
3,2006,3.92496226507986,3.36788071352146,2,2006
4,2006,4.11802434613599,2.5789461238027,2,2006
1,2007,,1.67390336414448,2,2006
2,2007,,1.13087770834955,2,2006
3,2007,,0.859364880452085,2,2006
4,2007,,0.768860604486263,2,2006
2,1991,0.117926826505999,0.117926826505999,3,2006
3,1991,0.0620003070858519,0.0620003070858519,3,2006
4,1991,0.95857806188413,0.95857806188413,3,2006
1,1992,1.20518151369797,1.20518151369797,3,2006
2,1992,-0.587553053391321,-0.587553053391321,3,2006
3,1992,-0.16788225966412,-0.16788225966412,3,2006
4,1992,-0.283438096842026,-0.283438096842026,3,2006
1,1993,-0.76006262826609,-0.76006262826609,3,2006
2,1993,0.168219293164817,0.168219293164818,3,2006
3,1993,0.434651696588562,0.434651696588562,3,2006
4,1993,0.3036572059681,0.3036572059681,3,2006
1,1994,0.847389685720912,0.847389685720912,3,2006
2,1994,0.713017699861873,0.713017699861873,3,2006
3,1994,0.804807785459549,0.804807785459549,3,2006
4,1994,0.799392273608035,0.799392273608035,3,2006
1,1995,0.678125775435157,0.678125775435157,3,2006
2,1995,0.669916651293789,0.669916651293789,3,2006
3,1995,0.348196491514075,0.348196491514074,3,2006
4,1995,0.187100236097915,0.187100236097915,3,2006
1,1996,0.0549667102640148,0.0549667102640148,3,2006
2,1996,0.812290076863453,0.812290076863453,3,2006
3,1996,0.48342862017452,0.48342862017452,3,2006
4,1996,0.180299408814877,0.180299408814877,3,2006
1,1997,0.585396151422457,0.585396151422457,3,2006
2,1997,1.06590207726089,1.06590207726089,3,2006
3,1997,0.714447175880251,0.714447175880251,3,2006
4,1997,0.992244474402182,0.992244474402182,3,2006
1,1998,0.69677785775446,0.69677785775446,3,2006
2,1998,0.389419833269478,0.389419833269478,3,2006
3,1998,0.576854970890728,0.576854970890728,3,2006
4,1998,0.172386300808647,0.172386300808647,3,2006
1,1999,0.901067484922802,0.901067484922802,3,2006
2,1999,0.660275513184216,0.660275513184216,3,2006
3,1999,1.28301333457865,1.28301333457865,3,2006
4,1999,1.20024551491538,1.20024551491538,3,2006
1,2000,1.17854114359335,1.17854114359335,3,2006
2,2000,0.923604006856138,0.923604006856138,3,2006
3,2000,0.451757071082559,0.451757071082559,3,2006
4,2000,0.711292246911466,0.711292246911466,3,2006
1,2001,0.8197133604676,0.8197133604676,3,2006
2,2001,0.0987860256312699,0.09878602563127,3,2006
3,2001,0.0972296575926235,0.0972296575926235,3,2006
4,2001,0.0409450007808898,0.0409450007808898,3,2006
1,2002,0.336278652915745,0.336278652915745,3,2006
2,2002,0.406907417612978,0.406907417612978,3,2006
3,2002,0.391035636118642,0.391035636118642,3,2006
4,2002,0.0433097660872406,0.0433097660872405,3,2006
1,2003,0.14400599555422,0.14400599555422,3,2006
2,2003,-0.0686522297905334,-0.0686522297905334,3,2006
3,2003,0.508156036116847,0.508156036116847,3,2006
4,2003,0.445699782066789,0.445699782066789,3,2006
1,2004,0.77106035568586,0.77106035568586,3,2006
2,2004,0.413199835103928,0.413199835103928,3,2006
3,2004,0.250814013171619,0.250814013171619,3,2006
4,2004,0.135134658039093,0.135134658039093,3,2006
1,2005,0.354975155889004,0.354975155889004,3,2006
2,2005,0.404361127271047,0.404361127271047,3,2006
3,2005,0.653957027108154,0.653957027108154,3,2006
4,2005,0.287940594177427,0.287940594177427,3,2006
1,2006,0.587724087195583,0.587724087195583,3,2006
2,2006,3.9756834057843,4.94627821470263,3,2006
3,2006,5.66966306507866,5.45927501081506,3,2006
4,2006,6.23432295151011,3.725953636977,3,2006
1,2007,,1.34555325463258,3,2006
2,2007,,-0.0826869747740693,3,2006
3,2007,,-0.796807089477395,3,2006
4,2007,,-1.03484712771184,3,2006
2,1991,0.117926831062997,0.11792683098768,4,2006
3,1991,0.0620002771513974,0.062000277151397,4,2006
4,1991,0.95857803524666,0.95857803524666,4,2006
1,1992,1.20518153629008,1.20518153629008,4,2006
2,1992,-0.58755298725337,-0.58755298725337,4,2006
3,1992,-0.167882320520463,-0.167882320520463,4,2006
4,1992,-0.283438102830957,-0.283438102830957,4,2006
1,1993,-0.760062614087109,-0.76006261408711,4,2006
2,1993,0.16821932760378,0.16821932760378,4,2006
3,1993,0.434651618613335,0.434651618613335,4,2006
4,1993,0.303657238578681,0.303657238578681,4,2006
1,1994,0.84738971065168,0.847389710651681,4,2006
2,1994,0.713017724890808,0.713017724890808,4,2006
3,1994,0.804807724642376,0.804807724642376,4,2006
4,1994,0.799392281433375,0.799392281433375,4,2006
1,1995,0.678125791743023,0.678125791743023,4,2006
2,1995,0.612961579406957,0.612961579406957,4,2006
3,1995,0.351745742137277,0.351745742137277,4,2006
4,1995,0.227075032012292,0.227075032012292,4,2006
1,1996,0.00365843784797559,0.00365843784797509,4,2006
2,1996,0.82187476912976,0.82187476912976,4,2006
3,1996,0.49367751068341,0.49367751068341,4,2006
4,1996,0.208750507288325,0.208750507288325,4,2006
1,1997,0.509086611474197,0.509086611474197,4,2006
2,1997,1.13530045381049,1.1353004538105,4,2006
3,1997,0.713658583635191,0.71365858363519,4,2006
4,1997,0.987134337687578,0.987134337687579,4,2006
1,1998,0.706894393692825,0.706894393692825,4,2006
2,1998,0.394356698339205,0.394356698339204,4,2006
3,1998,0.582809256109051,0.582809256109052,4,2006
4,1998,0.191423340699348,0.191423340699348,4,2006
1,1999,0.889818117213514,0.889818117213515,4,2006
2,1999,0.66559472827592,0.66559472827592,4,2006
3,1999,1.27382150762176,1.27382150762176,4,2006
4,1999,1.23961591838531,1.23961591838531,4,2006
1,2000,1.1468427133734,1.1468427133734,4,2006
2,2000,0.91814523993492,0.91814523993492,4,2006
3,2000,0.463034930233253,0.463034930233252,4,2006
4,2000,0.717857349786288,0.717857349786288,4,2006
1,2001,0.783812011343254,0.783812011343255,4,2006
2,2001,0.0932309196265636,0.0932309196265635,4,2006
3,2001,0.063030418044252,0.063030418044252,4,2006
4,2001,0.088138967854845,0.088138967854845,4,2006
1,2002,0.235226882904183,0.235226882904183,4,2006
2,2002,0.419028475672856,0.419028475672856,4,2006
3,2002,0.382615910761563,0.382615910761563,4,2006
4,2002,0.0425138457750275,0.0425138457750274,4,2006
1,2003,0.160722378690736,0.160722378690736,4,2006
2,2003,-0.107801492282611,-0.107801492282611,4,2006
3,2003,0.52856455294128,0.52856455294128,4,2006
4,2003,0.449389994098759,0.449389994098759,4,2006
1,2004,0.699975554097176,0.699975554097177,4,2006
2,2004,0.331875760451528,0.331875760451528,4,2006
3,2004,0.231271476082462,0.231271476082462,4,2006
4,2004,0.216594218518917,0.216594218518917,4,2006
1,2005,0.423841823429494,0.423841823429494,4,2006
2,2005,0.401385852324233,0.401385852324233,4,2006
3,2005,0.598768701452014,0.59876870145201,4,2006
4,2005,0.349185543240928,0.349185543240929,4,2006
1,2006,0.7830343012629,0.783034301262891,4,2006
2,2006,0.882348130038184,0.882348130038183,4,2006
3,2006,9.86966683211552,11.6982131158887,4,2006
4,2006,12.865439732808,9.20109104976306,4,2006
1,2007,,1.57307805633494,4,2006
2,2007,,-3.00372973972194,4,2006
3,2007,,-5.29213363775038,4,2006
4,2007,,-6.05493493709319,4,2006
2,1991,0.11792682751111,0.11792682662612,1,2007
3,1991,0.062000278675689,0.0620002786756888,1,2007
4,1991,0.958578081614059,0.958578081614059,1,2007
1,1992,1.20518151158076,1.20518151158076,1,2007
2,1992,-0.587553026663256,-0.587553026663256,1,2007
3,1992,-0.167882285787713,-0.167882285787713,1,2007
4,1992,-0.283438118934609,-0.283438118934609,1,2007
1,1993,-0.760062632925085,-0.760062632925085,1,2007
2,1993,0.168219347464826,0.168219347464826,1,2007
3,1993,0.434651643301875,0.434651643301875,1,2007
4,1993,0.303657215288555,0.303657215288555,1,2007
1,1994,0.847389691610645,0.847389691610645,1,2007
2,1994,0.713017732627375,0.713017732627375,1,2007
3,1994,0.804807760832627,0.804807760832627,1,2007
4,1994,0.799392263403465,0.799392263403465,1,2007
1,1995,0.678125795820228,0.678125795820228,1,2007
2,1995,0.655197320881995,0.655197320881995,1,2007
3,1995,0.345878660799204,0.345878660799204,1,2007
4,1995,0.242255520203361,0.242255520203361,1,2007
1,1996,0.0174043020380488,0.0174043020380489,1,2007
2,1996,0.796927070833742,0.796927070833742,1,2007
3,1996,0.485947405210307,0.485947405210307,1,2007
4,1996,0.221529430049761,0.221529430049761,1,2007
1,1997,0.503058773500409,0.503058773500409,1,2007
2,1997,1.12412544020797,1.12412544020797,1,2007
3,1997,0.717934505516849,0.717934505516849,1,2007
4,1997,0.99691336644665,0.99691336644665,1,2007
1,1998,0.65102460275861,0.65102460275861,1,2007
2,1998,0.404983429327732,0.404983429327732,1,2007
3,1998,0.602461825891343,0.602461825891343,1,2007
4,1998,0.221608619235125,0.221608619235125,1,2007
1,1999,0.872471858557633,0.872471858557633,1,2007
2,1999,0.666704952628106,0.666704952628106,1,2007
3,1999,1.23747564937453,1.23747564937453,1,2007
4,1999,1.22865674321559,1.22865674321559,1,2007
1,2000,1.17953452800879,1.17953452800879,1,2007
2,2000,0.897614296392013,0.897614296392013,1,2007
3,2000,0.469160857712314,0.469160857712314,1,2007
4,2000,0.707311627157692,0.707311627157692,1,2007
1,2001,0.769882716389425,0.769882716389425,1,2007
2,2001,0.119591056709023,0.119591056709023,1,2007
3,2001,0.0531069951112739,0.0531069951112739,1,2007
4,2001,0.101040745800729,0.101040745800729,1,2007
1,2002,0.210087641442303,0.210087641442303,1,2007
2,2002,0.417268448925223,0.417268448925223,1,2007
3,2002,0.409589280543154,0.409589280543154,1,2007
4,2002,0.0396273447801355,0.0396273447801355,1,2007
1,2003,0.12431588366324,0.12431588366324,1,2007
2,2003,-0.100000009805112,-0.100000009805112,1,2007
3,2003,0.545316651532812,0.545316651532812,1,2007
4,2003,0.465527090095708,0.465527090095708,1,2007
1,2004,0.714264979033397,0.714264979033397,1,2007
2,2004,0.325281368128061,0.325281368128061,1,2007
3,2004,0.235698762345749,0.235698762345749,1,2007
4,2004,0.216895133069128,0.216895133069128,1,2007
1,2005,0.39741707731058,0.39741707731058,1,2007
2,2005,0.359592409175913,0.359592409175913,1,2007
3,2005,0.645016343955818,0.645016343955818,1,2007
4,2005,0.376618962275566,0.376618962275566,1,2007
1,2006,0.82248361834727,0.82248361834727,1,2007
2,2006,0.990403225789205,0.990403225789205,1,2007
3,2006,0.526677962375466,0.526677962375466,1,2007
4,2006,1.57664095336236,1.78543784689179,1,2007
1,2007,2.38430479258305,2.61443105563769,1,2007
2,2007,2.86890309611546,2.87040203002302,1,2007
3,2007,3.11120224788167,2.73432897721014,1,2007
4,2007,3.19196863180374,2.38719010436143,1,2007
1,2008,,2.00996361863922,1,2007
2,2008,,1.7836277272059,1,2007
3,2008,,1.67045978148924,1,2007
4,2008,,1.63273713291702,1,2007
2,1991,0.117926826840842,0.117926826840842,2,2007
3,1991,0.0620002790931551,0.0620002790931549,2,2007
4,1991,0.9585780814936,0.9585780814936,2,2007
1,1992,1.20518151158859,1.20518151158859,2,2007
2,1992,-0.587553026591014,-0.587553026591015,2,2007
3,1992,-0.167882286174692,-0.167882286174692,2,2007
4,1992,-0.283438118095203,-0.283438118095203,2,2007
1,1993,-0.760062633571401,-0.760062633571401,2,2007
2,1993,0.168219346954857,0.168219346954857,2,2007
3,1993,0.434651643773965,0.434651643773965,2,2007
4,1993,0.303657215144915,0.303657215144915,2,2007
1,1994,0.847389691991718,0.847389691991718,2,2007
2,1994,0.713017732940591,0.713017732940591,2,2007
3,1994,0.804807760583826,0.804807760583826,2,2007
4,1994,0.799392263527277,0.799392263527277,2,2007
1,1995,0.678125795531215,0.678125795531215,2,2007
2,1995,0.658021389684094,0.658021389684094,2,2007
3,1995,0.34238323169371,0.34238323169371,2,2007
4,1995,0.253300485842156,0.253300485842156,2,2007
1,1996,0.0167120883617589,0.0167120883617587,2,2007
2,1996,0.79108089674631,0.79108089674631,2,2007
3,1996,0.478569631250458,0.478569631250458,2,2007
4,1996,0.226686462569892,0.226686462569892,2,2007
1,1997,0.49988978666915,0.49988978666915,2,2007
2,1997,1.12749200242712,1.12749200242712,2,2007
3,1997,0.724817034750847,0.724817034750846,2,2007
4,1997,0.989874067645902,0.989874067645902,2,2007
1,1998,0.644364643155049,0.644364643155049,2,2007
2,1998,0.411510889580313,0.411510889580313,2,2007
3,1998,0.60829451456319,0.60829451456319,2,2007
4,1998,0.21998664393581,0.21998664393581,2,2007
1,1999,0.870449571761234,0.870449571761234,2,2007
2,1999,0.671342616346227,0.671342616346227,2,2007
3,1999,1.23635571071801,1.23635571071801,2,2007
4,1999,1.21362053131702,1.21362053131702,2,2007
1,2000,1.19383924784859,1.19383924784859,2,2007
2,2000,0.894824253486948,0.894824253486948,2,2007
3,2000,0.466076020194328,0.466076020194328,2,2007
4,2000,0.708420562654233,0.708420562654233,2,2007
1,2001,0.76976471916137,0.76976471916137,2,2007
2,2001,0.11558352374097,0.11558352374097,2,2007
3,2001,0.0607447999564803,0.0607447999564803,2,2007
4,2001,0.10361271507342,0.10361271507342,2,2007
1,2002,0.204090114146882,0.204090114146882,2,2007
2,2002,0.42136171723326,0.42136171723326,2,2007
3,2002,0.397695085035998,0.397695085035998,2,2007
4,2002,0.0534671858948066,0.0534671858948066,2,2007
1,2003,0.125691412340667,0.125691412340667,2,2007
2,2003,-0.0962199742391312,-0.0962199742391312,2,2007
3,2003,0.545499181467202,0.545499181467202,2,2007
4,2003,0.459380981463409,0.459380981463409,2,2007
1,2004,0.747233846004614,0.747233846004614,2,2007
2,2004,0.32243902508482,0.32243902508482,2,2007
3,2004,0.241197065952825,0.241197065952825,2,2007
4,2004,0.216269200983832,0.216269200983832,2,2007
1,2005,0.412922602930288,0.412922602930288,2,2007
2,2005,0.373485412586483,0.373485412586483,2,2007
3,2005,0.645557973808808,0.645557973808808,2,2007
4,2005,0.356841226632487,0.356841226632487,2,2007
1,2006,0.8323526929084,0.8323526929084,2,2007
2,2006,0.985760796677138,0.985760796677138,2,2007
3,2006,0.583299953997662,0.583299953997662,2,2007
4,2006,0.886188364497009,0.886188364497009,2,2007
1,2007,2.65114919000509,3.14017493059723,2,2007
2,2007,3.71012568530993,3.92309236685752,2,2007
3,2007,4.23961393296236,3.69168834689411,2,2007
4,2007,4.41611001551316,2.90271054432318,2,2007
1,2008,,2.01290663276094,2,2007
2,2008,,1.4790242858236,2,2007
3,2008,,1.21208311235493,2,2007
4,2008,,1.1231027211987,2,2007
2,1991,0.117926826725005,0.117926826840842,3,2007
3,1991,0.0620002790931549,0.0620002790931552,3,2007
4,1991,0.9585780814936,0.9585780814936,3,2007
1,1992,1.20518151158859,1.20518151158859,3,2007
2,1992,-0.587553026591015,-0.587553026591015,3,2007
3,1992,-0.167882286174692,-0.167882286174692,3,2007
4,1992,-0.283438118095203,-0.283438118095203,3,2007
1,1993,-0.760062633571401,-0.760062633571401,3,2007
2,1993,0.168219346954857,0.168219346954857,3,2007
3,1993,0.434651643773965,0.434651643773964,3,2007
4,1993,0.303657215144915,0.303657215144915,3,2007
1,1994,0.847389691991718,0.847389691991718,3,2007
2,1994,0.713017732940591,0.713017732940591,3,2007
3,1994,0.804807760583826,0.804807760583826,3,2007
4,1994,0.799392263527277,0.799392263527277,3,2007
1,1995,0.678125795531215,0.678125795531215,3,2007
2,1995,0.640354144130928,0.640354144130928,3,2007
3,1995,0.376817070307212,0.376817070307212,3,2007
4,1995,0.294017160243865,0.294017160243865,3,2007
1,1996,-0.0264861934533122,-0.0264861934533121,3,2007
2,1996,0.777280187352791,0.777280187352791,3,2007
3,1996,0.518427803892663,0.518427803892663,3,2007
4,1996,0.216945087414255,0.216945087414255,3,2007
1,1997,0.470503826822566,0.470503826822566,3,2007
2,1997,1.18138196401938,1.18138196401938,3,2007
3,1997,0.7009172889892,0.7009172889892,3,2007
4,1997,0.9946330512695,0.9946330512695,3,2007
1,1998,0.625806454064426,0.625806454064426,3,2007
2,1998,0.43491194416736,0.43491194416736,3,2007
3,1998,0.604808295507175,0.604808295507175,3,2007
4,1998,0.233890564110095,0.233890564110095,3,2007
1,1999,0.868856087190162,0.868856087190162,3,2007
2,1999,0.693869150333759,0.693869150333759,3,2007
3,1999,1.22667821932421,1.22667821932421,3,2007
4,1999,1.21200801800567,1.21200801800567,3,2007
1,2000,1.17501513661187,1.17501513661187,3,2007
2,2000,0.906831754038318,0.906831754038318,3,2007
3,2000,0.453671031334091,0.453671031334091,3,2007
4,2000,0.682389351645907,0.682389351645907,3,2007
1,2001,0.7843391359319,0.7843391359319,3,2007
2,2001,0.0963807605173671,0.0963807605173672,3,2007
3,2001,0.0913183617402336,0.0913183617402336,3,2007
4,2001,0.134593712653386,0.134593712653386,3,2007
1,2002,0.192166038940589,0.192166038940589,3,2007
2,2002,0.410965299256194,0.410965299256194,3,2007
3,2002,0.38797179148522,0.38797179148522,3,2007
4,2002,0.0420078557005432,0.0420078557005432,3,2007
1,2003,0.145842510573035,0.145842510573035,3,2007
2,2003,-0.0894684889247821,-0.0894684889247821,3,2007
3,2003,0.520001860630703,0.520001860630703,3,2007
4,2003,0.494368887227115,0.494368887227115,3,2007
1,2004,0.739908114634336,0.739908114634336,3,2007
2,2004,0.327316702643698,0.327316702643699,3,2007
3,2004,0.288860649931433,0.288860649931433,3,2007
4,2004,0.247138675486203,0.247138675486203,3,2007
1,2005,0.449224037148244,0.449224037148244,3,2007
2,2005,0.43133407904703,0.43133407904703,3,2007
3,2005,0.631277157873011,0.631277157873011,3,2007
4,2005,0.394660078070941,0.394660078070941,3,2007
1,2006,0.883915950589276,0.883915950589276,3,2007
2,2006,0.935283150093591,0.935283150093591,3,2007
3,2006,0.595405507854752,0.595405507854752,3,2007
4,2006,0.865588202088663,0.865588202088663,3,2007
1,2007,0.603043270111471,0.603043270111471,3,2007
2,2007,4.87280457503539,6.06009241335007,3,2007
3,2007,7.00768522749735,6.75186628891924,3,2007
4,2007,7.71931211165133,4.65474249957549,3,2007
1,2008,,1.74509864807531,3,2007
2,2008,,-0.000687662824796043,3,2007
3,2008,,-0.873580818274849,3,2007
4,2008,,-1.16454520342487,3,2007
2,1991,0.117926826840842,0.117926826840842,4,2007
3,1991,0.0620002790931552,0.0620002790931549,4,2007
4,1991,0.9585780814936,0.958578081493599,4,2007
1,1992,1.20518151158859,1.20518151158859,4,2007
2,1992,-0.587553026591015,-0.587553026591014,4,2007
3,1992,-0.167882286174692,-0.167882286174692,4,2007
4,1992,-0.283438118095203,-0.283438118095203,4,2007
1,1993,-0.760062633571401,-0.760062633571401,4,2007
2,1993,0.168219346954857,0.168219346954856,4,2007
3,1993,0.434651643773965,0.434651643773965,4,2007
4,1993,0.303657215144915,0.303657215144915,4,2007
1,1994,0.847389691991718,0.847389691991718,4,2007
2,1994,0.713017732940591,0.713017732940591,4,2007
3,1994,0.804807760583826,0.804807760583826,4,2007
4,1994,0.799392263527277,0.799392263527277,4,2007
1,1995,0.678125795531215,0.678125795531215,4,2007
2,1995,0.621856202849869,0.621856202849869,4,2007
3,1995,0.371807585822537,0.371807585822537,4,2007
4,1995,0.25629298986849,0.25629298986849,4,2007
1,1996,0.0197910219514431,0.0197910219514431,4,2007
2,1996,0.736399365723051,0.736399365723051,4,2007
3,1996,0.536549449663926,0.536549449663926,4,2007
4,1996,0.248987822300406,0.248987822300406,4,2007
1,1997,0.423774680895273,0.423774680895273,4,2007
2,1997,1.22497909279258,1.22497909279258,4,2007
3,1997,0.678567995525659,0.678567995525659,4,2007
4,1997,0.999698099386936,0.999698099386936,4,2007
1,1998,0.628139157333307,0.628139157333307,4,2007
2,1998,0.446900392591409,0.446900392591409,4,2007
3,1998,0.551996081791217,0.551996081791217,4,2007
4,1998,0.26998254217494,0.26998254217494,4,2007
1,1999,0.901459413781058,0.901459413781058,4,2007
2,1999,0.666605286982902,0.666605286982902,4,2007
3,1999,1.21528052680127,1.21528052680127,4,2007
4,1999,1.1920288193586,1.1920288193586,4,2007
1,2000,1.14424891646745,1.14424891646745,4,2007
2,2000,0.963126802245307,0.963126802245307,4,2007
3,2000,0.476136473983391,0.476136473983391,4,2007
4,2000,0.678862895547305,0.678862895547305,4,2007
1,2001,0.784684493271182,0.784684493271182,4,2007
2,2001,0.0860109697302879,0.0860109697302881,4,2007
3,2001,0.0803702557170549,0.0803702557170549,4,2007
4,2001,0.108023572015958,0.108023572015958,4,2007
1,2002,0.215860564039683,0.215860564039683,4,2007
2,2002,0.452912331552824,0.452912331552824,4,2007
3,2002,0.360079728484242,0.360079728484242,4,2007
4,2002,-0.00935137849323869,-0.00935137849323858,4,2007
1,2003,0.13743037087186,0.13743037087186,4,2007
2,2003,-0.0458348741570469,-0.0458348741570468,4,2007
3,2003,0.546549223269865,0.546549223269865,4,2007
4,2003,0.456762247064946,0.456762247064946,4,2007
1,2004,0.651469678498629,0.651469678498629,4,2007
2,2004,0.393223600597947,0.393223600597947,4,2007
3,2004,0.339224817852135,0.339224817852135,4,2007
4,2004,0.234186982857332,0.234186982857332,4,2007
1,2005,0.324505212520188,0.324505212520188,4,2007
2,2005,0.525702352770141,0.525702352770141,4,2007
3,2005,0.65893955615004,0.65893955615004,4,2007
4,2005,0.359734619324281,0.359734619324281,4,2007
1,2006,0.882218845377847,0.882218845377847,4,2007
2,2006,0.982176448789662,0.982176448789663,4,2007
3,2006,0.568428934926924,0.568428934926925,4,2007
4,2006,0.873978288043231,0.873978288043234,4,2007
1,2007,0.706721865143735,0.706721865143737,4,2007
2,2007,0.349289557612065,0.349289557612068,4,2007
3,2007,9.75121502183153,11.56396193419,4,2007
4,2007,12.8851901765713,9.25112323942437,4,2007
1,2008,,1.68729471405992,4,2007
2,2008,,-2.85100240115874,4,2007
3,2008,,-5.12015095876808,4,2007
4,2008,,-5.87653381130452,4,2007
2,1991,0.117926826840842,0.117926826840842,1,2008
3,1991,0.0620002790931552,0.0620002790931551,1,2008
4,1991,0.9585780814936,0.9585780814936,1,2008
1,1992,1.20518151158859,1.20518151158859,1,2008
2,1992,-0.587553026591015,-0.587553026591015,1,2008
3,1992,-0.167882286174692,-0.167882286174692,1,2008
4,1992,-0.283438118095203,-0.283438118095203,1,2008
1,1993,-0.760062633571401,-0.760062633571401,1,2008
2,1993,0.168219346954857,0.168219346954857,1,2008
3,1993,0.434651643773965,0.434651643773965,1,2008
4,1993,0.303657215144915,0.303657215144915,1,2008
1,1994,0.847389691991718,0.847389691991718,1,2008
2,1994,0.713017732940591,0.713017732940591,1,2008
3,1994,0.804807760583826,0.804807760583826,1,2008
4,1994,0.799392263527277,0.799392263527277,1,2008
1,1995,0.678125795531215,0.678125795531215,1,2008
2,1995,0.573275206342494,0.573275206342494,1,2008
3,1995,0.32427286535206,0.32427286535206,1,2008
4,1995,0.281282387518944,0.281282387518944,1,2008
1,1996,0.0539858764037949,0.0539858764037948,1,2008
2,1996,0.729236196518279,0.729236196518279,1,2008
3,1996,0.532817850441947,0.532817850441947,1,2008
4,1996,0.267113207216374,0.267113207216374,1,2008
1,1997,0.418182116609511,0.418182116609511,1,2008
2,1997,1.23179559006876,1.23179559006876,1,2008
3,1997,0.658748021720301,0.658748021720301,1,2008
4,1997,0.967410407196612,0.967410407196612,1,2008
1,1998,0.687657681821241,0.687657681821241,1,2008
2,1998,0.43783328996827,0.43783328996827,1,2008
3,1998,0.549083125921701,0.549083125921701,1,2008
4,1998,0.213888377702975,0.213888377702975,1,2008
1,1999,0.958446877122476,0.958446877122476,1,2008
2,1999,0.623043402385215,0.623043402385215,1,2008
3,1999,1.25958239472426,1.25958239472426,1,2008
4,1999,1.1828761200166,1.1828761200166,1,2008
1,2000,1.12173271420244,1.12173271420244,1,2008
2,2000,0.995699457251953,0.995699457251953,1,2008
3,2000,0.454093747918916,0.454093747918916,1,2008
4,2000,0.70545876788457,0.70545876788457,1,2008
1,2001,0.784373238803515,0.784373238803515,1,2008
2,2001,0.0705486979393433,0.0705486979393433,1,2008
3,2001,0.077011454928555,0.077011454928555,1,2008
4,2001,0.0823587847663898,0.0823587847663898,1,2008
1,2002,0.258002657200018,0.258002657200018,1,2008
2,2002,0.422849780005996,0.422849780005996,1,2008
3,2002,0.375515851326469,0.375515851326469,1,2008
4,2002,0.0137414875527542,0.0137414875527541,1,2008
1,2003,0.111080524924678,0.111080524924678,1,2008
2,2003,-0.0265859398616009,-0.0265859398616009,1,2008
3,2003,0.531850991947391,0.531850991947391,1,2008
4,2003,0.540025242619313,0.540025242619313,1,2008
1,2004,0.582994799068382,0.582994799068382,1,2008
2,2004,0.40398042272185,0.40398042272185,1,2008
3,2004,0.317579257695289,0.317579257695289,1,2008
4,2004,0.266557632510422,0.266557632510422,1,2008
1,2005,0.303384174030952,0.303384174030952,1,2008
2,2005,0.565754981528222,0.565754981528222,1,2008
3,2005,0.612632566584725,0.612632566584725,1,2008
4,2005,0.420831192042281,0.420831192042281,1,2008
1,2006,0.86463632203051,0.86463632203051,1,2008
2,2006,0.965977206178525,0.965977206178525,1,2008
3,2006,0.575571934238806,0.575571934238806,1,2008
4,2006,0.800328569404418,0.800328569404418,1,2008
1,2007,0.806555029866551,0.806555029866551,1,2008
2,2007,0.309030827247425,0.309030827247425,1,2008
3,2007,0.762749460156442,0.762749460156442,1,2008
4,2007,1.49166792040242,1.60243569438784,1,2008
1,2008,2.05237442828394,2.17443667520441,1,2008
2,2008,2.38879833301286,2.38952398480124,1,2008
3,2008,2.55701028537731,2.35694374081029,1,2008
4,2008,2.61308093616547,2.18594206086357,1,2008
1,2009,,1.98576506259306,1,2008
2,2009,,1.86565886363075,1,2008
3,2009,,1.8056057641496,1,2008
4,2009,,1.78558806432255,1,2008
2,1991,0.117926826840842,0.117926826840842,2,2008
3,1991,0.0620002790931549,0.0620002790931552,2,2008
4,1991,0.9585780814936,0.9585780814936,2,2008
1,1992,1.20518151158859,1.20518151158859,2,2008
2,1992,-0.587553026591014,-0.587553026591015,2,2008
3,1992,-0.167882286174692,-0.167882286174692,2,2008
4,1992,-0.283438118095203,-0.283438118095203,2,2008
1,1993,-0.760062633571401,-0.760062633571401,2,2008
2,1993,0.168219346954856,0.168219346954857,2,2008
3,1993,0.434651643773965,0.434651643773965,2,2008
4,1993,0.303657215144915,0.303657215144915,2,2008
1,1994,0.847389691991718,0.847389691991718,2,2008
2,1994,0.713017732940591,0.713017732940591,2,2008
3,1994,0.804807760583826,0.804807760583826,2,2008
4,1994,0.799392263527277,0.799392263527277,2,2008
1,1995,0.678125795531215,0.678125795531215,2,2008
2,1995,0.567048694988825,0.567048694988825,2,2008
3,1995,0.30703261697731,0.30703261697731,2,2008
4,1995,0.309338504491663,0.309338504491663,2,2008
1,1996,0.0426232920932799,0.0426232920932803,2,2008
2,1996,0.730969681116944,0.730969681116944,2,2008
3,1996,0.521047758638793,0.521047758638793,2,2008
4,1996,0.288602319734088,0.288602319734088,2,2008
1,1997,0.420686230659983,0.420686230659984,2,2008
2,1997,1.21203969733681,1.21203969733681,2,2008
3,1997,0.637827346248598,0.637827346248599,2,2008
4,1997,0.994243788181004,0.994243788181004,2,2008
1,1998,0.682766596219731,0.682766596219731,2,2008
2,1998,0.440512136774429,0.440512136774429,2,2008
3,1998,0.525351062744806,0.525351062744806,2,2008
4,1998,0.235957442663537,0.235957442663537,2,2008
1,1999,0.963370020069454,0.963370020069454,2,2008
2,1999,0.617038695760797,0.617038695760797,2,2008
3,1999,1.23480753394218,1.23480753394218,2,2008
4,1999,1.19348800221464,1.19348800221464,2,2008
1,2000,1.12502733975737,1.12502733975737,2,2008
2,2000,0.99366047683378,0.99366047683378,2,2008
3,2000,0.438535498035453,0.438535498035453,2,2008
4,2000,0.734624034564346,0.734624034564346,2,2008
1,2001,0.76442808251942,0.764428082519419,2,2008
2,2001,0.0780680921528055,0.0780680921528054,2,2008
3,2001,0.0724465565243859,0.0724465565243859,2,2008
4,2001,0.103088048948985,0.103088048948985,2,2008
1,2002,0.25678205831845,0.25678205831845,2,2008
2,2002,0.4413010203137,0.4413010203137,2,2008
3,2002,0.362502497240902,0.362502497240902,2,2008
4,2002,0.0413260371840529,0.0413260371840529,2,2008
1,2003,0.0630593563377025,0.0630593563377024,2,2008
2,2003,0.00893053978423548,0.00893053978423541,2,2008
3,2003,0.52275735699332,0.52275735699332,2,2008
4,2003,0.586234681076325,0.586234681076325,2,2008
1,2004,0.557729843510324,0.557729843510324,2,2008
2,2004,0.465158829954593,0.465158829954593,2,2008
3,2004,0.315588537486811,0.315588537486811,2,2008
4,2004,0.307810323916802,0.307810323916802,2,2008
1,2005,0.305660414854914,0.305660414854914,2,2008
2,2005,0.611884688556841,0.611884688556841,2,2008
3,2005,0.607318298541304,0.607318298541304,2,2008
4,2005,0.460376300189025,0.460376300189025,2,2008
1,2006,0.813399318786656,0.813399318786656,2,2008
2,2006,1.00871633885999,1.00871633885999,2,2008
3,2006,0.540782526887384,0.540782526887385,2,2008
4,2006,0.829730047451882,0.829730047451882,2,2008
1,2007,0.745042842660837,0.745042842660837,2,2008
2,2007,0.333774529338449,0.333774529338449,2,2008
3,2007,0.72126840204465,0.72126840204465,2,2008
4,2007,0.352361024566261,0.352361024566261,2,2008
1,2008,1.65868661851113,1.9544102886927,2,2008
2,2008,2.44248197487806,2.57095157483644,2,2008
3,2008,2.83437965306152,2.50221942004506,2,2008
4,2008,2.965012212456,2.04844836136612,2,2008
1,2009,,1.50987293584719,2,2008
2,2009,,1.18672768053583,2,2008
3,2009,,1.02515505288015,2,2008
4,2009,,0.971297510328258,2,2008
2,1991,0.117926826602224,0.117926827189239,3,2008
3,1991,0.0620002790931551,0.0620002790931551,3,2008
4,1991,0.9585780814936,0.9585780814936,3,2008
1,1992,1.20518151158859,1.20518151158859,3,2008
2,1992,-0.587553026591015,-0.587553026591015,3,2008
3,1992,-0.167882286174692,-0.167882286174692,3,2008
4,1992,-0.283438118095203,-0.283438118095203,3,2008
1,1993,-0.760062633571401,-0.760062633571401,3,2008
2,1993,0.168219346954857,0.168219346954857,3,2008
3,1993,0.434651643773965,0.434651643773965,3,2008
4,1993,0.303657215144915,0.303657215144915,3,2008
1,1994,0.847389691991718,0.847389691991718,3,2008
2,1994,0.713017732940591,0.713017732940591,3,2008
3,1994,0.804807760583826,0.804807760583826,3,2008
4,1994,0.799392263527277,0.799392263527277,3,2008
1,1995,0.678125795531215,0.678125795531215,3,2008
2,1995,1.00112130996821,1.00112130996821,3,2008
3,1995,0.468371462246164,0.468371462246164,3,2008
4,1995,0.518544547997646,0.518544547997646,3,2008
1,1996,-0.245867215960482,-0.245867215960482,3,2008
2,1996,0.728383203062122,0.728383203062122,3,2008
3,1996,0.52044255137722,0.52044255137722,3,2008
4,1996,0.313781092191112,0.313781092191112,3,2008
1,1997,0.396121101804159,0.396121101804159,3,2008
2,1997,1.20274692491211,1.20274692491211,3,2008
3,1997,0.668767829620087,0.668767829620087,3,2008
4,1997,0.977318929665283,0.977318929665283,3,2008
1,1998,0.687798351564251,0.687798351564251,3,2008
2,1998,0.439903331968683,0.439903331968683,3,2008
3,1998,0.522114824857511,0.522114824857511,3,2008
4,1998,0.204299261298813,0.204299261298813,3,2008
1,1999,0.922142911446788,0.922142911446788,3,2008
2,1999,0.589612915201498,0.589612915201498,3,2008
3,1999,1.24148137258298,1.24148137258298,3,2008
4,1999,1.20306366843062,1.20306366843062,3,2008
1,2000,1.13217403927521,1.13217403927521,3,2008
2,2000,0.9645290236167,0.9645290236167,3,2008
3,2000,0.481901843921673,0.481901843921673,3,2008
4,2000,0.789031511285931,0.789031511285931,3,2008
1,2001,0.727277609410337,0.727277609410337,3,2008
2,2001,0.0674093419565701,0.0674093419565702,3,2008
3,2001,0.0602783401551621,0.0602783401551621,3,2008
4,2001,0.1110995452134,0.1110995452134,3,2008
1,2002,0.272020323538191,0.272020323538191,3,2008
2,2002,0.43703734603,0.43703734603,3,2008
3,2002,0.334734644004531,0.334734644004531,3,2008
4,2002,0.0754923821141063,0.0754923821141063,3,2008
1,2003,0.0818656912455307,0.0818656912455307,3,2008
2,2003,-0.0197520842237453,-0.0197520842237453,3,2008
3,2003,0.510091355239872,0.510091355239872,3,2008
4,2003,0.599012572145963,0.599012572145963,3,2008
1,2004,0.566041152265617,0.566041152265617,3,2008
2,2004,0.416116481359397,0.416116481359397,3,2008
3,2004,0.342968675378796,0.342968675378796,3,2008
4,2004,0.356655360096236,0.356655360096236,3,2008
1,2005,0.297045247838446,0.297045247838446,3,2008
2,2005,0.607147167424116,0.607147167424116,3,2008
3,2005,0.630790538091142,0.630790538091142,3,2008
4,2005,0.489881378266044,0.489881378266044,3,2008
1,2006,0.817120517407277,0.817120517407277,3,2008
2,2006,0.988973597483778,0.988973597483778,3,2008
3,2006,0.574503111750868,0.574503111750868,3,2008
4,2006,0.830965540853446,0.830965540853446,3,2008
1,2007,0.78095037674859,0.78095037674859,3,2008
2,2007,0.371199882600925,0.371199882600926,3,2008
3,2007,0.659636002759334,0.659636002759334,3,2008
4,2007,0.311973736863047,0.311973736863047,3,2008
1,2008,0.796190175695144,0.796190175695144,3,2008
2,2008,2.8117619158189,3.44992708925829,3,2008
3,2008,3.81954778588078,3.67733416054409,3,2008
4,2008,4.15547640923474,2.4966092199299,3,2008
1,2009,,0.925950097793083,3,2008
2,2009,,-0.0164453754890097,3,2008
3,2009,,-0.487643112130056,3,2008
4,2009,,-0.644709024343737,3,2008
2,1991,0.117926826840842,0.117926826975453,4,2008
3,1991,0.0620002790931551,0.0620002790931551,4,2008
4,1991,0.9585780814936,0.9585780814936,4,2008
1,1992,1.20518151158859,1.20518151158859,4,2008
2,1992,-0.587553026591015,-0.587553026591015,4,2008
3,1992,-0.167882286174692,-0.167882286174692,4,2008
4,1992,-0.283438118095203,-0.283438118095203,4,2008
1,1993,-0.760062633571401,-0.760062633571401,4,2008
2,1993,0.168219346954857,0.168219346954857,4,2008
3,1993,0.434651643773965,0.434651643773965,4,2008
4,1993,0.303657215144915,0.303657215144915,4,2008
1,1994,0.847389691991718,0.847389691991718,4,2008
2,1994,0.713017732940591,0.713017732940591,4,2008
3,1994,0.804807760583826,0.804807760583826,4,2008
4,1994,0.799392263527277,0.799392263527277,4,2008
1,1995,0.678125795531215,0.678125795531215,4,2008
2,1995,0.563261387486147,0.563261387486147,4,2008
3,1995,0.330753459423616,0.330753459423616,4,2008
4,1995,0.373638079556193,0.373638079556193,4,2008
1,1996,0.00685279508059189,0.00685279508059183,4,2008
2,1996,0.748103209244722,0.748103209244722,4,2008
3,1996,0.527135942669532,0.527135942669532,4,2008
4,1996,0.324721487791169,0.324721487791169,4,2008
1,1997,0.364943429958453,0.364943429958453,4,2008
2,1997,1.22358270776282,1.22358270776282,4,2008
3,1997,0.677556756185349,0.677556756185349,4,2008
4,1997,0.987704679403234,0.987704679403234,4,2008
1,1998,0.68325087130976,0.68325087130976,4,2008
2,1998,0.419672899960011,0.419672899960011,4,2008
3,1998,0.546197949447924,0.546197949447924,4,2008
4,1998,0.163136090921312,0.163136090921312,4,2008
1,1999,0.937495245552822,0.937495245552822,4,2008
2,1999,0.619608859331167,0.619608859331167,4,2008
3,1999,1.23070774148195,1.23070774148195,4,2008
4,1999,1.16645439064307,1.16645439064307,4,2008
1,2000,1.1705482571472,1.1705482571472,4,2008
2,2000,0.973286798488537,0.973286798488537,4,2008
3,2000,0.481626814331615,0.481626814331615,4,2008
4,2000,0.728507317910432,0.728507317910432,4,2008
1,2001,0.753989450857451,0.753989450857451,4,2008
2,2001,0.0722671079288916,0.0722671079288917,4,2008
3,2001,0.0731433521914404,0.0731433521914404,4,2008
4,2001,0.126774180154055,0.126774180154055,4,2008
1,2002,0.237763675188951,0.237763675188951,4,2008
2,2002,0.479062375677875,0.479062375677875,4,2008
3,2002,0.348053975274532,0.348053975274532,4,2008
4,2002,0.0785598976076551,0.0785598976076551,4,2008
1,2003,0.016398559543096,0.016398559543096,4,2008
2,2003,0.0220638694196751,0.0220638694196751,4,2008
3,2003,0.519087664188711,0.519087664188711,4,2008
4,2003,0.599357724649341,0.599357724649341,4,2008
1,2004,0.555854032147241,0.555854032147241,4,2008
2,2004,0.484630462368996,0.484630462368996,4,2008
3,2004,0.341806471536454,0.341806471536454,4,2008
4,2004,0.339090016578547,0.339090016578547,4,2008
1,2005,0.264898486513898,0.264898486513898,4,2008
2,2005,0.724281632565571,0.724281632565571,4,2008
3,2005,0.619046897812492,0.619046897812492,4,2008
4,2005,0.46502320231816,0.46502320231816,4,2008
1,2006,0.809839790725775,0.809839790725775,4,2008
2,2006,1.07466576035498,1.07466576035498,4,2008
3,2006,0.541771388486434,0.541771388486434,4,2008
4,2006,0.834921578788905,0.834921578788905,4,2008
1,2007,0.736627770335896,0.736627770335896,4,2008
2,2007,0.456745650692536,0.456745650692536,4,2008
3,2007,0.571548310399672,0.571548310399672,4,2008
4,2007,0.358772849514355,0.358772849514355,4,2008
1,2008,0.663401351490545,0.663401351490545,4,2008
2,2008,-0.196720039462972,-0.196720039462972,4,2008
3,2008,4.28601073018611,5.20095107457257,4,2008
4,2008,5.78025432006914,3.92350299813672,4,2008
1,2009,,0.0776632717437709,4,2008
2,2009,,-2.229840564092,4,2008
3,2009,,-3.38359248200989,4,2008
4,2009,,-3.76817645464918,4,2008
2,1991,0.117926826840842,0.117926826626102,1,2009
3,1991,0.0620002790931551,0.0620002790931551,1,2009
4,1991,0.9585780814936,0.9585780814936,1,2009
1,1992,1.20518151158859,1.20518151158859,1,2009
2,1992,-0.587553026591015,-0.587553026591015,1,2009
3,1992,-0.167882286174692,-0.167882286174692,1,2009
4,1992,-0.283438118095203,-0.283438118095203,1,2009
1,1993,-0.760062633571401,-0.760062633571401,1,2009
2,1993,0.168219346954857,0.168219346954857,1,2009
3,1993,0.434651643773965,0.434651643773965,1,2009
4,1993,0.303657215144915,0.303657215144915,1,2009
1,1994,0.847389691991718,0.847389691991718,1,2009
2,1994,0.713017732940591,0.713017732940591,1,2009
3,1994,0.804807760583826,0.804807760583826,1,2009
4,1994,0.799392263527277,0.799392263527277,1,2009
1,1995,0.678125795531215,0.678125795531215,1,2009
2,1995,0.556732400428328,0.556732400428328,1,2009
3,1995,0.314597081539447,0.314597081539447,1,2009
4,1995,0.364043472144426,0.364043472144426,1,2009
1,1996,0.0318832893168475,0.0318832893168474,1,2009
2,1996,0.73691014545485,0.73691014545485,1,2009
3,1996,0.496363749051332,0.496363749051332,1,2009
4,1996,0.322530839878388,0.322530839878388,1,2009
1,1997,0.411551935640175,0.411551935640175,1,2009
2,1997,1.21387967768236,1.21387967768236,1,2009
3,1997,0.665572632914868,0.665572632914868,1,2009
4,1997,0.985001046659773,0.985001046659773,1,2009
1,1998,0.712328283078123,0.712328283078123,1,2009
2,1998,0.410328163351448,0.410328163351448,1,2009
3,1998,0.53298281883345,0.53298281883345,1,2009
4,1998,0.155142696524058,0.155142696524058,1,2009
1,1999,0.975562579513722,0.975562579513723,1,2009
2,1999,0.619275044484335,0.619275044484335,1,2009
3,1999,1.19981841201622,1.19981841201622,1,2009
4,1999,1.16983248523534,1.16983248523534,1,2009
1,2000,1.20120233435159,1.20120233435159,1,2009
2,2000,0.958280831404679,0.958280831404679,1,2009
3,2000,0.464039268642424,0.464039268642424,1,2009
4,2000,0.727086931633236,0.727086931633236,1,2009
1,2001,0.766328713328623,0.766328713328623,1,2009
2,2001,0.0441012490823177,0.0441012490823177,1,2009
3,2001,0.0849077030053325,0.0849077030053325,1,2009
4,2001,0.124763565165154,0.124763565165154,1,2009
1,2002,0.232679606651431,0.232679606651431,1,2009
2,2002,0.47138512891387,0.47138512891387,1,2009
3,2002,0.352188922170615,0.352188922170615,1,2009
4,2002,0.0848989003159995,0.0848989003159995,1,2009
1,2003,0.0294335376112453,0.0294335376112453,1,2009
2,2003,0.0184611169415927,0.0184611169415927,1,2009
3,2003,0.510292344846364,0.510292344846364,1,2009
4,2003,0.601286142450253,0.601286142450253,1,2009
1,2004,0.572060992122503,0.572060992122503,1,2009
2,2004,0.474863353238075,0.474863353238075,1,2009
3,2004,0.353775583556093,0.353775583556093,1,2009
4,2004,0.342419729614218,0.342419729614218,1,2009
1,2005,0.248999452981269,0.248999452981269,1,2009
2,2005,0.726440756026703,0.726440756026703,1,2009
3,2005,0.632517229652096,0.632517229652096,1,2009
4,2005,0.456247044176927,0.456247044176927,1,2009
1,2006,0.819003103317506,0.819003103317506,1,2009
2,2006,1.07964933055982,1.07964933055982,1,2009
3,2006,0.548032268179699,0.548032268179699,1,2009
4,2006,0.83163486257205,0.83163486257205,1,2009
1,2007,0.70590675921034,0.70590675921034,1,2009
2,2007,0.454769133049826,0.454769133049826,1,2009
3,2007,0.610960916552461,0.610960916552461,1,2009
4,2007,0.334383324567855,0.334383324567855,1,2009
1,2008,0.660299426889677,0.660299426889677,1,2009
2,2008,-0.179328078273378,-0.179328078273378,1,2009
3,2008,-0.186587102720603,-0.186587102720603,1,2009
4,2008,-1.19399624625055,-1.85988863842762,1,2009
1,2009,-1.96892635665821,-2.70306418694302,1,2009
2,2009,-2.4338844229028,-2.43940508586961,1,2009
3,2009,-2.66636345602509,-1.46586443982062,1,2009
4,2009,-2.74385646706586,-0.179395353409304,1,2009
1,2010,,1.02304906875109,1,2009
2,2010,,1.74451572204733,1,2009
3,2010,,2.10524904869545,1,2009
4,2010,,2.22549349091149,1,2009
2,1991,0.117926826840842,0.117926827022312,2,2009
3,1991,0.0620002790931551,0.0620002790931549,2,2009
4,1991,0.9585780814936,0.958578081493599,2,2009
1,1992,1.20518151158859,1.20518151158859,2,2009
2,1992,-0.587553026591015,-0.587553026591015,2,2009
3,1992,-0.167882286174692,-0.167882286174692,2,2009
4,1992,-0.283438118095203,-0.283438118095203,2,2009
1,1993,-0.760062633571401,-0.760062633571402,2,2009
2,1993,0.168219346954857,0.168219346954857,2,2009
3,1993,0.434651643773965,0.434651643773965,2,2009
4,1993,0.303657215144915,0.303657215144915,2,2009
1,1994,0.847389691991718,0.847389691991718,2,2009
2,1994,0.713017732940591,0.713017732940591,2,2009
3,1994,0.804807760583826,0.804807760583826,2,2009
4,1994,0.799392263527277,0.799392263527277,2,2009
1,1995,0.678125795531215,0.678125795531215,2,2009
2,1995,0.561622210016788,0.561622210016788,2,2009
3,1995,0.315780944854205,0.315780944854205,2,2009
4,1995,0.35889750981517,0.35889750981517,2,2009
1,1996,0.0332579924522847,0.0332579924522844,2,2009
