fredbec/spf-europe/data/filter_spf_data.csv
target_quarter,target_year,spf_filter_cy,spf_filter_ny,origin_quarter,origin_year
1,1992,2.35922798911856,2.35922798914144,1,2020
2,1992,1.63795482952687,1.63795482952687,1,2020
3,1992,1.4044516642931,1.40445166429311,1,2020
4,1992,0.156950222901875,0.156950222901875,1,2020
1,1993,-1.7879389327991,-1.78793893279911,1,2020
2,1993,-1.04129236324586,-1.04129236324586,1,2020
3,1993,-0.444029875176277,-0.444029875176277,1,2020
4,1993,0.142119951426234,0.142119951426234,1,2020
1,1994,1.76418550159252,1.76418550159252,1,2020
2,1994,2.31766408366043,2.31766408366043,1,2020
3,1994,2.69476012171503,2.69476012171503,1,2020
4,1994,3.20231282010126,3.20231282010126,1,2020
1,1995,3.0290963824223,3.0290963824223,1,2020
2,1995,2.97283529842738,2.97283529842738,1,2020
3,1995,2.50046532015762,2.50046532015762,1,2020
4,1995,1.94515779237117,1.94515779237117,1,2020
1,1996,1.24043602684034,1.24043602684034,1,2020
2,1996,1.47084069984409,1.47084069984409,1,2020
3,1996,1.77451659408592,1.77451659408592,1,2020
4,1996,1.88939182903998,1.88939182903998,1,2020
1,1997,1.986502553013,1.986502553013,1,2020
2,1997,2.51170771720626,2.51170771720626,1,2020
3,1997,2.74817130517164,2.74817130517164,1,2020
4,1997,3.41579080562424,3.41579080562424,1,2020
1,1998,3.85583073820743,3.85583073820743,1,2020
2,1998,3.00805616053115,3.00805616053115,1,2020
3,1998,2.84080908929074,2.84080908929074,1,2020
4,1998,1.89365334729672,1.89365334729672,1,2020
1,1999,2.20857085464672,2.20857085464672,1,2020
2,1999,2.33612230989664,2.33612230989664,1,2020
3,1999,2.89758407596945,2.89758407596945,1,2020
4,1999,3.92372876568141,3.92372876568141,1,2020
1,2000,4.19115798063636,4.19115798063636,1,2020
2,2000,4.48844380306499,4.48844380306499,1,2020
3,2000,3.90076583627603,3.90076583627603,1,2020
4,2000,3.37526522808571,3.37526522808571,1,2020
1,2001,3.1360119250937,3.1360119250937,1,2020
2,2001,2.34615719136464,2.34615719136464,1,2020
3,2001,1.90375662438347,1.90375662438347,1,2020
4,2001,1.36780092004536,1.36780092004536,1,2020
1,2002,0.408134799085258,0.408134799085258,1,2020
2,2002,0.882684020468627,0.882684020468627,1,2020
3,2002,1.15568040374092,1.15568040374092,1,2020
4,2002,1.19969563401217,1.19969563401217,1,2020
1,2003,0.79133118827277,0.79133118827277,1,2020
2,2003,0.321279927587925,0.321279927587925,1,2020
3,2003,0.471639139693703,0.471639139693702,1,2020
4,2003,1.04614090899682,1.04614090899682,1,2020
1,2004,1.92940267596804,1.92940267596804,1,2020
2,2004,2.43478553105285,2.43478553105285,1,2020
3,2004,2.12068192827939,2.12068192827939,1,2020
4,2004,1.73170231401456,1.73170231401456,1,2020
1,2005,1.44355106981857,1.44355106981857,1,2020
2,2005,1.46037445362728,1.46037445362728,1,2020
3,2005,1.94200324344167,1.94200324344167,1,2020
4,2005,2.204597267717,2.204597267717,1,2020
1,2006,2.88508315312039,2.88508315312039,1,2020
2,2006,3.3725235386368,3.3725235386368,1,2020
3,2006,3.22416025081607,3.22416025081607,1,2020
4,2006,3.80582450116256,3.80582450116256,1,2020
1,2007,3.52167205157945,3.52167205157945,1,2020
2,2007,3.12130693195742,3.12130693195742,1,2020
3,2007,2.97143127364383,2.97143127364383,1,2020
4,2007,2.33554365400657,2.33554365400657,1,2020
1,2008,2.16911015754762,2.16911015754762,1,2020
2,2008,1.1071432187963,1.1071432187963,1,2020
3,2008,0.116276069234633,0.116276069234634,1,2020
4,2008,-2.14736535088604,-2.14736535088604,1,2020
1,2009,-5.6610897046227,-5.6610897046227,1,2020
2,2009,-5.35245203301822,-5.35245203301822,1,2020
3,2009,-4.48425909811659,-4.48425909811659,1,2020
4,2009,-2.323496194305,-2.323496194305,1,2020
1,2010,1.22685462119481,1.22685462119481,1,2020
2,2010,2.25126565517428,2.25126565517428,1,2020
3,2010,2.33562814541575,2.33562814541575,1,2020
4,2010,2.44082390461959,2.44082390461959,1,2020
1,2011,2.92581076529928,2.92581076529928,1,2020
2,2011,1.92383607600555,1.92383607600555,1,2020
3,2011,1.56294810788442,1.56294810788442,1,2020
4,2011,0.577769516202098,0.577769516202098,1,2020
1,2012,-0.480167052901792,-0.480167052901792,1,2020
2,2012,-0.809062487475887,-0.809062487475887,1,2020
3,2012,-0.993145452601174,-0.993145452601174,1,2020
4,2012,-1.05522302433942,-1.05522302433942,1,2020
1,2013,-1.21391344354954,-1.21391344354954,1,2020
2,2013,-0.3672982613668,-0.3672982613668,1,2020
3,2013,0.0357649900736723,0.0357649900736722,1,2020
4,2013,0.691625730440704,0.691625730440704,1,2020
1,2014,1.55100057397954,1.55100057397954,1,2020
2,2014,1.20608126961372,1.20608126961372,1,2020
3,2014,1.37179453456013,1.37179453456013,1,2020
4,2014,1.56974434564463,1.56974434564463,1,2020
1,2015,1.83975404650456,1.83975404650456,1,2020
2,2015,2.06022009114168,2.06022009114168,1,2020
3,2015,2.04432503554324,2.04432503554324,1,2020
4,2015,2.04674123756359,2.04674123756359,1,2020
1,2016,1.91309748935211,1.91309748935211,1,2020
2,2016,1.78085808262709,1.78085808262709,1,2020
3,2016,1.77041309595287,1.77041309595287,1,2020
4,2016,2.12281231068538,2.12281231068538,1,2020
1,2017,2.16806159743514,2.16806159743514,1,2020
2,2017,2.61444352118596,2.61444352118596,1,2020
3,2017,2.94900017893169,2.94900017893169,1,2020
4,2017,2.96436875956361,2.96436875956361,1,2020
1,2018,2.57121707466412,2.57121707466412,1,2020
2,2018,2.20076832768468,2.20076832768468,1,2020
3,2018,1.62582652113796,1.62582652113796,1,2020
4,2018,1.17926189188029,1.17926189188029,1,2020
1,2019,1.35795718867637,1.35795718867637,1,2020
2,2019,1.19245245221,1.19245245221,1,2020
3,2019,1.21556789115385,1.21556789115385,1,2020
4,2019,1.10926872395189,1.08840084734607,1,2020
1,2020,1.02750013379654,1.00448810982621,1,2020
2,2020,0.978438979703333,0.97824778069023,1,2020
3,2020,0.953908402656728,0.991494990127178,1,2020
4,2020,0.945731543641193,1.02604486832609,1,2020
1,2021,,1.063712545476,1,2020
2,2021,,1.08631315176594,1,2020
3,2021,,1.09761345491091,1,2020
4,2021,,1.1013802226259,1,2020
1,1992,2.3592279859355,2.35922798629533,2,2020
2,1992,1.63795482952687,1.63795482952687,2,2020
3,1992,1.40445166429311,1.40445166429311,2,2020
4,1992,0.156950222901875,0.156950222901875,2,2020
1,1993,-1.7879389327991,-1.7879389327991,2,2020
2,1993,-1.04129236324586,-1.04129236324586,2,2020
3,1993,-0.444029875176277,-0.444029875176277,2,2020
4,1993,0.142119951426234,0.142119951426234,2,2020
1,1994,1.76418550159252,1.76418550159252,2,2020
2,1994,2.31766408366043,2.31766408366043,2,2020
3,1994,2.69476012171503,2.69476012171503,2,2020
4,1994,3.20231282010126,3.20231282010126,2,2020
1,1995,3.0290963824223,3.0290963824223,2,2020
2,1995,2.97283529842738,2.97283529842738,2,2020
3,1995,2.50046532015762,2.50046532015762,2,2020
4,1995,1.94515779237117,1.94515779237117,2,2020
1,1996,1.24316823565402,1.24316823565402,2,2020
2,1996,1.4739318066288,1.4739318066288,2,2020
3,1996,1.77552254402726,1.77552254402726,2,2020
4,1996,1.88293835451783,1.88293835451783,2,2020
1,1997,1.98444251953975,1.98444251953975,2,2020
2,1997,2.50681140007982,2.50681140007982,2,2020
3,1997,2.74995552234252,2.74995552234252,2,2020
4,1997,3.42155385045233,3.42155385045233,2,2020
1,1998,3.86062902435005,3.86062902435005,2,2020
2,1998,3.00720350085868,3.00720350085868,2,2020
3,1998,2.84256101295473,2.84256101295473,2,2020
4,1998,1.88728244611465,1.88728244611465,2,2020
1,1999,2.20259714665352,2.20259714665352,2,2020
2,1999,2.33346828571572,2.33346828571572,2,2020
3,1999,2.89886302548159,2.89886302548159,2,2020
4,1999,3.92987853040498,3.92987853040498,2,2020
1,2000,4.19062598795548,4.19062598795548,2,2020
2,2000,4.48847556606895,4.48847556606895,2,2020
3,2000,3.90074359383998,3.90074359383998,2,2020
4,2000,3.37632683936446,3.37632683936446,2,2020
1,2001,3.14326967858767,3.14326967858767,2,2020
2,2001,2.34878964653122,2.34878964653122,2,2020
3,2001,1.8980297922337,1.8980297922337,2,2020
4,2001,1.36384624299131,1.36384624299131,2,2020
1,2002,0.404101321766537,0.404101321766537,2,2020
2,2002,0.881912243241811,0.881912243241811,2,2020
3,2002,1.15689774801715,1.15689774801715,2,2020
4,2002,1.20462413651852,1.20462413651852,2,2020
1,2003,0.79669738703203,0.79669738703203,2,2020
2,2003,0.323422465153489,0.323422465153489,2,2020
3,2003,0.469657203668694,0.469657203668694,2,2020
4,2003,1.04105082073005,1.04105082073005,2,2020
1,2004,1.93014983694082,1.93014983694082,2,2020
2,2004,2.43161759694637,2.43161759694637,2,2020
3,2004,2.12112347695517,2.12112347695517,2,2020
4,2004,1.73133774737264,1.73133774737264,2,2020
1,2005,1.44693833079104,1.44693833079104,2,2020
2,2005,1.45477341692339,1.45477341692339,2,2020
3,2005,1.94512218862499,1.94512218862499,2,2020
4,2005,2.20491816602557,2.20491816602557,2,2020
1,2006,2.88532425356935,2.88532425356935,2,2020
2,2006,3.38099442808566,3.38099442808566,2,2020
3,2006,3.22302831146386,3.22302831146386,2,2020
4,2006,3.79849610627432,3.79849610627432,2,2020
1,2007,3.52449086197817,3.52449086197817,2,2020
2,2007,3.12222739536137,3.12222739536137,2,2020
3,2007,2.97260797537515,2.97260797537515,2,2020
4,2007,2.33043123430075,2.33043123430075,2,2020
1,2008,2.15574319423029,2.15574319423029,2,2020
2,2008,1.10748143826047,1.10748143826047,2,2020
3,2008,0.122885048516452,0.122885048516452,2,2020
4,2008,-2.14129912573922,-2.14129912573922,2,2020
1,2009,-5.66202690748736,-5.66202690748736,2,2020
2,2009,-5.35686088166759,-5.35686088166759,2,2020
3,2009,-4.48924786870826,-4.48924786870826,2,2020
4,2009,-2.31285586937633,-2.31285586937633,2,2020
1,2010,1.23476290246158,1.23476290246158,2,2020
2,2010,2.25728693703484,2.25728693703484,2,2020
3,2010,2.33002571593608,2.33002571593608,2,2020
4,2010,2.43126696318055,2.43126696318055,2,2020
1,2011,2.92140036397115,2.92140036397115,2,2020
2,2011,1.92047023148738,1.92047023148738,2,2020
3,2011,1.56455284501185,1.56455284501185,2,2020
4,2011,0.584667093628744,0.584667093628744,2,2020
1,2012,-0.479787778484486,-0.479787778484486,2,2020
2,2012,-0.806112823948035,-0.806112823948035,2,2020
3,2012,-0.997131123109119,-0.997131123109119,2,2020
4,2012,-1.05481316103524,-1.05481316103524,2,2020
1,2013,-1.21632937422045,-1.21632937422045,2,2020
2,2013,-0.372282274910363,-0.372282274910363,2,2020
3,2013,0.0409085997252089,0.0409085997252089,2,2020
4,2013,0.695730383196946,0.695730383196946,2,2020
1,2014,1.54800074512103,1.54800074512103,2,2020
2,2014,1.21258847410912,1.21258847410912,2,2020
3,2014,1.37370608900855,1.37370608900855,2,2020
4,2014,1.56415372166114,1.56415372166114,2,2020
1,2015,1.84053106902939,1.84053106902939,2,2020
2,2015,2.05906492057593,2.05906492057593,2,2020
3,2015,2.0386252531847,2.0386252531847,2,2020
4,2015,2.0507310595463,2.0507310595463,2,2020
1,2016,1.93079042769824,1.93079042769824,2,2020
2,2016,1.78817202251576,1.78817202251576,2,2020
3,2016,1.77644230161083,1.77644230161083,2,2020
4,2016,2.10882992735062,2.10882992735062,2,2020
1,2017,2.15885115766463,2.15885115766463,2,2020
2,2017,2.60874289173307,2.60874289173307,2,2020
3,2017,2.93493111026977,2.93493111026977,2,2020
4,2017,2.96698633819623,2.96698633819623,2,2020
1,2018,2.56613130213559,2.56613130213559,2,2020
2,2018,2.2054662191376,2.2054662191376,2,2020
3,2018,1.62908940899735,1.62908940899735,2,2020
4,2018,1.21073165162644,1.21073165162644,2,2020
1,2019,1.40160924712771,1.40160924712771,2,2020
2,2019,1.18802717453925,1.18802717453925,2,2020
3,2019,1.3049276687789,1.3049276687789,2,2020
4,2019,1.02999466403304,1.02999466403304,2,2020
1,2020,-6.16975823011576,-10.2363669803612,2,2020
2,2020,-10.489609966605,-12.2696318307162,2,2020
3,2020,-12.6495358348497,-8.11659785683575,2,2020
4,2020,-13.3695111242646,-0.824063028523653,2,2020
1,2021,,6.56117468441627,2,2020
2,2021,,10.9923173121802,2,2020
3,2021,,13.2078886260622,2,2020
4,2021,,13.9464123973562,2,2020
1,1992,2.35922798628879,2.35922798669967,3,2020
2,1992,1.63795482952687,1.63795482952687,3,2020
3,1992,1.40445166429311,1.4044516642931,3,2020
4,1992,0.156950222901875,0.156950222901875,3,2020
1,1993,-1.7879389327991,-1.7879389327991,3,2020
2,1993,-1.04129236324586,-1.04129236324586,3,2020
3,1993,-0.444029875176277,-0.444029875176277,3,2020
4,1993,0.142119951426234,0.142119951426234,3,2020
1,1994,1.76418550159252,1.76418550159252,3,2020
2,1994,2.31766408366043,2.31766408366043,3,2020
3,1994,2.69476012171503,2.69476012171503,3,2020
4,1994,3.20231282010126,3.20231282010126,3,2020
1,1995,3.0290963824223,3.0290963824223,3,2020
2,1995,2.97283529842738,2.97283529842738,3,2020
3,1995,2.50046532015762,2.50046532015762,3,2020
4,1995,1.94515779237117,1.94515779237117,3,2020
1,1996,1.24259607334287,1.24259607334287,3,2020
2,1996,1.46161524773916,1.46161524773916,3,2020
3,1996,1.76880438013955,1.76880438013955,3,2020
4,1996,1.88213333871408,1.88213333871408,3,2020
1,1997,1.97662804343586,1.97662804343586,3,2020
2,1997,2.51002192645027,2.51002192645027,3,2020
3,1997,2.74851592503267,2.74851592503267,3,2020
4,1997,3.42084507635614,3.42084507635614,3,2020
1,1998,3.86006714054168,3.86006714054168,3,2020
2,1998,3.01112828135666,3.01112828135666,3,2020
3,1998,2.84520005827089,2.84520005827089,3,2020
4,1998,1.87528901338201,1.87528901338201,3,2020
1,1999,2.204925704218,2.204925704218,3,2020
2,1999,2.33090982499593,2.33090982499593,3,2020
3,1999,2.89941745117188,2.89941745117188,3,2020
4,1999,3.93828115658155,3.93828115658155,3,2020
1,2000,4.19327685653941,4.19327685653941,3,2020
2,2000,4.4937212558323,4.4937212558323,3,2020
3,2000,3.90872342132433,3.90872342132433,3,2020
4,2000,3.37767150605925,3.37767150605925,3,2020
1,2001,3.14488850277817,3.14488850277817,3,2020
2,2001,2.35074954639805,2.35074954639805,3,2020
3,2001,1.89472609538637,1.89472609538637,3,2020
4,2001,1.35386631001224,1.35386631001224,3,2020
1,2002,0.408194202236545,0.408194202236545,3,2020
2,2002,0.867391908986903,0.867391908986903,3,2020
3,2002,1.15729683996393,1.15729683996393,3,2020
4,2002,1.20351845054401,1.20351845054401,3,2020
1,2003,0.787157498610669,0.787157498610669,3,2020
2,2003,0.33053364821134,0.33053364821134,3,2020
3,2003,0.469416736040529,0.469416736040529,3,2020
4,2003,1.04489622487818,1.04489622487818,3,2020
1,2004,1.94014440430712,1.94014440430712,3,2020
2,2004,2.4341991495819,2.4341991495819,3,2020
3,2004,2.11089251637868,2.11089251637868,3,2020
4,2004,1.72935369321785,1.72935369321785,3,2020
1,2005,1.43155995889044,1.43155995889044,3,2020
2,2005,1.4505043378108,1.4505043378108,3,2020
3,2005,1.95237887592561,1.95237887592561,3,2020
4,2005,2.21752167635254,2.21752167635254,3,2020
1,2006,2.8833099417527,2.8833099417527,3,2020
2,2006,3.37555256937387,3.37555256937387,3,2020
3,2006,3.22273975389957,3.22273975389957,3,2020
4,2006,3.80885106905218,3.80885106905218,3,2020
1,2007,3.52854976553947,3.52854976553947,3,2020
2,2007,3.13268490618925,3.13268490618925,3,2020
3,2007,2.97229212692405,2.97229212692405,3,2020
4,2007,2.31971848840038,2.31971848840038,3,2020
1,2008,2.16006699598093,2.16006699598093,3,2020
2,2008,1.09484979476946,1.09484979476946,3,2020
3,2008,0.123666534194311,0.123666534194311,3,2020
4,2008,-2.13507495367362,-2.13507495367362,3,2020
1,2009,-5.65975135114219,-5.65975135114219,3,2020
2,2009,-5.35465016640925,-5.35465016640925,3,2020
3,2009,-4.49293162577576,-4.49293162577576,3,2020
4,2009,-2.31973406124665,-2.31973406124665,3,2020
1,2010,1.23370643892136,1.23370643892136,3,2020
2,2010,2.26696139433651,2.26696139433651,3,2020
3,2010,2.32720927359389,2.32720927359389,3,2020
4,2010,2.42858092000096,2.42858092000096,3,2020
1,2011,2.91625339898474,2.91625339898474,3,2020
2,2011,1.91264014899994,1.91264014899994,3,2020
3,2011,1.5767242055069,1.5767242055069,3,2020
4,2011,0.577895891501457,0.577895891501457,3,2020
1,2012,-0.47250599506492,-0.47250599506492,3,2020
2,2012,-0.801532425074858,-0.801532425074858,3,2020
3,2012,-1.00277887852135,-1.00277887852135,3,2020
4,2012,-1.05078934776638,-1.05078934776638,3,2020
1,2013,-1.22986146349884,-1.22986146349884,3,2020
2,2013,-0.374058310131953,-0.374058310131953,3,2020
3,2013,0.0431652364166535,0.0431652364166536,3,2020
4,2013,0.714131124752315,0.714131124752315,3,2020
1,2014,1.57091268236662,1.57091268236662,3,2020
2,2014,1.2134454167952,1.2134454167952,3,2020
3,2014,1.36457984841611,1.36457984841611,3,2020
4,2014,1.55025108689715,1.55025108689715,3,2020
1,2015,1.84337404670987,1.84337404670987,3,2020
2,2015,2.07403047425572,2.07403047425572,3,2020
3,2015,2.04240463874736,2.04240463874736,3,2020
4,2015,2.01978553666289,2.01978553666289,3,2020
1,2016,1.90357277154665,1.90357277154665,3,2020
2,2016,1.77914391571219,1.77914391571219,3,2020
3,2016,1.78022805843248,1.78022805843248,3,2020
4,2016,2.12301161100368,2.12301161100368,3,2020
1,2017,2.162797680011,2.162797680011,3,2020
2,2017,2.59457918216519,2.59457918216519,3,2020
3,2017,2.93200897066508,2.93200897066508,3,2020
4,2017,2.98174317947968,2.98174317947968,3,2020
1,2018,2.55513743646307,2.55513743646307,3,2020
2,2018,2.20307957368786,2.20307957368786,3,2020
3,2018,1.63119229109545,1.63119229109545,3,2020
4,2018,1.22902955796365,1.22902955796365,3,2020
1,2019,1.48604074952827,1.48604074952827,3,2020
2,2019,1.21262212091686,1.21262212091686,3,2020
3,2019,1.30733799123086,1.30733799123086,3,2020
4,2019,0.959518722774333,0.959518722774333,3,2020
1,2020,-3.14769510815052,-3.14769510815053,3,2020
2,2020,-17.2830758695918,-24.6316079675886,3,2020
3,2020,-24.3507662503124,-22.7873280894288,3,2020
4,2020,-26.706663043886,-7.78829806389495,3,2020
1,2021,,10.1920395187891,3,2020
2,2021,,20.9802420683995,3,2020
3,2021,,26.3743433432047,3,2020
4,2021,,28.1723771014731,3,2020
1,1992,2.35922798713203,2.35922798667275,4,2020
2,1992,1.63795482952687,1.63795482952687,4,2020
3,1992,1.4044516642931,1.4044516642931,4,2020
4,1992,0.156950222901875,0.156950222901875,4,2020
1,1993,-1.7879389327991,-1.7879389327991,4,2020
2,1993,-1.04129236324586,-1.04129236324586,4,2020
3,1993,-0.444029875176277,-0.444029875176277,4,2020
4,1993,0.142119951426234,0.142119951426234,4,2020
1,1994,1.76418550159252,1.76418550159252,4,2020
2,1994,2.31766408366043,2.31766408366043,4,2020
3,1994,2.69476012171503,2.69476012171503,4,2020
4,1994,3.20231282010126,3.20231282010126,4,2020
1,1995,3.0290963824223,3.0290963824223,4,2020
2,1995,2.97283529842738,2.97283529842738,4,2020
3,1995,2.50046532015762,2.50046532015762,4,2020
4,1995,1.94515779237117,1.94515779237117,4,2020
1,1996,1.31593643756005,1.31593643756005,4,2020
2,1996,1.53443453323066,1.53443453323066,4,2020
3,1996,1.82100228016084,1.82100228016084,4,2020
4,1996,1.92603576961075,1.92603576961075,4,2020
1,1997,1.98268743149923,1.98268743149923,4,2020
2,1997,2.48120602782718,2.48120602782718,4,2020
3,1997,2.74990386057299,2.74990386057299,4,2020
4,1997,3.44896542369468,3.44896542369468,4,2020
1,1998,3.90587623403977,3.90587623403977,4,2020
2,1998,3.06797094239153,3.06797094239153,4,2020
3,1998,2.8389971714619,2.8389971714619,4,2020
4,1998,1.77707468210486,1.77707468210486,4,2020
1,1999,2.14606318398061,2.14606318398061,4,2020
2,1999,2.28962123663767,2.28962123663767,4,2020
3,1999,2.90079857543468,2.90079857543468,4,2020
4,1999,4.00734021475748,4.00734021475748,4,2020
1,2000,4.18596495607835,4.18596495607835,4,2020
2,2000,4.50081508671942,4.50081508671942,4,2020
3,2000,3.88715991435877,3.88715991435877,4,2020
4,2000,3.35889771755031,3.35889771755031,4,2020
1,2001,3.1487649095957,3.1487649095957,4,2020
2,2001,2.34463789475463,2.34463789475463,4,2020
3,2001,1.90838262760156,1.90838262760156,4,2020
4,2001,1.36906434501796,1.36906434501796,4,2020
1,2002,0.404860772442128,0.404860772442128,4,2020
2,2002,0.863055501382348,0.863055501382348,4,2020
3,2002,1.15590288341856,1.15590288341856,4,2020
4,2002,1.19888413157845,1.19888413157845,4,2020
1,2003,0.808685401179399,0.808685401179399,4,2020
2,2003,0.34854445595669,0.34854445595669,4,2020
3,2003,0.48813335826654,0.48813335826654,4,2020
4,2003,1.05424883322671,1.05424883322671,4,2020
1,2004,1.9099993446134,1.9099993446134,4,2020
2,2004,2.43621451971499,2.43621451971499,4,2020
3,2004,2.10799975449978,2.10799975449978,4,2020
4,2004,1.70918787808783,1.70918787808783,4,2020
1,2005,1.4639118805744,1.4639118805744,4,2020
2,2005,1.43266232354646,1.43266232354646,4,2020
3,2005,1.93444226219486,1.93444226219486,4,2020
4,2005,2.20883715184153,2.20883715184153,4,2020
1,2006,2.87607163013111,2.87607163013111,4,2020
2,2006,3.39613915245058,3.39613915245058,4,2020
3,2006,3.22597351976754,3.22597351976754,4,2020
4,2006,3.80278282683775,3.80278282683775,4,2020
1,2007,3.52069406258846,3.52069406258846,4,2020
2,2007,3.13151211949398,3.13151211949398,4,2020
3,2007,2.97670634202831,2.97670634202831,4,2020
4,2007,2.34479937956229,2.34479937956229,4,2020
1,2008,2.15158758374512,2.15158758374512,4,2020
2,2008,1.09161258484707,1.09161258484707,4,2020
3,2008,0.141196830006596,0.141196830006596,4,2020
4,2008,-2.15400049485067,-2.15400049485067,4,2020
1,2009,-5.64035710102185,-5.64035710102185,4,2020
2,2009,-5.34852265510429,-5.34852265510429,4,2020
3,2009,-4.49202735829053,-4.49202735829053,4,2020
4,2009,-2.32847358584651,-2.32847358584651,4,2020
1,2010,1.23349542468456,1.23349542468456,4,2020
2,2010,2.25260855923382,2.25260855923382,4,2020
3,2010,2.3091764485605,2.3091764485605,4,2020
4,2010,2.44439725302823,2.44439725302823,4,2020
1,2011,2.90181836795322,2.90181836795322,4,2020
2,2011,1.92352289247077,1.92352289247077,4,2020
3,2011,1.57642133280318,1.57642133280318,4,2020
4,2011,0.569745727290494,0.569745727290494,4,2020
1,2012,-0.491415571101839,-0.491415571101839,4,2020
2,2012,-0.80429442466281,-0.80429442466281,4,2020
3,2012,-1.01132221700949,-1.01132221700949,4,2020
4,2012,-1.03036633094165,-1.03036633094165,4,2020
1,2013,-1.20996195551587,-1.20996195551587,4,2020
2,2013,-0.372050370298638,-0.372050370298638,4,2020
3,2013,0.0621100965223276,0.0621100965223276,4,2020
4,2013,0.710764328756319,0.710764328756319,4,2020
1,2014,1.57607101987132,1.57607101987132,4,2020
2,2014,1.21407181712683,1.21407181712683,4,2020
3,2014,1.35964606182242,1.35964606182242,4,2020
4,2014,1.5225315141107,1.5225315141107,4,2020
1,2015,1.73385861009345,1.73385861009345,4,2020
2,2015,1.99605592145682,1.99605592145682,4,2020
3,2015,1.97095471235849,1.97095471235849,4,2020
4,2015,2.00826100473208,2.00826100473208,4,2020
1,2016,1.90236214064765,1.90236214064765,4,2020
2,2016,1.70988717557439,1.70988717557439,4,2020
3,2016,1.72859514189303,1.72859514189303,4,2020
4,2016,2.04829783208269,2.04829783208269,4,2020
1,2017,2.23589013172949,2.23589013172949,4,2020
2,2017,2.65409986496161,2.65409986496161,4,2020
3,2017,3.01194069439812,3.01194069439812,4,2020
4,2017,3.09233092255972,3.09233092255972,4,2020
1,2018,2.52876442321186,2.52876442321186,4,2020
2,2018,2.19926484166701,2.19926484166701,4,2020
3,2018,1.52919068689688,1.52919068689688,4,2020
4,2018,1.14560806661941,1.14560806661941,4,2020
1,2019,1.46683032208437,1.46683032208437,4,2020
2,2019,1.24408807952638,1.24408807952638,4,2020
3,2019,1.41409162125639,1.41409162125639,4,2020
4,2019,1.01017959506156,1.01017959506155,4,2020
1,2020,-3.24768010805583,-3.24768010805583,4,2020
2,2020,-14.7385841176759,-14.7385841176759,4,2020
3,2020,-23.9986843841951,-29.89176603488,4,2020
4,2020,-27.0853844730348,-15.2947149907107,4,2020
1,2021,,9.26542461333607,4,2020
2,2021,,24.0015083757641,4,2020
3,2021,,31.3695502569781,4,2020
4,2021,,33.8255642173828,4,2020
1,1992,2.35922798701471,2.35922798698454,1,2021
2,1992,1.63795482952687,1.63795482952687,1,2021
3,1992,1.4044516642931,1.40445166429311,1,2021
4,1992,0.156950222901875,0.156950222901875,1,2021
1,1993,-1.7879389327991,-1.7879389327991,1,2021
2,1993,-1.04129236324586,-1.04129236324586,1,2021
3,1993,-0.444029875176277,-0.444029875176277,1,2021
4,1993,0.142119951426234,0.142119951426234,1,2021
1,1994,1.76418550159252,1.76418550159252,1,2021
2,1994,2.31766408366043,2.31766408366043,1,2021
3,1994,2.69476012171503,2.69476012171503,1,2021
4,1994,3.20231282010126,3.20231282010126,1,2021
1,1995,3.0290963824223,3.0290963824223,1,2021
2,1995,2.97283529842738,2.97283529842738,1,2021
3,1995,2.50046532015762,2.50046532015762,1,2021
4,1995,1.94515779237117,1.94515779237117,1,2021
1,1996,1.29335517648683,1.29335517648683,1,2021
2,1996,1.5315371268884,1.5315371268884,1,2021
3,1996,1.82470761175761,1.82470761175761,1,2021
4,1996,1.92647455296859,1.92647455296859,1,2021
1,1997,2.00238836686457,2.00238836686457,1,2021
2,1997,2.47245413561328,2.47245413561328,1,2021
3,1997,2.73202715652352,2.73202715652352,1,2021
4,1997,3.44190149513572,3.44190149513572,1,2021
1,1998,3.88849841985715,3.88849841985715,1,2021
2,1998,3.06460417638201,3.06460417638201,1,2021
3,1998,2.85045967661115,2.85045967661115,1,2021
4,1998,1.77482586593261,1.77482586593261,1,2021
1,1999,2.15628062500286,2.15628062500286,1,2021
2,1999,2.29509598561992,2.29509598561992,1,2021
3,1999,2.90239776547359,2.90239776547359,1,2021
4,1999,3.99765982367757,3.99765982367757,1,2021
1,2000,4.17633130935164,4.17633130935164,1,2021
2,2000,4.49759395102531,4.49759395102531,1,2021
3,2000,3.86465847698705,3.86465847698705,1,2021
4,2000,3.37102664779003,3.37102664779003,1,2021
1,2001,3.15652866786678,3.15652866786678,1,2021
2,2001,2.34124052750955,2.34124052750955,1,2021
3,2001,1.91523441126853,1.91523441126853,1,2021
4,2001,1.36234003852365,1.36234003852365,1,2021
1,2002,0.412381285427554,0.412381285427554,1,2021
2,2002,0.870742860728724,0.870742860728724,1,2021
3,2002,1.1668130821753,1.1668130821753,1,2021
4,2002,1.18700863204597,1.18700863204597,1,2021
1,2003,0.798191108665214,0.798191108665214,1,2021
2,2003,0.348521163859883,0.348521163859883,1,2021
3,2003,0.486393744442459,0.486393744442459,1,2021
4,2003,1.05787966170026,1.05787966170026,1,2021
1,2004,1.90169260320971,1.90169260320971,1,2021
2,2004,2.43336508396201,2.43336508396201,1,2021
3,2004,2.11079820071938,2.11079820071938,1,2021
4,2004,1.73653066346013,1.73653066346013,1,2021
1,2005,1.48009466988281,1.48009466988281,1,2021
2,2005,1.41988553076338,1.41988553076338,1,2021
3,2005,1.93221193142337,1.93221193142337,1,2021
4,2005,2.18921782577048,2.18921782577048,1,2021
1,2006,2.86442873217476,2.86442873217476,1,2021
2,2006,3.40384041494972,3.40384041494972,1,2021
3,2006,3.22206128419977,3.22206128419977,1,2021
4,2006,3.79833224485597,3.79833224485597,1,2021
1,2007,3.52343723795718,3.52343723795718,1,2021
2,2007,3.13236627379874,3.13236627379874,1,2021
3,2007,2.98087393164368,2.98087393164368,1,2021
4,2007,2.36121348578444,2.36121348578444,1,2021
1,2008,2.13625830505608,2.13625830505608,1,2021
2,2008,1.12042378011163,1.12042378011163,1,2021
3,2008,0.160818199635027,0.160818199635027,1,2021
4,2008,-2.15493788200353,-2.15493788200353,1,2021
1,2009,-5.61947957427633,-5.61947957427633,1,2021
2,2009,-5.3670566805198,-5.3670566805198,1,2021
3,2009,-4.50271960543276,-4.50271960543276,1,2021
4,2009,-2.34757503870442,-2.34757503870442,1,2021
1,2010,1.23473986682403,1.23473986682403,1,2021
2,2010,2.24792255392965,2.24792255392965,1,2021
3,2010,2.29536710196323,2.29536710196323,1,2021
4,2010,2.46767188311037,2.46767188311037,1,2021
1,2011,2.89991503112794,2.89991503112794,1,2021
2,2011,1.91769762633229,1.91769762633229,1,2021
3,2011,1.60120250254359,1.60120250254359,1,2021
4,2011,0.584863910980049,0.584863910980049,1,2021
1,2012,-0.483349569691383,-0.483349569691383,1,2021
2,2012,-0.763269759962626,-0.763269759962626,1,2021
3,2012,-1.00654346437484,-1.00654346437484,1,2021
4,2012,-1.03382092859036,-1.03382092859036,1,2021
1,2013,-1.18706192527811,-1.18706192527811,1,2021
2,2013,-0.381569273813953,-0.381569273813953,1,2021
3,2013,0.0608140660270928,0.0608140660270928,1,2021
4,2013,0.735730560408721,0.735730560408721,1,2021
1,2014,1.56193114465708,1.56193114465708,1,2021
2,2014,1.23569858478358,1.23569858478358,1,2021
3,2014,1.36041901640265,1.36041901640265,1,2021
4,2014,1.50297671484394,1.50297671484394,1,2021
1,2015,1.75328233821761,1.75328233821761,1,2021
2,2015,1.97205475157174,1.97205475157174,1,2021
3,2015,1.9752934190272,1.9752934190272,1,2021
4,2015,2.01902422777644,2.01902422777644,1,2021
1,2016,1.88690088223975,1.88690088223975,1,2021
2,2016,1.70901547119449,1.70901547119449,1,2021
3,2016,1.70518424429613,1.70518424429613,1,2021
4,2016,2.03337758802253,2.03337758802253,1,2021
1,2017,2.22217813687453,2.22217813687453,1,2021
2,2017,2.6659577438181,2.6659577438181,1,2021
3,2017,2.99688490741981,2.99688490741981,1,2021
4,2017,3.07797074104377,3.07797074104377,1,2021
1,2018,2.51923770256104,2.51923770256104,1,2021
2,2018,2.26328530907034,2.26328530907034,1,2021
3,2018,1.57805131585884,1.57805131585884,1,2021
4,2018,1.23358955241981,1.23358955241981,1,2021
1,2019,1.51893581491416,1.51893581491416,1,2021
2,2019,1.28516566149108,1.28516566149108,1,2021
3,2019,1.39407397130042,1.39407397130042,1,2021
4,2019,1.02119070096112,1.02119070096112,1,2021
1,2020,-3.20452338300656,-3.20452338300656,1,2021
2,2020,-14.7147930096619,-14.7147930096619,1,2021
3,2020,-4.29437447257432,-4.29437447257433,1,2021
4,2020,1.85699906967295,3.33865705933392,1,2021
1,2021,6.58882487140162,8.22315345719829,1,2021
2,2021,9.42792035243883,9.44293634300417,1,2021
3,2021,10.8474680929574,8.1815145561588,1,2021
4,2021,11.3206506731303,5.62239693606943,1,2021
1,2022,,2.94909232214327,1,2021
2,2022,,1.34510955378757,1,2021
3,2022,,0.543118169609725,1,2021
4,2022,,0.275787708217109,1,2021
1,1992,2.35922798655344,2.35922798655344,2,2021
2,1992,1.63795482952687,1.63795482952687,2,2021
3,1992,1.4044516642931,1.4044516642931,2,2021
4,1992,0.156950222901875,0.156950222901875,2,2021
1,1993,-1.7879389327991,-1.7879389327991,2,2021
2,1993,-1.04129236324586,-1.04129236324586,2,2021
3,1993,-0.444029875176277,-0.444029875176277,2,2021
4,1993,0.142119951426234,0.142119951426234,2,2021
1,1994,1.76418550159252,1.76418550159252,2,2021
2,1994,2.31766408366043,2.31766408366043,2,2021
3,1994,2.69476012171503,2.69476012171503,2,2021
4,1994,3.20231282010126,3.20231282010126,2,2021
1,1995,3.0290963824223,3.0290963824223,2,2021
2,1995,2.97283529842738,2.97283529842738,2,2021
3,1995,2.50046532015762,2.50046532015762,2,2021
4,1995,1.94515779237117,1.94515779237117,2,2021
1,1996,1.31094765170654,1.31094765170654,2,2021
2,1996,1.54124838688885,1.54124838688885,2,2021
3,1996,1.82319688040662,1.82319688040662,2,2021
4,1996,1.9016446085258,1.9016446085258,2,2021
1,1997,2.01277884342919,2.01277884342919,2,2021
2,1997,2.46447986712601,2.46447986712601,2,2021
3,1997,2.73228327842012,2.73228327842012,2,2021
4,1997,3.44087821628691,3.44087821628691,2,2021
1,1998,3.89380909076005,3.89380909076005,2,2021
2,1998,3.0934813713567,3.0934813713567,2,2021
3,1998,2.85765172634838,2.85765172634838,2,2021
4,1998,1.73357067304738,1.73357067304738,2,2021
1,1999,2.14844163416263,2.14844163416263,2,2021
2,1999,2.280752328525,2.280752328525,2,2021
3,1999,2.90271772220079,2.90271772220079,2,2021
4,1999,4.01942684527907,4.01942684527907,2,2021
1,2000,4.17160489441613,4.17160489441613,2,2021
2,2000,4.4967589497108,4.4967589497108,2,2021
3,2000,3.87463159183801,3.87463159183801,2,2021
4,2000,3.39060665020166,3.39060665020166,2,2021
1,2001,3.15126038480247,3.15126038480247,2,2021
2,2001,2.33455612754476,2.33455612754476,2,2021
3,2001,1.90830570780098,1.90830570780098,2,2021
4,2001,1.35461570698385,1.35461570698385,2,2021
1,2002,0.423897014498587,0.423897014498587,2,2021
2,2002,0.870853519015347,0.870853519015347,2,2021
3,2002,1.15366700369548,1.15366700369548,2,2021
4,2002,1.19043620078438,1.19043620078438,2,2021
1,2003,0.785509688491493,0.785509688491493,2,2021
2,2003,0.34175728758683,0.34175728758683,2,2021
3,2003,0.49124076567697,0.49124076567697,2,2021
4,2003,1.0739426997743,1.0739426997743,2,2021
1,2004,1.89828232665743,1.89828232665743,2,2021
2,2004,2.4345515674183,2.4345515674183,2,2021
3,2004,2.11899881650499,2.11899881650499,2,2021
4,2004,1.72629134143891,1.72629134143891,2,2021
1,2005,1.4902758421901,1.4902758421901,2,2021
2,2005,1.41183091331492,1.41183091331492,2,2021
3,2005,1.93368813287156,1.93368813287156,2,2021
4,2005,2.20390225134315,2.20390225134315,2,2021
1,2006,2.84577270321105,2.84577270321105,2,2021
2,2006,3.41573736365641,3.41573736365641,2,2021
3,2006,3.23412182284857,3.23412182284857,2,2021
4,2006,3.79251766698079,3.79251766698079,2,2021
1,2007,3.52932653363856,3.52932653363856,2,2021
2,2007,3.13222810364935,3.13222810364935,2,2021
3,2007,2.97575538152466,2.97575538152466,2,2021
4,2007,2.33905986995449,2.33905986995449,2,2021
1,2008,2.15574979945181,2.15574979945181,2,2021
2,2008,1.10218480247799,1.10218480247799,2,2021
3,2008,0.144797136736918,0.144797136736918,2,2021
4,2008,-2.13415430377341,-2.13415430377341,2,2021
1,2009,-5.62678544929518,-5.62678544929518,2,2021
2,2009,-5.34808724972177,-5.34808724972177,2,2021
3,2009,-4.50339934103499,-4.50339934103499,2,2021
4,2009,-2.35838289978688,-2.35838289978688,2,2021
1,2010,1.22964665589078,1.22964665589078,2,2021
2,2010,2.24490036682599,2.24490036682599,2,2021
3,2010,2.2977899376774,2.2977899376774,2,2021
4,2010,2.47101966308072,2.47101966308072,2,2021
1,2011,2.9048392496706,2.9048392496706,2,2021
2,2011,1.91608028606896,1.91608028606896,2,2021
3,2011,1.60034504459983,1.60034504459983,2,2021
4,2011,0.598472735379585,0.598472735379585,2,2021
1,2012,-0.488321858693019,-0.488321858693019,2,2021
2,2012,-0.763516083254057,-0.763516083254057,2,2021
3,2012,-0.992727202353139,-0.992727202353139,2,2021
4,2012,-1.04971997224194,-1.04971997224194,2,2021
1,2013,-1.18375779521765,-1.18375779521765,2,2021
2,2013,-0.384109039150216,-0.384109039150216,2,2021
3,2013,0.0383354695772332,0.0383354695772331,2,2021
4,2013,0.74998680702183,0.74998680702183,2,2021
1,2014,1.55731320453836,1.55731320453836,2,2021
2,2014,1.24006646304293,1.24006646304293,2,2021
3,2014,1.35221087475301,1.35221087475301,2,2021
4,2014,1.51459679765846,1.51459679765846,2,2021
1,2015,1.76065754899899,1.76065754899899,2,2021
2,2015,1.98006994673559,1.98006994673559,2,2021
3,2015,1.96595229153398,1.96595229153398,2,2021
4,2015,2.00529300754808,2.00529300754808,2,2021
1,2016,1.8846319882027,1.8846319882027,2,2021
2,2016,1.69052240365721,1.69052240365721,2,2021
3,2016,1.71009270263305,1.71009270263305,2,2021
4,2016,2.07451250077406,2.07451250077406,2,2021
1,2017,2.18830906690894,2.18830906690894,2,2021
2,2017,2.68059066546984,2.68059066546984,2,2021
3,2017,3.03431344433367,3.03431344433367,2,2021
4,2017,3.05726270557911,3.05726270557911,2,2021
1,2018,2.52227851253708,2.52227851253708,2,2021
2,2018,2.23900714645811,2.23900714645811,2,2021
3,2018,1.57943787421722,1.57943787421722,2,2021
4,2018,1.20966715842379,1.20966715842379,2,2021
1,2019,1.55553223210909,1.55553223210909,2,2021
2,2019,1.29496516338645,1.29496516338645,2,2021
3,2019,1.38633688550327,1.38633688550327,2,2021
4,2019,0.977155128448071,0.97715512844807,2,2021
1,2020,-3.27836679445001,-3.27836679445001,2,2021
2,2020,-14.6305741884423,-14.6305741884423,2,2021
3,2020,-4.20702456652251,-4.20702456652251,2,2021
4,2020,-4.91914504125601,-4.91914504125601,2,2021
1,2021,5.62016893756408,8.35472973165574,2,2021
2,2021,11.9437573248561,13.1406177117154,2,2021
3,2021,15.1055515185022,12.0571463602122,2,2021
4,2021,16.1594829163842,7.72294313843529,2,2021
1,2022,,2.75663550767379,2,2021
2,2022,,-0.223149070783109,2,2021
3,2022,,-1.71304136001156,2,2021
4,2022,,-2.20967212308771,2,2021
1,1992,2.35922798655344,2.35922798655344,3,2021
2,1992,1.63795482952687,1.63795482952687,3,2021
3,1992,1.4044516642931,1.4044516642931,3,2021
4,1992,0.156950222901875,0.156950222901875,3,2021
1,1993,-1.7879389327991,-1.78793893279911,3,2021
2,1993,-1.04129236324586,-1.04129236324586,3,2021
3,1993,-0.444029875176277,-0.444029875176277,3,2021
4,1993,0.142119951426234,0.142119951426234,3,2021
1,1994,1.76418550159252,1.76418550159252,3,2021
2,1994,2.31766408366043,2.31766408366043,3,2021
3,1994,2.69476012171503,2.69476012171503,3,2021
4,1994,3.20231282010126,3.20231282010126,3,2021
1,1995,3.0290963824223,3.0290963824223,3,2021
2,1995,2.97283529842738,2.97283529842738,3,2021
3,1995,2.50046532015762,2.50046532015762,3,2021
4,1995,1.94515779237117,1.94515779237117,3,2021
1,1996,1.31888103607343,1.31888103607343,3,2021
2,1996,1.51876663140234,1.51876663140234,3,2021
3,1996,1.82896791731837,1.82896791731837,3,2021
4,1996,1.90477901930846,1.90477901930846,3,2021
1,1997,2.00388083206298,2.00388083206298,3,2021
2,1997,2.47190054973458,2.47190054973458,3,2021
3,1997,2.73673527068152,2.73673527068152,3,2021
4,1997,3.43089991895058,3.43089991895058,3,2021
1,1998,3.83596145898042,3.83596145898042,3,2021
2,1998,3.04156621529943,3.04156621529943,3,2021
3,1998,2.84791958377959,2.84791958377959,3,2021
4,1998,1.85171746151049,1.85171746151049,3,2021
1,1999,2.20395305010401,2.20395305010401,3,2021
2,1999,2.31964544863017,2.31964544863017,3,2021
3,1999,2.90035311145791,2.90035311145791,3,2021
4,1999,3.90991973971657,3.90991973971657,3,2021
1,2000,4.1618359912476,4.1618359912476,3,2021
2,2000,4.50589654536495,4.50589654536495,3,2021
3,2000,3.87648129663714,3.87648129663714,3,2021
4,2000,3.39011667265634,3.39011667265634,3,2021
1,2001,3.15071587732045,3.15071587732045,3,2021
2,2001,2.34315354071863,2.34315354071863,3,2021
3,2001,1.90285026502812,1.90285026502812,3,2021
4,2001,1.35898828387726,1.35898828387726,3,2021
1,2002,0.437141876475611,0.437141876475611,3,2021
2,2002,0.864698880242099,0.864698880242099,3,2021
3,2002,1.17154458340101,1.17154458340101,3,2021
4,2002,1.18437266340581,1.18437266340581,3,2021
1,2003,0.785332885194867,0.785332885194867,3,2021
2,2003,0.34795446162974,0.34795446162974,3,2021
3,2003,0.483173874972298,0.483173874972298,3,2021
4,2003,1.07329215634995,1.07329215634995,3,2021
1,2004,1.89109034213648,1.89109034213648,3,2021
2,2004,2.42544106152662,2.42544106152662,3,2021
3,2004,2.10646717099021,2.10646717099021,3,2021
4,2004,1.72620514019803,1.72620514019803,3,2021
1,2005,1.49011938390753,1.49011938390753,3,2021
2,2005,1.41091158241085,1.41091158241085,3,2021
3,2005,1.93999288623699,1.93999288623699,3,2021
4,2005,2.2114818148149,2.2114818148149,3,2021
1,2006,2.85029135594888,2.85029135594888,3,2021
2,2006,3.41618372845289,3.41618372845289,3,2021
3,2006,3.23741992522892,3.23741992522892,3,2021
4,2006,3.78622594983031,3.78622594983031,3,2021
1,2007,3.52744307928456,3.52744307928456,3,2021
2,2007,3.12976804843677,3.12976804843677,3,2021
3,2007,2.97707398859532,2.97707398859532,3,2021
4,2007,2.3449804500544,2.3449804500544,3,2021
1,2008,2.14561659595747,2.14561659595747,3,2021
2,2008,1.1062523265954,1.1062523265954,3,2021
3,2008,0.152468509639747,0.152468509639747,3,2021
4,2008,-2.14051713860425,-2.14051713860425,3,2021
1,2009,-5.62014908699592,-5.62014908699592,3,2021
2,2009,-5.34774331474708,-5.34774331474708,3,2021
3,2009,-4.50875850532876,-4.50875850532876,3,2021
4,2009,-2.35574564189223,-2.35574564189223,3,2021
1,2010,1.22524345945851,1.22524345945851,3,2021
2,2010,2.23464890663383,2.23464890663383,3,2021
3,2010,2.29744300277071,2.29744300277071,3,2021
4,2010,2.4795872604787,2.4795872604787,3,2021
1,2011,2.90807305492602,2.90807305492602,3,2021
2,2011,1.92131390696579,1.92131390696579,3,2021
3,2011,1.60806195110228,1.60806195110228,3,2021
4,2011,0.587648828889953,0.587648828889953,3,2021
1,2012,-0.489965073843823,-0.489965073843823,3,2021
2,2012,-0.761104238169696,-0.761104238169696,3,2021
3,2012,-1.00539858318418,-1.00539858318418,3,2021
4,2012,-1.04299012274556,-1.04299012274556,3,2021
1,2013,-1.16873670137174,-1.16873670137174,3,2021
2,2013,-0.379270245573493,-0.379270245573493,3,2021
3,2013,0.0391705945980592,0.0391705945980592,3,2021
4,2013,0.738933284384524,0.738933284384524,3,2021
1,2014,1.54376443624522,1.54376443624522,3,2021
2,2014,1.23605026113414,1.23605026113414,3,2021
3,2014,1.35783500894251,1.35783500894251,3,2021
4,2014,1.51796357171838,1.51796357171838,3,2021
1,2015,1.75616552869755,1.75616552869755,3,2021
2,2015,1.98244862232757,1.98244862232757,3,2021
3,2015,1.96543394599473,1.96543394599473,3,2021
4,2015,2.01765799837395,2.01765799837395,3,2021
1,2016,1.88449747093766,1.88449747093766,3,2021
2,2016,1.69687038189799,1.69687038189799,3,2021
3,2016,1.70974679368716,1.70974679368716,3,2021
4,2016,2.06214187112328,2.06214187112328,3,2021
1,2017,2.19566472525523,2.19566472525523,3,2021
2,2017,2.68746305836036,2.68746305836036,3,2021
3,2017,3.03135348228498,3.03135348228498,3,2021
4,2017,3.06828466363023,3.06828466363023,3,2021
1,2018,2.50243840541398,2.50243840541398,3,2021
2,2018,2.23072701126006,2.23072701126006,3,2021
3,2018,1.57804083342477,1.57804083342477,3,2021
4,2018,1.20508110174336,1.20508110174336,3,2021
1,2019,1.54791139887414,1.54791139887414,3,2021
2,2019,1.31097785846022,1.31097785846022,3,2021
3,2019,1.40252874956899,1.40252874956899,3,2021
4,2019,0.974437713489618,0.974437713489618,3,2021
1,2020,-3.31777929789199,-3.31777929789199,3,2021
2,2020,-14.6280241848854,-14.6280241848854,3,2021
3,2020,-4.08856769332326,-4.08856769332327,3,2021
4,2020,-4.73524175468161,-4.73524175468161,3,2021
1,2021,-1.27431509582675,-1.27431509582674,3,2021
2,2021,14.9763203841327,19.6776783455209,3,2021
3,2021,23.1016381241124,22.0998025423182,3,2021
4,2021,25.8100773707723,13.7027515330108,3,2021
1,2022,,2.1972193560444,3,2021
2,2022,,-4.70609995013546,3,2021
3,2022,,-8.1577596032254,3,2021
4,2022,,-9.30831282092204,3,2021
1,1992,2.35922798655344,2.35922798648352,4,2021
2,1992,1.63795482952687,1.63795482952687,4,2021
3,1992,1.4044516642931,1.4044516642931,4,2021
4,1992,0.156950222901875,0.156950222901875,4,2021
1,1993,-1.7879389327991,-1.7879389327991,4,2021
2,1993,-1.04129236324586,-1.04129236324586,4,2021
3,1993,-0.444029875176277,-0.444029875176277,4,2021
4,1993,0.142119951426234,0.142119951426234,4,2021
1,1994,1.76418550159252,1.76418550159252,4,2021
2,1994,2.31766408366043,2.31766408366043,4,2021
3,1994,2.69476012171503,2.69476012171503,4,2021
4,1994,3.20231282010126,3.20231282010126,4,2021
1,1995,3.0290963824223,3.0290963824223,4,2021
2,1995,2.97283529842738,2.97283529842738,4,2021
3,1995,2.50046532015762,2.50046532015762,4,2021
4,1995,1.94515779237117,1.94515779237117,4,2021
1,1996,1.31397498370966,1.31397498370966,4,2021
2,1996,1.52208459544689,1.52208459544689,4,2021
3,1996,1.83242301581315,1.83242301581315,4,2021
4,1996,1.90141557184462,1.90141557184462,4,2021
1,1997,1.99816127776338,1.99816127776338,4,2021
2,1997,2.4742582394043,2.4742582394043,4,2021
3,1997,2.73728368743991,2.73728368743991,4,2021
4,1997,3.42919096013339,3.42919096013339,4,2021
1,1998,3.84174952846297,3.84174952846297,4,2021
2,1998,3.03966330265337,3.03966330265337,4,2021
3,1998,2.84471199657699,2.84471199657699,4,2021
4,1998,1.85733007742561,1.85733007742561,4,2021
1,1999,2.20199464390682,2.20199464390682,4,2021
2,1999,2.32610641385864,2.32610641385864,4,2021
3,1999,2.90257451092708,2.90257451092708,4,2021
4,1999,3.91191744906483,3.91191744906483,4,2021
1,2000,4.15860091170994,4.15860091170994,4,2021
2,2000,4.49967805090579,4.49967805090579,4,2021
3,2000,3.87487214384044,3.87487214384044,4,2021
4,2000,3.39223866138472,3.39223866138472,4,2021
1,2001,3.15680957229996,3.15680957229996,4,2021
2,2001,2.34361610200411,2.34361610200411,4,2021
3,2001,1.90431992073563,1.90431992073563,4,2021
4,2001,1.35749428881968,1.35749428881968,4,2021
1,2002,0.430402335950331,0.430402335950331,4,2021
2,2002,0.864121880281887,0.864121880281887,4,2021
3,2002,1.17302874934653,1.17302874934653,4,2021
4,2002,1.19829371073492,1.19829371073492,4,2021
1,2003,0.800903228644412,0.800903228644412,4,2021
2,2003,0.357086040993981,0.357086040993981,4,2021
3,2003,0.480103072149896,0.480103072149896,4,2021
4,2003,1.04200282743729,1.04200282743729,4,2021
1,2004,1.8975352629051,1.8975352629051,4,2021
2,2004,2.40885370326873,2.40885370326873,4,2021
3,2004,2.10324388910392,2.10324388910392,4,2021
4,2004,1.74238590908342,1.74238590908342,4,2021
1,2005,1.47158698627485,1.47158698627485,4,2021
2,2005,1.41892731010569,1.41892731010569,4,2021
3,2005,1.95357454170706,1.95357454170706,4,2021
4,2005,2.21513967925131,2.21513967925131,4,2021
1,2006,2.86031446586625,2.86031446586625,4,2021
2,2006,3.41738804952623,3.41738804952623,4,2021
3,2006,3.22924277466694,3.22924277466694,4,2021
4,2006,3.78439821159668,3.78439821159668,4,2021
1,2007,3.52923367128377,3.52923367128377,4,2021
2,2007,3.1319889203947,3.1319889203947,4,2021
3,2007,2.97669144845025,2.97669144845025,4,2021
4,2007,2.34316082263399,2.34316082263399,4,2021
1,2008,2.14944174808542,2.14944174808542,4,2021
2,2008,1.10985825245404,1.10985825245404,4,2021
3,2008,0.142501912989768,0.142501912989768,4,2021
4,2008,-2.14167810212755,-2.14167810212755,4,2021
1,2009,-5.62561318787841,-5.62561318787841,4,2021
2,2009,-5.35657577108258,-5.35657577108258,4,2021
3,2009,-4.50721128520233,-4.50721128520233,4,2021
4,2009,-2.35063047406703,-2.35063047406703,4,2021
1,2010,1.21306811017901,1.21306811017901,4,2021
2,2010,2.23174426310351,2.23174426310351,4,2021
3,2010,2.29543827806034,2.29543827806034,4,2021
4,2010,2.48294128498296,2.48294128498296,4,2021
1,2011,2.91290442972543,2.91290442972543,4,2021
2,2011,1.93215053054263,1.93215053054263,4,2021
3,2011,1.61916916680995,1.61916916680995,4,2021
4,2011,0.591293621532185,0.591293621532185,4,2021
1,2012,-0.494071990828482,-0.494071990828482,4,2021
2,2012,-0.755127415697821,-0.755127415697821,4,2021
3,2012,-1.01326831742056,-1.01326831742056,4,2021
4,2012,-1.03926809773111,-1.03926809773111,4,2021
1,2013,-1.17305468536277,-1.17305468536277,4,2021
2,2013,-0.385339688301645,-0.385339688301645,4,2021
3,2013,0.0492041980539648,0.0492041980539648,4,2021
4,2013,0.745321962360834,0.745321962360834,4,2021
1,2014,1.53853252728255,1.53853252728255,4,2021
2,2014,1.23075455217871,1.23075455217871,4,2021
3,2014,1.36681050804983,1.36681050804983,4,2021
4,2014,1.51025762569863,1.51025762569863,4,2021
1,2015,1.76187497837623,1.76187497837623,4,2021
2,2015,1.97510955095466,1.97510955095466,4,2021
3,2015,1.97166595450136,1.97166595450136,4,2021
4,2015,2.0168317536065,2.0168317536065,4,2021
1,2016,1.90277049034633,1.90277049034633,4,2021
2,2016,1.7248111791518,1.7248111791518,4,2021
3,2016,1.73196942892597,1.73196942892597,4,2021
4,2016,2.03442147864952,2.03442147864952,4,2021
1,2017,2.18974158953176,2.18974158953176,4,2021
2,2017,2.74792200641818,2.74792200641818,4,2021
3,2017,3.00248171753357,3.00248171753357,4,2021
4,2017,3.1145054277953,3.1145054277953,4,2021
1,2018,2.47706833296328,2.47706833296328,4,2021
2,2018,2.1596339136837,2.1596339136837,4,2021
3,2018,1.53142923132625,1.53142923132625,4,2021
4,2018,1.18812065183658,1.18812065183658,4,2021
1,2019,1.79659005654709,1.79659005654709,4,2021
2,2019,1.47448261340244,1.47448261340244,4,2021
3,2019,1.67984739112008,1.67984739112008,4,2021
4,2019,1.12163703968891,1.12163703968891,4,2021
1,2020,-3.03959371271481,-3.03959371271481,4,2021
2,2020,-14.5210538076326,-14.5210538076326,4,2021
3,2020,-3.99090066867302,-3.99090066867302,4,2021
4,2020,-4.38489776550894,-4.38489776550893,4,2021
1,2021,-1.22764857033011,-1.22764857033011,4,2021
2,2021,14.3220758821687,14.3220758821687,4,2021
3,2021,25.0733379720655,29.3663496143402,4,2021
4,2021,28.6570920020311,20.0550911429312,4,2021
1,2022,,2.14757066526518,4,2021
2,2022,,-8.59694162133443,4,2021
3,2022,,-13.9691977646343,4,2021
4,2022,,-15.7599498124008,4,2021
1,1992,2.3592279864158,2.35922798627595,1,2022
2,1992,1.63795482952687,1.63795482952687,1,2022
3,1992,1.4044516642931,1.4044516642931,1,2022
4,1992,0.156950222901875,0.156950222901875,1,2022
1,1993,-1.7879389327991,-1.7879389327991,1,2022
2,1993,-1.04129236324586,-1.04129236324586,1,2022
3,1993,-0.444029875176277,-0.444029875176277,1,2022
4,1993,0.142119951426234,0.142119951426234,1,2022
1,1994,1.76418550159252,1.76418550159252,1,2022
2,1994,2.31766408366043,2.31766408366043,1,2022
3,1994,2.69476012171503,2.69476012171503,1,2022
4,1994,3.20231282010126,3.20231282010126,1,2022
1,1995,3.0290963824223,3.0290963824223,1,2022
2,1995,2.97283529842738,2.97283529842738,1,2022
3,1995,2.50046532015762,2.50046532015762,1,2022
4,1995,1.94515779237117,1.94515779237117,1,2022
1,1996,1.33163884534062,1.33163884534062,1,2022
2,1996,1.48327483178361,1.48327483178361,1,2022
3,1996,1.80851686732737,1.80851686732737,1,2022
4,1996,1.89446519461218,1.89446519461218,1,2022
1,1997,1.95891880106782,1.95891880106782,1,2022
2,1997,2.49756113582404,2.49756113582404,1,2022
3,1997,2.73662916279438,2.73662916279438,1,2022
4,1997,3.44129984695754,3.44129984695754,1,2022
1,1998,3.84076577834633,3.84076577834633,1,2022
2,1998,3.04265462894644,3.04265462894644,1,2022
3,1998,2.85728616789784,2.85728616789784,1,2022
4,1998,1.85230802955589,1.85230802955589,1,2022
1,1999,2.20197791735384,2.20197791735384,1,2022
2,1999,2.31915679090475,2.31915679090475,1,2022
3,1999,2.888593272857,2.888593272857,1,2022
4,1999,3.92644858860696,3.92644858860696,1,2022
1,2000,4.15491309894223,4.15491309894223,1,2022
2,2000,4.50737504354888,4.50737504354888,1,2022
3,2000,3.87308262483519,3.87308262483519,1,2022
4,2000,3.37763403969402,3.37763403969402,1,2022
1,2001,3.18418120910686,3.18418120910686,1,2022
2,2001,2.3438258404116,2.3438258404116,1,2022
3,2001,1.89554622185533,1.89554622185533,1,2022
4,2001,1.33966643129932,1.33966643129932,1,2022
1,2002,0.408214444381683,0.408214444381683,1,2022
2,2002,0.856964758476209,0.856964758476209,1,2022
3,2002,1.17486129873661,1.17486129873661,1,2022
4,2002,1.21455616405,1.21455616405,1,2022
1,2003,0.809010196586613,0.809010196586613,1,2022
2,2003,0.351667824226909,0.351667824226909,1,2022
3,2003,0.476879313705569,0.476879313705569,1,2022
4,2003,1.05631790080485,1.05631790080485,1,2022
1,2004,1.86683898600322,1.86683898600322,1,2022
2,2004,2.42421141889608,2.42421141889608,1,2022
3,2004,2.11989462374103,2.11989462374103,1,2022
4,2004,1.74339797011087,1.74339797011087,1,2022
1,2005,1.48459593249282,1.48459593249282,1,2022
2,2005,1.4180447804123,1.4180447804123,1,2022
3,2005,1.92702155790194,1.92702155790194,1,2022
4,2005,2.21904535130077,2.21904535130077,1,2022
1,2006,2.87046035009479,2.87046035009479,1,2022
2,2006,3.41310641657515,3.41310641657515,1,2022
3,2006,3.24253616170291,3.24253616170291,1,2022
4,2006,3.78147780433777,3.78147780433777,1,2022
1,2007,3.52435283227783,3.52435283227783,1,2022
2,2007,3.13537507271884,3.13537507271884,1,2022
3,2007,2.98224181050213,2.98224181050213,1,2022
4,2007,2.33168440998981,2.33168440998981,1,2022
1,2008,2.17706136034901,2.17706136034901,1,2022
2,2008,1.11726646821997,1.11726646821997,1,2022
3,2008,0.145973222116669,0.145973222116669,1,2022
4,2008,-2.16414339249473,-2.16414339249473,1,2022
1,2009,-5.65435983276552,-5.65435983276552,1,2022
2,2009,-5.36495723158305,-5.36495723158305,1,2022
3,2009,-4.48483424145835,-4.48483424145835,1,2022
4,2009,-2.30815513431408,-2.30815513431408,1,2022
1,2010,1.23193658290328,1.23193658290328,1,2022
2,2010,2.2351006808661,2.2351006808661,1,2022
3,2010,2.2867594746437,2.2867594746437,1,2022
4,2010,2.45915542770097,2.45915542770097,1,2022
1,2011,2.91298923948491,2.91298923948491,1,2022
2,2011,1.92146912337174,1.92146912337174,1,2022
3,2011,1.60097040947593,1.60097040947593,1,2022
4,2011,0.555932520310742,0.555932520310742,1,2022
1,2012,-0.497668994279354,-0.497668994279354,1,2022
2,2012,-0.759066279480791,-0.759066279480791,1,2022
3,2012,-0.997138908339545,-0.997138908339545,1,2022
4,2012,-1.0053303454561,-1.0053303454561,1,2022
1,2013,-1.17137493616384,-1.17137493616384,1,2022
2,2013,-0.37737739281235,-0.37737739281235,1,2022
3,2013,0.0502889050424615,0.0502889050424616,1,2022
4,2013,0.745536377607992,0.745536377607992,1,2022
1,2014,1.53311915013465,1.53311915013465,1,2022
2,2014,1.21972562124839,1.21972562124839,1,2022
3,2014,1.3577811601672,1.3577811601672,1,2022
4,2014,1.50079346107628,1.50079346107628,1,2022
1,2015,1.75451332779446,1.75451332779446,1,2022
2,2015,1.97423590113024,1.97423590113024,1,2022
3,2015,1.97020068514824,1.97020068514824,1,2022
4,2015,2.01572190299388,2.01572190299388,1,2022
1,2016,1.91482277793094,1.91482277793094,1,2022
2,2016,1.72087879998299,1.72087879998299,1,2022
3,2016,1.73061220284998,1.73061220284998,1,2022
4,2016,2.02100002915573,2.02100002915573,1,2022
1,2017,2.17969321555849,2.17969321555849,1,2022
2,2017,2.74240930544554,2.74240930544554,1,2022
3,2017,2.99454520294311,2.99454520294311,1,2022
4,2017,3.10486152817169,3.10486152817169,1,2022
1,2018,2.45003116840496,2.45003116840496,1,2022
2,2018,2.13464953182023,2.13464953182023,1,2022
3,2018,1.48447329150838,1.48447329150838,1,2022
4,2018,1.20694926908651,1.20694926908651,1,2022
1,2019,1.86839104022332,1.86839104022332,1,2022
2,2019,1.55737275629737,1.55737275629737,1,2022
3,2019,1.74751588484732,1.74751588484732,1,2022
4,2019,1.1533975944646,1.1533975944646,1,2022
1,2020,-3.05423275690304,-3.05423275690304,1,2022
2,2020,-14.5388021029249,-14.5388021029249,1,2022
3,2020,-4.05095617674873,-4.05095617674873,1,2022
4,2020,-4.37982947190779,-4.37982947190779,1,2022
1,2021,-1.14825827633228,-1.14825827633228,1,2022
2,2021,14.3796177941209,14.3796177941209,1,2022
3,2021,3.8541602277109,3.8541602277109,1,2022
4,2021,3.64123247094837,3.77482801505974,1,2022
1,2022,3.47744188882335,3.62480531478544,1,2022
2,2022,3.37916753954834,3.38052863101363,1,2022
3,2022,3.33003036491083,3.08966506330732,1,2022
4,2022,3.31365130669833,2.79988171122951,1,2022
1,2023,,2.55884567434321,1,2022
2,2023,,2.41422405221143,1,2022
3,2023,,2.34191324114554,1,2022
4,2023,,2.31780963745691,1,2022
1,1992,2.35922798655344,2.35922798682664,2,2022
2,1992,1.63795482952687,1.63795482952687,2,2022
3,1992,1.40445166429311,1.4044516642931,2,2022
4,1992,0.156950222901875,0.156950222901875,2,2022
1,1993,-1.78793893279911,-1.7879389327991,2,2022
2,1993,-1.04129236324586,-1.04129236324586,2,2022
3,1993,-0.444029875176277,-0.444029875176277,2,2022
4,1993,0.142119951426234,0.142119951426234,2,2022
1,1994,1.76418550159252,1.76418550159252,2,2022
2,1994,2.31766408366043,2.31766408366043,2,2022
3,1994,2.69476012171503,2.69476012171503,2,2022
4,1994,3.20231282010126,3.20231282010126,2,2022
1,1995,3.0290963824223,3.0290963824223,2,2022
2,1995,2.97283529842738,2.97283529842738,2,2022
3,1995,2.50046532015762,2.50046532015762,2,2022
4,1995,1.94515779237117,1.94515779237117,2,2022
1,1996,1.33232994344041,1.33232994344041,2,2022
2,1996,1.48313526469184,1.48313526469184,2,2022
3,1996,1.80919518518361,1.80919518518361,2,2022
4,1996,1.89372950183839,1.89372950183839,2,2022
1,1997,1.95867924092104,1.95867924092104,2,2022
2,1997,2.49819530740605,2.49819530740605,2,2022
3,1997,2.73601674196324,2.73601674196324,2,2022
4,1997,3.4414202245997,3.4414202245997,2,2022
1,1998,3.84119586801708,3.84119586801708,2,2022
2,1998,3.04217510293026,3.04217510293026,2,2022
3,1998,2.85745458763318,2.85745458763318,2,2022
4,1998,1.8526953267717,1.8526953267717,2,2022
1,1999,2.20246362856289,2.20246362856289,2,2022
2,1999,2.31972602595727,2.31972602595727,2,2022
3,1999,2.88767925946951,2.88767925946951,2,2022
4,1999,3.92557709588885,3.92557709588885,2,2022
1,2000,4.15577376108256,4.15577376108256,2,2022
2,2000,4.50780435842066,4.50780435842066,2,2022
3,2000,3.87317091181734,3.87317091181734,2,2022
4,2000,3.37673286070801,3.37673286070801,2,2022
1,2001,3.18415255071878,3.18415255071878,2,2022
2,2001,2.34396256008707,2.34396256008707,2,2022
3,2001,1.89540631047054,1.89540631047054,2,2022
4,2001,1.34051565306728,1.34051565306728,2,2022
1,2002,0.407859035504776,0.407859035504776,2,2022
2,2002,0.856454037053389,0.856454037053389,2,2022
3,2002,1.17513129704547,1.17513129704547,2,2022
4,2002,1.21456790600465,1.21456790600465,2,2022
1,2003,0.809058236543381,0.809058236543381,2,2022
2,2003,0.351736814296499,0.351736814296499,2,2022
3,2003,0.477055919598324,0.477055919598324,2,2022
4,2003,1.05619916656194,1.05619916656194,2,2022
1,2004,1.86691635729903,1.86691635729903,2,2022
2,2004,2.42405833972406,2.42405833972406,2,2022
3,2004,2.12032300235201,2.12032300235201,2,2022
4,2004,1.74321885522675,1.74321885522675,2,2022
1,2005,1.48382883572191,1.48382883572191,2,2022
2,2005,1.41846394843632,1.41846394843632,2,2022
3,2005,1.92728917613278,1.92728917613278,2,2022
4,2005,2.22025262123384,2.22025262123384,2,2022
1,2006,2.86982741364235,2.86982741364235,2,2022
2,2006,3.41210567553527,3.41210567553527,2,2022
3,2006,3.24319904954391,3.24319904954391,2,2022
4,2006,3.78057613628338,3.78057613628338,2,2022
1,2007,3.52490672054477,3.52490672054477,2,2022
2,2007,3.13606734666299,3.13606734666299,2,2022
3,2007,2.98111891381441,2.98111891381441,2,2022
4,2007,2.33266087415776,2.33266087415776,2,2022
1,2008,2.17635303715853,2.17635303715853,2,2022
2,2008,1.11714416409978,1.11714416409978,2,2022
3,2008,0.146434257202333,0.146434257202333,2,2022
4,2008,-2.16486772852424,-2.16486772852424,2,2022
1,2009,-5.65425532967566,-5.65425532967566,2,2022
2,2009,-5.36485779642758,-5.36485779642758,2,2022
3,2009,-4.4853781189941,-4.4853781189941,2,2022
4,2009,-2.3069257272105,-2.3069257272105,2,2022
1,2010,1.23271128379414,1.23271128379414,2,2022
2,2010,2.23664989540575,2.23664989540575,2,2022
3,2010,2.2853070294701,2.2853070294701,2,2022
4,2010,2.4573863334286,2.4573863334286,2,2022
1,2011,2.91251965488806,2.91251965488806,2,2022
2,2011,1.9228462765466,1.9228462765466,2,2022
3,2011,1.60236905309297,1.60236905309297,2,2022
4,2011,0.552800921322816,0.552800921322816,2,2022
1,2012,-0.495217779266833,-0.495217779266832,2,2022
2,2012,-0.759437125072271,-0.759437125072271,2,2022
3,2012,-0.997678980757133,-0.997678980757133,2,2022
4,2012,-1.00796699634038,-1.00796699634038,2,2022
1,2013,-1.16933778249759,-1.16933778249759,2,2022
2,2013,-0.376339480546639,-0.376339480546639,2,2022
3,2013,0.0525864759771232,0.0525864759771233,2,2022
4,2013,0.740473522636376,0.740473522636376,2,2022
1,2014,1.53577730194046,1.53577730194046,2,2022
2,2014,1.22006536069281,1.22006536069281,2,2022
3,2014,1.35617590021671,1.35617590021671,2,2022
4,2014,1.50187510523871,1.50187510523871,2,2022
1,2015,1.75399171790733,1.75399171790733,2,2022
2,2015,1.97311480517037,1.97311480517037,2,2022
3,2015,1.9690566823821,1.9690566823821,2,2022
4,2015,2.02082701232413,2.02082701232413,2,2022
1,2016,1.91356681009476,1.91356681009476,2,2022
2,2016,1.72062686264045,1.72062686264045,2,2022
3,2016,1.72892178151511,1.72892178151511,2,2022
4,2016,2.02518666602991,2.02518666602991,2,2022
1,2017,2.17597925483219,2.17597925483219,2,2022
2,2017,2.74101705806493,2.74101705806493,2,2022
3,2017,2.99666783738977,2.99666783738977,2,2022
4,2017,3.10596579190419,3.10596579190419,2,2022
1,2018,2.44994496560811,2.44994496560811,2,2022
2,2018,2.13506192096586,2.13506192096586,2,2022
3,2018,1.49177714881139,1.49177714881139,2,2022
4,2018,1.2042617142056,1.2042617142056,2,2022
1,2019,1.88187294018189,1.88187294018189,2,2022
2,2019,1.59065060901353,1.59065060901353,2,2022
3,2019,1.77016484586239,1.77016484586239,2,2022
4,2019,1.12976787533476,1.12976787533476,2,2022
1,2020,-3.15095230678799,-3.15095230678799,2,2022
2,2020,-14.5871369968212,-14.5871369968212,2,2022
3,2020,-4.02391011454216,-4.02391011454216,2,2022
4,2020,-4.2709964876817,-4.2709964876817,2,2022
1,2021,-0.906008646802039,-0.906008646802037,2,2022
2,2021,14.6054369461311,14.6054369461311,2,2022
3,2021,4.03810826859105,4.03810826859106,2,2022
4,2021,4.64188656956954,4.64188656956954,2,2022
1,2022,2.08361950031458,1.46288485601486,2,2022
2,2022,0.548659258761598,0.276979253046832,2,2022
3,2022,-0.218820862014892,0.473162072836791,2,2022
4,2022,-0.474647568940389,1.44042562755608,2,2022
1,2023,,2.56776222937605,2,2022
2,2023,,3.24416419046802,2,2022
3,2023,,3.58236517101401,2,2022
4,2023,,3.69509883119601,2,2022
1,1992,2.35922798655344,2.35922798655344,3,2022
2,1992,1.63795482952687,1.63795482952687,3,2022
3,1992,1.4044516642931,1.4044516642931,3,2022
4,1992,0.156950222901875,0.156950222901875,3,2022
1,1993,-1.7879389327991,-1.7879389327991,3,2022
2,1993,-1.04129236324586,-1.04129236324586,3,2022
3,1993,-0.444029875176277,-0.444029875176277,3,2022
4,1993,0.142119951426234,0.142119951426234,3,2022
1,1994,1.76418550159252,1.76418550159252,3,2022
2,1994,2.31766408366043,2.31766408366043,3,2022
3,1994,2.69476012171503,2.69476012171503,3,2022
4,1994,3.20231282010126,3.20231282010126,3,2022
1,1995,3.0290963824223,3.0290963824223,3,2022
2,1995,2.97283529842738,2.97283529842738,3,2022
3,1995,2.50046532015762,2.50046532015762,3,2022
4,1995,1.94515779237117,1.94515779237117,3,2022
1,1996,1.36143650812013,1.36143650812013,3,2022
2,1996,1.46961339970586,1.46961339970586,3,2022
3,1996,1.76069011541395,1.76069011541395,3,2022
4,1996,1.90207856031683,1.90207856031683,3,2022
1,1997,1.95780776349215,1.95780776349215,3,2022
2,1997,2.4758019698425,2.4758019698425,3,2022
3,1997,2.7819623131246,2.7819623131246,3,2022
4,1997,3.44536637732977,3.44536637732977,3,2022
1,1998,3.8519857780986,3.8519857780986,3,2022
2,1998,3.06771604492435,3.06771604492435,3,2022
3,1998,2.8401564615377,2.8401564615377,3,2022
4,1998,1.81941201352374,1.81941201352374,3,2022
1,1999,2.29235950185043,2.29235950185043,3,2022
2,1999,2.30477455596514,2.30477455596514,3,2022
3,1999,2.83806383880458,2.83806383880458,3,2022
4,1999,3.91501921793989,3.91501921793989,3,2022
1,2000,4.03484062826234,4.03484062826234,3,2022
2,2000,4.52997116267997,4.52997116267997,3,2022
3,2000,3.93311724748997,3.93311724748997,3,2022
4,2000,3.43251431875256,3.43251431875256,3,2022
1,2001,3.20395837378786,3.20395837378786,3,2022
2,2001,2.33348437371934,2.33348437371934,3,2022
3,2001,1.87249569592427,1.87249569592427,3,2022
4,2001,1.29569968774459,1.29569968774459,3,2022
1,2002,0.41508912505146,0.41508912505146,3,2022
2,2002,0.865681775613392,0.865681775613392,3,2022
3,2002,1.14910410133076,1.14910410133076,3,2022
4,2002,1.26884036026895,1.26884036026895,3,2022
1,2003,0.802808500971719,0.802808500971719,3,2022
2,2003,0.351106490597108,0.351106490597108,3,2022
3,2003,0.514641121137438,0.514641121137438,3,2022
4,2003,1.02418723735249,1.02418723735249,3,2022
1,2004,1.86400766049246,1.86400766049246,3,2022
2,2004,2.40984428941755,2.40984428941755,3,2022
3,2004,2.11345393124651,2.11345393124651,3,2022
4,2004,1.74345002584475,1.74345002584475,3,2022
1,2005,1.46438570439302,1.46438570439302,3,2022
2,2005,1.4349318927726,1.4349318927726,3,2022
3,2005,1.94375630040931,1.94375630040931,3,2022
4,2005,2.21584631720571,2.21584631720571,3,2022
1,2006,2.87939027334059,2.87939027334059,3,2022
2,2006,3.40780423905989,3.40780423905989,3,2022
3,2006,3.24036492621489,3.24036492621489,3,2022
4,2006,3.78925199200351,3.78925199200351,3,2022
1,2007,3.52849711141841,3.52849711141841,3,2022
2,2007,3.11061642765718,3.11061642765718,3,2022
3,2007,2.97354185011509,2.97354185011509,3,2022
4,2007,2.32634637995885,2.32634637995885,3,2022
1,2008,2.1909562541599,2.1909562541599,3,2022
2,2008,1.12917370380139,1.12917370380139,3,2022
3,2008,0.150818427503885,0.150818427503885,3,2022
4,2008,-2.15972333949411,-2.15972333949411,3,2022
1,2009,-5.67768662521336,-5.67768662521336,3,2022
2,2009,-5.35097839982224,-5.35097839982224,3,2022
3,2009,-4.48857279286579,-4.48857279286579,3,2022
4,2009,-2.29645397546844,-2.29645397546844,3,2022
1,2010,1.25067231800704,1.25067231800704,3,2022
2,2010,2.23269050193509,2.23269050193509,3,2022
3,2010,2.27852221836278,2.27852221836278,3,2022
4,2010,2.44041586193577,2.44041586193577,3,2022
1,2011,2.90433856602115,2.90433856602115,3,2022
2,2011,1.89631815484752,1.89631815484752,3,2022
3,2011,1.60218063866839,1.60218063866839,3,2022
4,2011,0.562449050094771,0.562449050094771,3,2022
1,2012,-0.505860514751388,-0.505860514751388,3,2022
2,2012,-0.745956595455311,-0.745956595455311,3,2022
3,2012,-0.993364506524697,-0.993364506524697,3,2022
4,2012,-1.02353837170678,-1.02353837170678,3,2022
1,2013,-1.15358613412256,-1.15358613412256,3,2022
2,2013,-0.354538123601844,-0.354538123601844,3,2022
3,2013,0.0384325582398759,0.038432558239876,3,2022
4,2013,0.775795137313806,0.775795137313806,3,2022
1,2014,1.53556475686014,1.53556475686014,3,2022
2,2014,1.21068776076543,1.21068776076543,3,2022
3,2014,1.38921718343299,1.38921718343299,3,2022
4,2014,1.46648504919602,1.46648504919602,3,2022
1,2015,1.7403944797973,1.7403944797973,3,2022
2,2015,1.99475617595164,1.99475617595164,3,2022
3,2015,1.95256183685046,1.95256183685046,3,2022
4,2015,2.04152705686502,2.04152705686502,3,2022
1,2016,1.92122383358624,1.92122383358624,3,2022
2,2016,1.67923609130707,1.67923609130707,3,2022
3,2016,1.72759690802193,1.72759690802193,3,2022
4,2016,2.02512687592913,2.02512687592913,3,2022
1,2017,2.16275635907388,2.16275635907388,3,2022
2,2017,2.74654087757498,2.74654087757498,3,2022
3,2017,3.03319113106837,3.03319113106837,3,2022
4,2017,3.0811155415134,3.0811155415134,3,2022
1,2018,2.44445128661985,2.44445128661985,3,2022
2,2018,2.1553083936221,2.1553083936221,3,2022
3,2018,1.468919024996,1.468919024996,3,2022
4,2018,1.20384522524677,1.20384522524677,3,2022
1,2019,1.87780014617187,1.87780014617187,3,2022
2,2019,1.60956251616682,1.60956251616682,3,2022
3,2019,1.7655675322553,1.7655675322553,3,2022
4,2019,1.15192401747819,1.15192401747819,3,2022
1,2020,-3.13348651500302,-3.13348651500302,3,2022
2,2020,-14.6501608391331,-14.6501608391331,3,2022
3,2020,-3.93144767359352,-3.93144767359352,3,2022
4,2020,-4.24912252480078,-4.24912252480077,3,2022
1,2021,-0.864361707690741,-0.864361707690741,3,2022
2,2021,14.6538439480013,14.6538439480013,3,2022
3,2021,3.9821841624742,3.9821841624742,3,2022
4,2021,4.66269263824659,4.66269263824659,3,2022
1,2022,5.44384850313862,5.44384850313862,3,2022
2,2022,-0.59640988823327,-1.94299040460286,3,2022
3,2022,-3.61653908391921,-3.32907570150946,3,2022
4,2022,-4.62324881581453,-1.15415081156693,3,2022
1,2023,,2.14204084123899,3,2022
2,2023,,4.11975583292254,3,2022
3,2023,,5.10861332876431,3,2022
4,2023,,5.4382324940449,3,2022
1,1992,2.35922798655344,2.35922798644304,4,2022
2,1992,1.63795482952687,1.63795482952687,4,2022
3,1992,1.4044516642931,1.4044516642931,4,2022
4,1992,0.156950222901875,0.156950222901875,4,2022
1,1993,-1.7879389327991,-1.7879389327991,4,2022
2,1993,-1.04129236324586,-1.04129236324586,4,2022
3,1993,-0.444029875176277,-0.444029875176277,4,2022
4,1993,0.142119951426234,0.142119951426234,4,2022
1,1994,1.76418550159252,1.76418550159252,4,2022
2,1994,2.31766408366043,2.31766408366043,4,2022
3,1994,2.69476012171503,2.69476012171503,4,2022
4,1994,3.20231282010126,3.20231282010126,4,2022
1,1995,3.0290963824223,3.0290963824223,4,2022
2,1995,2.97283529842738,2.97283529842738,4,2022
3,1995,2.50046532015762,2.50046532015762,4,2022
4,1995,1.94515779237117,1.94515779237117,4,2022
1,1996,1.36432962235786,1.36432962235786,4,2022
2,1996,1.47290295471896,1.47290295471896,4,2022
3,1996,1.75229727216655,1.75229727216655,4,2022
4,1996,1.90317493174503,1.90317493174503,4,2022
1,1997,1.9632247799261,1.9632247799261,4,2022
2,1997,2.48143723018019,2.48143723018019,4,2022
3,1997,2.78177162532538,2.78177162532538,4,2022
4,1997,3.43853654640594,3.43853654640594,4,2022
1,1998,3.84875279911319,3.84875279911319,4,2022
2,1998,3.05023869787147,3.05023869787147,4,2022
3,1998,2.83773435284791,2.83773435284791,4,2022
4,1998,1.83581704086946,1.83581704086946,4,2022
1,1999,2.28935696893196,2.28935696893196,4,2022
2,1999,2.30616822522018,2.30616822522018,4,2022
3,1999,2.8385482672453,2.8385482672453,4,2022
4,1999,3.90987518736461,3.90987518736461,4,2022
1,2000,4.04902694172145,4.04902694172145,4,2022
2,2000,4.52456664994145,4.52456664994145,4,2022
3,2000,3.92939138841846,3.92939138841846,4,2022
4,2000,3.41877105118997,3.41877105118997,4,2022
1,2001,3.18982501737426,3.18982501737426,4,2022
2,2001,2.33474427389335,2.33474427389335,4,2022
3,2001,1.86307345554444,1.86307345554444,4,2022
4,2001,1.28722128999192,1.28722128999192,4,2022
1,2002,0.405479270418718,0.405479270418718,4,2022
2,2002,0.85590059948768,0.85590059948768,4,2022
3,2002,1.13750088547389,1.13750088547389,4,2022
4,2002,1.2561416772175,1.2561416772175,4,2022
1,2003,0.808027662540733,0.808027662540733,4,2022
2,2003,0.364140321946094,0.364140321946094,4,2022
3,2003,0.516599515435567,0.516599515435567,4,2022
4,2003,1.03492314515283,1.03492314515283,4,2022
1,2004,1.85850795757805,1.85850795757805,4,2022
2,2004,2.40598839684594,2.40598839684594,4,2022
3,2004,2.10882318156973,2.10882318156973,4,2022
4,2004,1.74313126262997,1.74313126262997,4,2022
1,2005,1.4641396593124,1.4641396593124,4,2022
2,2005,1.44320163344707,1.44320163344707,4,2022
3,2005,1.95189301794081,1.95189301794081,4,2022
4,2005,2.21154875288463,2.21154875288463,4,2022
1,2006,2.88508568692716,2.88508568692716,4,2022
2,2006,3.40029973479143,3.40029973479143,4,2022
3,2006,3.24640979298569,3.24640979298569,4,2022
4,2006,3.79333388780383,3.79333388780383,4,2022
1,2007,3.51637813340717,3.51637813340717,4,2022
2,2007,3.11463841907849,3.11463841907849,4,2022
3,2007,2.98806969146017,2.98806969146017,4,2022
4,2007,2.31190426070955,2.31190426070955,4,2022
1,2008,2.20063255837368,2.20063255837368,4,2022
2,2008,1.14008608695819,1.14008608695819,4,2022
3,2008,0.151839513111329,0.151839513111329,4,2022
4,2008,-2.15277266729297,-2.15277266729297,4,2022
1,2009,-5.68598663896442,-5.68598663896442,4,2022
2,2009,-5.36137052049072,-5.36137052049072,4,2022
3,2009,-4.48774026764396,-4.48774026764396,4,2022
4,2009,-2.3305865767663,-2.3305865767663,4,2022
1,2010,1.25405541409964,1.25405541409964,4,2022
2,2010,2.23450746788629,2.23450746788629,4,2022
3,2010,2.26304926044503,2.26304926044503,4,2022
4,2010,2.44467636824715,2.44467636824715,4,2022
1,2011,2.92698119228088,2.92698119228088,4,2022
2,2011,1.90475942901682,1.90475942901682,4,2022
3,2011,1.6284374848573,1.6284374848573,4,2022
4,2011,0.60514297717813,0.60514297717813,4,2022
1,2012,-0.50291804769097,-0.50291804769097,4,2022
2,2012,-0.749225386018082,-0.749225386018082,4,2022
3,2012,-0.993132893090864,-0.993132893090864,4,2022
4,2012,-1.0215001555329,-1.0215001555329,4,2022
1,2013,-1.14467229857872,-1.14467229857872,4,2022
2,2013,-0.360468238059652,-0.360468238059652,4,2022
3,2013,0.0365859801224389,0.0365859801224389,4,2022
4,2013,0.771531517513835,0.771531517513835,4,2022
1,2014,1.52401783493068,1.52401783493068,4,2022
2,2014,1.20244876709958,1.20244876709958,4,2022
3,2014,1.38979037033435,1.38979037033435,4,2022
4,2014,1.47260464255192,1.47260464255192,4,2022
1,2015,1.68802886018791,1.68802886018791,4,2022
2,2015,1.95884431239717,1.95884431239717,4,2022
3,2015,1.89669719909991,1.89669719909991,4,2022
4,2015,1.99254393817225,1.99254393817225,4,2022
1,2016,1.91385647651638,1.91385647651638,4,2022
2,2016,1.67376647344493,1.67376647344493,4,2022
3,2016,1.73697740776451,1.73697740776451,4,2022
4,2016,2.02618307652738,2.02618307652738,4,2022
1,2017,2.17254091561871,2.17254091561871,4,2022
2,2017,2.73854754015781,2.73854754015781,4,2022
3,2017,3.02220479634865,3.02220479634865,4,2022
4,2017,3.09934642221605,3.09934642221605,4,2022
1,2018,2.40044109233826,2.40044109233826,4,2022
2,2018,2.1434656065429,2.1434656065429,4,2022
3,2018,1.37425550084072,1.37425550084072,4,2022
4,2018,1.19513355594345,1.19513355594345,4,2022
1,2019,1.83438364350894,1.83438364350894,4,2022
2,2019,1.6087515849458,1.6087515849458,4,2022
3,2019,1.8162788939869,1.8162788939869,4,2022
4,2019,1.19813424904298,1.19813424904298,4,2022
1,2020,-2.86184187834243,-2.86184187834243,4,2022
2,2020,-14.343992746131,-14.343992746131,4,2022
3,2020,-3.71364028303014,-3.71364028303014,4,2022
4,2020,-4.07675726728102,-4.07675726728102,4,2022
1,2021,-0.802901674956491,-0.802901674956491,4,2022
2,2021,14.3768494316189,14.3768494316189,4,2022
3,2021,3.73867494438615,3.73867494438615,4,2022
4,2021,4.60325818256229,4.60325818256229,4,2022
1,2022,5.40548473606515,5.40548473606515,4,2022
2,2022,4.14900149480646,4.14900149480646,4,2022
3,2022,-6.06593168103671,-7.62781541066985,4,2022
4,2022,-9.47090940631776,-6.33497668410653,4,2022
1,2023,,0.188078768046097,4,2022
2,2023,,4.10191203933767,4,2022
3,2023,,6.05882867498345,4,2022
4,2023,,6.71113422019872,4,2022
1,1992,2.3592279862629,2.35922798684451,1,2023
2,1992,1.63795482952687,1.63795482952687,1,2023
3,1992,1.40445166429311,1.4044516642931,1,2023
4,1992,0.156950222901875,0.156950222901875,1,2023
1,1993,-1.78793893279911,-1.7879389327991,1,2023
2,1993,-1.04129236324586,-1.04129236324586,1,2023
3,1993,-0.444029875176277,-0.444029875176277,1,2023
4,1993,0.142119951426234,0.142119951426234,1,2023
1,1994,1.76418550159252,1.76418550159252,1,2023
2,1994,2.31766408366043,2.31766408366043,1,2023
3,1994,2.69476012171503,2.69476012171503,1,2023
4,1994,3.20231282010126,3.20231282010126,1,2023
1,1995,3.0290963824223,3.0290963824223,1,2023
2,1995,2.97283529842738,2.97283529842738,1,2023
3,1995,2.50046532015762,2.50046532015762,1,2023
4,1995,1.94515779237117,1.94515779237117,1,2023
1,1996,1.37011204963746,1.37011204963746,1,2023
2,1996,1.47383984014375,1.47383984014375,1,2023
3,1996,1.74778870362788,1.74778870362788,1,2023
4,1996,1.89766556416582,1.89766556416582,1,2023
1,1997,1.94977690333797,1.94977690333797,1,2023
2,1997,2.48319838454678,2.48319838454678,1,2023
3,1997,2.78749619582757,2.78749619582757,1,2023
4,1997,3.45180993561725,3.45180993561725,1,2023
1,1998,3.85325216225594,3.85325216225594,1,2023
2,1998,3.0533507342883,3.0533507342883,1,2023
3,1998,2.83782861793793,2.83782861793793,1,2023
4,1998,1.82221461855314,1.82221461855314,1,2023
1,1999,2.29322478187188,2.29322478187188,1,2023
2,1999,2.30621403555917,2.30621403555917,1,2023
3,1999,2.84570078013857,2.84570078013857,1,2023
4,1999,3.90300864413204,3.90300864413204,1,2023
1,2000,4.03928607371942,4.03928607371942,1,2023
2,2000,4.52176917590745,4.52176917590745,1,2023
3,2000,3.92605038459197,3.92605038459197,1,2023
4,2000,3.44326288924288,3.44326288924288,1,2023
1,2001,3.19309769319724,3.19309769319724,1,2023
2,2001,2.34435397096162,2.34435397096162,1,2023
3,2001,1.86061164825779,1.86061164825779,1,2023
4,2001,1.27466101254314,1.27466101254314,1,2023
1,2002,0.414297440474564,0.414297440474565,1,2023
2,2002,0.846716526299374,0.846716526299374,1,2023
3,2002,1.1271480081998,1.1271480081998,1,2023
4,2002,1.26591886847187,1.26591886847187,1,2023
1,2003,0.802625603242091,0.802625603242091,1,2023
2,2003,0.372526589445621,0.372526589445621,1,2023
3,2003,0.528349487946089,0.528349487946089,1,2023
4,2003,1.0260851040327,1.0260851040327,1,2023
1,2004,1.86200552250992,1.86200552250992,1,2023
2,2004,2.39475822457658,2.39475822457658,1,2023
3,2004,2.09769281966061,2.09769281966061,1,2023
4,2004,1.752506746944,1.752506746944,1,2023
1,2005,1.45050411330465,1.45050411330465,1,2023
2,2005,1.45275648761725,1.45275648761725,1,2023
3,2005,1.96672062190963,1.96672062190963,1,2023
4,2005,2.21249971696305,2.21249971696305,1,2023
1,2006,2.89101179380806,2.89101179380806,1,2023
2,2006,3.39083694663855,3.39083694663855,1,2023
3,2006,3.24884668991456,3.24884668991456,1,2023
4,2006,3.79723802162331,3.79723802162331,1,2023
1,2007,3.51628076813719,3.51628076813719,1,2023
2,2007,3.1250365280266,3.1250365280266,1,2023
3,2007,2.97837642310004,2.97837642310004,1,2023
4,2007,2.30198603257368,2.30198603257368,1,2023
1,2008,2.21752613434927,2.21752613434927,1,2023
2,2008,1.14219506066258,1.14219506066258,1,2023
3,2008,0.155601249607829,0.155601249607828,1,2023
4,2008,-2.16626105534142,-2.16626105534142,1,2023
1,2009,-5.68048042914001,-5.68048042914001,1,2023
2,2009,-5.38452147462658,-5.38452147462658,1,2023
3,2009,-4.49897645291701,-4.49897645291701,1,2023
4,2009,-2.31608116293293,-2.31608116293293,1,2023
1,2010,1.24780464481027,1.24780464481027,1,2023
2,2010,2.255042944783,2.255042944783,1,2023
3,2010,2.27076729236795,2.27076729236795,1,2023
4,2010,2.44154407663477,2.44154407663477,1,2023
1,2011,2.91851487032293,2.91851487032293,1,2023
2,2011,1.9070966349702,1.9070966349702,1,2023
3,2011,1.63803001697158,1.63803001697158,1,2023
4,2011,0.613160157673365,0.613160157673365,1,2023
1,2012,-0.508082031157731,-0.50808203115773,1,2023
2,2012,-0.748312236390769,-0.748312236390769,1,2023
3,2012,-0.99792528589594,-0.99792528589594,1,2023
4,2012,-1.01921168572339,-1.01921168572339,1,2023
1,2013,-1.13571297166812,-1.13571297166812,1,2023
2,2013,-0.363897182870698,-0.363897182870698,1,2023
3,2013,0.0379923485450239,0.037992348545024,1,2023
4,2013,0.774322226648328,0.774322226648327,1,2023
1,2014,1.52917472815337,1.52917472815337,1,2023
2,2014,1.20622536751374,1.20622536751374,1,2023
3,2014,1.39796912419479,1.39796912419479,1,2023
4,2014,1.46669797066674,1.46669797066674,1,2023
1,2015,1.69258321975019,1.69258321975019,1,2023
2,2015,1.96222976757254,1.96222976757254,1,2023
3,2015,1.8840083579462,1.8840083579462,1,2023
4,2015,1.99187261847054,1.99187261847054,1,2023
1,2016,1.9089049513304,1.9089049513304,1,2023
2,2016,1.67878418322589,1.67878418322589,1,2023
3,2016,1.73958775859853,1.73958775859853,1,2023
4,2016,2.03836775132937,2.03836775132937,1,2023
1,2017,2.16736644697861,2.16736644697861,1,2023
2,2017,2.73298476692845,2.73298476692845,1,2023
3,2017,3.03887241883249,3.03887241883249,1,2023
4,2017,3.09205028246471,3.09205028246471,1,2023
1,2018,2.3891607398604,2.3891607398604,1,2023
2,2018,2.13579800100561,2.13579800100561,1,2023
3,2018,1.35810959089913,1.35810959089913,1,2023
4,2018,1.19468424068152,1.19468424068152,1,2023
1,2019,1.83391832102093,1.83391832102093,1,2023
2,2019,1.60535376872815,1.60535376872815,1,2023
3,2019,1.80727189691172,1.80727189691172,1,2023
4,2019,1.16917058643635,1.16917058643635,1,2023
1,2020,-2.84422766450011,-2.84422766450011,1,2023
2,2020,-14.237671431294,-14.237671431294,1,2023
3,2020,-3.84454681016958,-3.84454681016958,1,2023
4,2020,-4.11191896211562,-4.11191896211562,1,2023
1,2021,-0.835794445382134,-0.83579444538213,1,2023
2,2021,14.2110778523613,14.2110778523613,1,2023
3,2021,3.94339285976685,3.94339285976686,1,2023
4,2021,4.77457040021445,4.77457040021445,1,2023
1,2022,5.48058590864733,5.48058590864733,1,2023
2,2022,4.24867110934621,4.24867110934621,1,2023
3,2022,2.27869113942998,2.27869113942998,1,2023
4,2022,0.830472963698459,0.286946650856641,1,2023
1,2023,-0.283541017633478,-0.883080159406919,1,2023
2,2023,-0.951949406432641,-0.957483398590779,1,2023
3,2023,-1.28615360083222,-0.308233466804594,1,2023
4,2023,-1.39755499896542,0.692699235841981,1,2023
1,2024,,1.67334430923929,1,2023
2,2024,,2.26173135327767,1,2023
3,2024,,2.55592487529686,1,2023
4,2024,,2.65398938263659,1,2023
1,1992,2.35922798684646,2.35922798684704,2,2023
2,1992,1.63795482952687,1.63795482952687,2,2023
3,1992,1.4044516642931,1.40445166429311,2,2023
4,1992,0.156950222901875,0.156950222901875,2,2023
1,1993,-1.7879389327991,-1.78793893279911,2,2023
2,1993,-1.04129236324586,-1.04129236324586,2,2023
3,1993,-0.444029875176277,-0.444029875176277,2,2023
4,1993,0.142119951426234,0.142119951426234,2,2023
1,1994,1.76418550159252,1.76418550159252,2,2023
2,1994,2.31766408366043,2.31766408366043,2,2023
3,1994,2.69476012171503,2.69476012171503,2,2023
4,1994,3.20231282010126,3.20231282010126,2,2023
1,1995,3.0290963824223,3.0290963824223,2,2023
2,1995,2.97283529842738,2.97283529842738,2,2023
3,1995,2.50046532015762,2.50046532015762,2,2023
4,1995,1.94515779237117,1.94515779237117,2,2023
1,1996,1.42433724397812,1.42433724397812,2,2023
2,1996,1.53995493934731,1.53995493934731,2,2023
3,1996,1.70639879214463,1.70639879214463,2,2023
4,1996,1.82085372111114,1.82085372111114,2,2023
1,1997,1.94989434678128,1.94989434678128,2,2023
2,1997,2.48313632786275,2.48313632786275,2,2023
3,1997,2.78764901905229,2.78764901905229,2,2023
4,1997,3.45095143040075,3.45095143040075,2,2023
1,1998,3.85341539176425,3.85341539176425,2,2023
2,1998,3.05311874435781,3.05311874435781,2,2023
3,1998,2.836068713548,2.836068713548,2,2023
4,1998,1.82234817395177,1.82234817395177,2,2023
1,1999,2.29211566128991,2.29211566128991,2,2023
2,1999,2.30470570134349,2.30470570134349,2,2023
3,1999,2.84830398396492,2.84830398396492,2,2023
4,1999,3.90375618997259,3.90375618997259,2,2023
1,2000,4.03908567481515,4.03908567481515,2,2023
2,2000,4.5214721155147,4.5214721155147,2,2023
3,2000,3.92548676261288,3.92548676261288,2,2023
4,2000,3.44362209052211,3.44362209052211,2,2023
1,2001,3.19145115527213,3.19145115527213,2,2023
2,2001,2.34445354926978,2.34445354926978,2,2023
3,2001,1.86078652482942,1.86078652482942,2,2023
4,2001,1.27624320932154,1.27624320932154,2,2023
1,2002,0.418125505555689,0.418125505555689,2,2023
2,2002,0.845656939249517,0.845656939249517,2,2023
3,2002,1.12680869391819,1.12680869391819,2,2023
4,2002,1.26483460087619,1.26483460087619,2,2023
1,2003,0.799706376048093,0.799706376048093,2,2023
2,2003,0.374237096009034,0.374237096009034,2,2023
3,2003,0.529449458278975,0.529449458278974,2,2023
4,2003,1.02621923017727,1.02621923017727,2,2023
1,2004,1.86320104106104,1.86320104106104,2,2023
2,2004,2.3952435289718,2.3952435289718,2,2023
3,2004,2.09526582821613,2.09526582821613,2,2023
4,2004,1.75175840420685,1.75175840420685,2,2023
1,2005,1.45003576278919,1.45003576278919,2,2023
2,2005,1.45197232991419,1.45197232991419,2,2023
3,2005,1.96745552369373,1.96745552369373,2,2023
4,2005,2.21323642604532,2.21323642604532,2,2023
1,2006,2.88871855509065,2.88871855509065,2,2023
2,2006,3.39036502257288,3.39036502257288,2,2023
3,2006,3.25189016697518,3.25189016697518,2,2023
4,2006,3.79644556579477,3.79644556579477,2,2023
1,2007,3.5166801260611,3.5166801260611,2,2023
2,2007,3.12609772585144,3.12609772585144,2,2023
3,2007,2.97746817560445,2.97746817560445,2,2023
4,2007,2.30191111729674,2.30191111729674,2,2023
1,2008,2.21776261549447,2.21776261549447,2,2023
2,2008,1.1412623152679,1.1412623152679,2,2023
3,2008,0.156773971833535,0.156773971833535,2,2023
4,2008,-2.16705188487749,-2.16705188487749,2,2023
1,2009,-5.68194865300785,-5.68194865300785,2,2023
2,2009,-5.38366965421648,-5.38366965421648,2,2023
3,2009,-4.49933054771516,-4.49933054771516,2,2023
4,2009,-2.31395293520126,-2.31395293520126,2,2023
1,2010,1.24898427045268,1.24898427045268,2,2023
2,2010,2.25447851789184,2.25447851789184,2,2023
3,2010,2.27227656142206,2.27227656142206,2,2023
4,2010,2.43907187946701,2.43907187946701,2,2023
1,2011,2.91999332128794,2.91999332128794,2,2023
2,2011,1.90791296945301,1.90791296945301,2,2023
3,2011,1.63579747948313,1.63579747948313,2,2023
4,2011,0.611916640680676,0.611916640680677,2,2023
1,2012,-0.507433932161094,-0.507433932161095,2,2023
2,2012,-0.749275538466132,-0.749275538466132,2,2023
3,2012,-0.998244187941289,-0.998244187941289,2,2023
4,2012,-1.01841183378074,-1.01841183378074,2,2023
1,2013,-1.13572701647677,-1.13572701647677,2,2023
2,2013,-0.365226873913083,-0.365226873913083,2,2023
3,2013,0.0409564557731779,0.0409564557731778,2,2023
4,2013,0.774550894172355,0.774550894172354,2,2023
1,2014,1.52700144376257,1.52700144376257,2,2023
2,2014,1.21213347166376,1.21213347166376,2,2023
3,2014,1.39254940078282,1.39254940078282,2,2023
4,2014,1.46780916474487,1.46780916474487,2,2023
1,2015,1.69299903627258,1.69299903627258,2,2023
2,2015,1.95936906693917,1.95936906693917,2,2023
3,2015,1.88365191742435,1.88365191742435,2,2023
4,2015,1.9929359916572,1.9929359916572,2,2023
1,2016,1.91028796377208,1.91028796377208,2,2023
2,2016,1.67468759174694,1.67468759174694,2,2023
3,2016,1.74092122572733,1.74092122572733,2,2023
4,2016,2.03840194267484,2.03840194267484,2,2023
1,2017,2.16683536426101,2.16683536426101,2,2023
2,2017,2.73327338569329,2.73327338569329,2,2023
3,2017,3.04125611021913,3.04125611021913,2,2023
4,2017,3.09120983478002,3.09120983478002,2,2023
1,2018,2.39192003065833,2.39192003065833,2,2023
2,2018,2.13500523940029,2.13500523940029,2,2023
3,2018,1.3567952086607,1.3567952086607,2,2023
4,2018,1.19359687108154,1.19359687108154,2,2023
1,2019,1.82963940795371,1.82963940795371,2,2023
2,2019,1.60102725789817,1.60102725789817,2,2023
3,2019,1.80662315606235,1.80662315606235,2,2023
4,2019,1.17759890207558,1.17759890207558,2,2023
1,2020,-2.83050116154133,-2.83050116154133,2,2023
2,2020,-14.2353290677841,-14.2353290677841,2,2023
3,2020,-3.84098113641708,-3.84098113641707,2,2023
4,2020,-4.10999999838558,-4.10999999838558,2,2023
1,2021,-0.810360174509436,-0.810360174509442,2,2023
2,2021,14.2381788900766,14.2381788900766,2,2023
3,2021,3.98585379441443,3.98585379441443,2,2023
4,2021,4.83437064194328,4.83437064194328,2,2023
1,2022,5.51646367694603,5.51646367694603,2,2023
2,2022,4.38896056176079,4.38896056176079,2,2023
3,2022,2.44071295209001,2.44071295209001,2,2023
4,2022,1.84156990341273,1.84156990341273,2,2023
1,2023,0.268010647313494,-0.306950069738104,2,2023
2,2023,-0.67612490634605,-0.927764989203416,2,2023
3,2023,-1.14819268317582,-0.507222534721022,2,2023
4,2023,-1.30554860878574,0.468329613971263,2,2023
1,2024,,1.51254377713562,2,2023
2,2024,,2.13907227503424,2,2023
3,2024,,2.45233652398354,2,2023
4,2024,,2.55675794029998,2,2023
1,1992,2.35922798655344,2.35922798640443,3,2023
2,1992,1.63795482952687,1.63795482952687,3,2023
3,1992,1.4044516642931,1.40445166429311,3,2023
4,1992,0.156950222901875,0.156950222901875,3,2023
1,1993,-1.7879389327991,-1.78793893279911,3,2023
2,1993,-1.04129236324586,-1.04129236324586,3,2023
3,1993,-0.444029875176277,-0.444029875176277,3,2023
4,1993,0.142119951426234,0.142119951426234,3,2023
1,1994,1.76418550159252,1.76418550159252,3,2023
2,1994,2.31766408366043,2.31766408366043,3,2023
3,1994,2.69476012171503,2.69476012171503,3,2023
4,1994,3.20231282010126,3.20231282010126,3,2023
1,1995,3.0290963824223,3.0290963824223,3,2023
2,1995,2.97283529842738,2.97283529842738,3,2023
3,1995,2.50046532015762,2.50046532015762,3,2023
4,1995,1.94515779237117,1.94515779237117,3,2023
1,1996,1.44044562221723,1.44044562221723,3,2023
2,1996,1.55772852954195,1.55772852954195,3,2023
3,1996,1.70699992969841,1.70699992969841,3,2023
4,1996,1.84075933747674,1.84075933747674,3,2023
1,1997,1.95615756123664,1.95615756123664,3,2023
2,1997,2.49196937432401,2.49196937432401,3,2023
3,1997,2.80271291775642,2.80271291775642,3,2023
4,1997,3.45978040991033,3.45978040991033,3,2023
1,1998,3.86566294197166,3.86566294197166,3,2023
2,1998,3.05668673652308,3.05668673652308,3,2023
3,1998,2.8238020468998,2.8238020468998,3,2023
4,1998,1.81299208550731,1.81299208550731,3,2023
1,1999,2.17514993838148,2.17514993838148,3,2023
2,1999,2.2714707634814,2.2714707634814,3,2023
3,1999,2.91068440016913,2.91068440016913,3,2023
4,1999,3.93287306383872,3.93287306383872,3,2023
1,2000,4.13578335628027,4.13578335628027,3,2023
2,2000,4.52519848949782,4.52519848949782,3,2023
3,2000,3.89127408567393,3.89127408567393,3,2023
4,2000,3.37770056422297,3.37770056422297,3,2023
1,2001,3.15743068503098,3.15743068503098,3,2023
2,2001,2.3339173432162,2.3339173432162,3,2023
3,2001,1.89866751055046,1.89866751055046,3,2023
4,2001,1.29319741583258,1.29319741583258,3,2023
1,2002,0.443578710257886,0.443578710257886,3,2023
2,2002,0.864131407954338,0.864131407954338,3,2023
3,2002,1.12897488700023,1.12897488700023,3,2023
4,2002,1.2877021314639,1.2877021314639,3,2023
1,2003,0.825549928183555,0.825549928183555,3,2023
2,2003,0.387668697514609,0.387668697514609,3,2023
3,2003,0.546453143255943,0.546453143255943,3,2023
4,2003,1.04183622677163,1.04183622677163,3,2023
1,2004,1.87810818962371,1.87810818962371,3,2023
2,2004,2.41383116543603,2.41383116543603,3,2023
3,2004,2.07382840070445,2.07382840070445,3,2023
4,2004,1.76065406514225,1.76065406514225,3,2023
1,2005,1.45541208349407,1.45541208349407,3,2023
2,2005,1.46358635791664,1.46358635791664,3,2023
3,2005,1.97799342831477,1.97799342831477,3,2023
4,2005,2.23692826217152,2.23692826217152,3,2023
1,2006,2.90771992962458,2.90771992962458,3,2023
2,2006,3.40469560023839,3.40469560023839,3,2023
3,2006,3.26322989721122,3.26322989721122,3,2023
4,2006,3.78913028658168,3.78913028658168,3,2023
1,2007,3.5347788237361,3.5347788237361,3,2023
2,2007,3.14550038352721,3.14550038352721,3,2023
3,2007,2.96677288320761,2.96677288320761,3,2023
4,2007,2.31413343484954,2.31413343484954,3,2023
1,2008,2.2213843258736,2.2213843258736,3,2023
2,2008,1.13835311961554,1.13835311961554,3,2023
3,2008,0.163994635668807,0.163994635668808,3,2023
4,2008,-2.1539936328288,-2.1539936328288,3,2023
1,2009,-5.69680338778275,-5.69680338778275,3,2023
2,2009,-5.3846883959055,-5.3846883959055,3,2023
3,2009,-4.52901903661234,-4.52901903661234,3,2023
4,2009,-2.32082074566826,-2.32082074566826,3,2023
1,2010,1.23744255868152,1.23744255868152,3,2023
2,2010,2.22997189515974,2.22997189515974,3,2023
3,2010,2.27753346665673,2.27753346665673,3,2023
4,2010,2.38993985764444,2.38993985764444,3,2023
1,2011,2.89492580829354,2.89492580829354,3,2023
2,2011,1.90603416967357,1.90603416967357,3,2023
3,2011,1.62043058501686,1.62043058501686,3,2023
4,2011,0.630964371850595,0.630964371850595,3,2023
1,2012,-0.505319878930344,-0.505319878930344,3,2023
2,2012,-0.762241494941895,-0.762241494941895,3,2023
3,2012,-0.995636249179233,-0.995636249179233,3,2023
4,2012,-1.03173266262773,-1.03173266262773,3,2023
1,2013,-1.14047031401783,-1.14047031401783,3,2023
2,2013,-0.365027791638661,-0.365027791638661,3,2023
3,2013,0.0339180203201783,0.0339180203201782,3,2023
4,2013,0.785891187450516,0.785891187450516,3,2023
1,2014,1.53239809951287,1.53239809951287,3,2023
2,2014,1.20758307986637,1.20758307986637,3,2023
3,2014,1.38588126580985,1.38588126580985,3,2023
4,2014,1.44016359386883,1.44016359386883,3,2023
1,2015,1.68096644326923,1.68096644326923,3,2023
2,2015,1.95695259994737,1.95695259994737,3,2023
3,2015,1.89583080472142,1.89583080472142,3,2023
4,2015,2.00271396808605,2.00271396808605,3,2023
1,2016,1.928272197114,1.928272197114,3,2023
2,2016,1.67017992795055,1.67017992795055,3,2023
3,2016,1.74203407102098,1.74203407102098,3,2023
4,2016,2.05534650236396,2.05534650236396,3,2023
1,2017,2.15904951298416,2.15904951298416,3,2023
2,2017,2.74763486944465,2.74763486944465,3,2023
3,2017,3.05029307596465,3.05029307596465,3,2023
4,2017,3.09074109683978,3.09074109683978,3,2023
1,2018,2.39502305551866,2.39502305551866,3,2023
2,2018,2.13880022547659,2.13880022547659,3,2023
3,2018,1.36398616120645,1.36398616120645,3,2023
4,2018,1.1981021757363,1.1981021757363,3,2023
1,2019,1.84819919390575,1.84819919390575,3,2023
2,2019,1.6119436317259,1.6119436317259,3,2023
3,2019,1.82249157230692,1.82249157230692,3,2023
4,2019,1.16518066696441,1.16518066696441,3,2023
1,2020,-2.7661521413377,-2.7661521413377,3,2023
2,2020,-14.1118883271052,-14.1118883271052,3,2023
3,2020,-3.91147163267781,-3.91147163267781,3,2023
4,2020,-4.08464749303146,-4.08464749303146,3,2023
1,2021,-0.787984385096374,-0.787984385096377,3,2023
2,2021,14.1290613853867,14.1290613853867,3,2023
3,2021,4.02081216337891,4.0208121633789,3,2023
4,2021,4.77298628477312,4.77298628477312,3,2023
1,2022,5.49297022405939,5.49297022405939,3,2023
2,2022,4.36495417175988,4.36495417175988,3,2023
3,2022,2.47832468572378,2.47832468572378,3,2023
4,2022,1.82764047340893,1.82764047340893,3,2023
1,2023,0.995644820729136,0.995644820729137,3,2023
2,2023,-1.01781839616175,-1.79718545213032,3,2023
3,2023,-2.02455000460719,-1.8580501136872,3,2023
4,2023,-2.36012720742233,-0.35199493435147,3,2023
1,2024,,1.55593431546689,3,2023
2,2024,,2.7006918653579,3,2023
3,2024,,3.27307064030341,3,2023
4,2024,,3.46386356528525,3,2023
1,1992,2.35922798655344,2.35922798683738,4,2023
2,1992,1.63795482952687,1.63795482952687,4,2023
3,1992,1.4044516642931,1.4044516642931,4,2023
4,1992,0.156950222901875,0.156950222901875,4,2023
1,1993,-1.7879389327991,-1.7879389327991,4,2023
2,1993,-1.04129236324586,-1.04129236324586,4,2023
3,1993,-0.444029875176277,-0.444029875176277,4,2023
4,1993,0.142119951426234,0.142119951426234,4,2023
1,1994,1.76418550159252,1.76418550159252,4,2023
2,1994,2.31766408366043,2.31766408366043,4,2023
3,1994,2.69476012171503,2.69476012171503,4,2023
4,1994,3.20231282010126,3.20231282010126,4,2023
1,1995,3.0290963824223,3.0290963824223,4,2023
2,1995,2.97283529842738,2.97283529842738,4,2023
3,1995,2.50046532015762,2.50046532015762,4,2023
4,1995,1.94515779237117,1.94515779237117,4,2023
1,1996,1.44051337906166,1.44051337906166,4,2023
2,1996,1.56196885971782,1.56196885971782,4,2023
3,1996,1.70535432712851,1.70535432712851,4,2023
4,1996,1.84173667962768,1.84173667962768,4,2023
1,1997,1.95697855585879,1.95697855585879,4,2023
2,1997,2.4844196033331,2.4844196033331,4,2023
3,1997,2.80109508190933,2.80109508190933,4,2023
4,1997,3.46015628083463,3.46015628083463,4,2023
1,1998,3.86301909404401,3.86301909404401,4,2023
2,1998,3.06285726361049,3.06285726361049,4,2023
3,1998,2.82445282948178,2.82445282948178,4,2023
4,1998,1.81460323291596,1.81460323291596,4,2023
1,1999,2.17867384146602,2.17867384146602,4,2023
2,1999,2.27059769490026,2.27059769490026,4,2023
3,1999,2.91026608188862,2.91026608188862,4,2023
4,1999,3.93427606114001,3.93427606114001,4,2023
1,2000,4.12692720828964,4.12692720828964,4,2023
2,2000,4.52768515663882,4.52768515663882,4,2023
3,2000,3.89852427735904,3.89852427735904,4,2023
4,2000,3.37611869946213,3.37611869946213,4,2023
1,2001,3.15238066264358,3.15238066264358,4,2023
2,2001,2.33842232423205,2.33842232423205,4,2023
3,2001,1.9060382862877,1.9060382862877,4,2023
4,2001,1.29761448634713,1.29761448634713,4,2023
1,2002,0.451562681444351,0.451562681444351,4,2023
2,2002,0.873583071814532,0.873583071814532,4,2023
3,2002,1.13522587574724,1.13522587574724,4,2023
4,2002,1.30233927962007,1.30233927962007,4,2023
1,2003,0.831502465678846,0.831502465678846,4,2023
2,2003,0.385235509739434,0.385235509739434,4,2023
3,2003,0.553760062957909,0.553760062957909,4,2023
4,2003,1.03778725604342,1.03778725604342,4,2023
1,2004,1.8797026376822,1.8797026376822,4,2023
2,2004,2.42425471538739,2.42425471538739,4,2023
3,2004,2.07393181217859,2.07393181217859,4,2023
4,2004,1.76676411735162,1.76676411735162,4,2023
1,2005,1.45735814350536,1.45735814350536,4,2023
2,2005,1.4526556631675,1.4526556631675,4,2023
3,2005,1.98126597031592,1.98126597031592,4,2023
4,2005,2.24895671264951,2.24895671264951,4,2023
1,2006,2.9100847752304,2.9100847752304,4,2023
2,2006,3.41447075094643,3.41447075094643,4,2023
3,2006,3.26045375089514,3.26045375089514,4,2023
4,2006,3.78249000877828,3.78249000877828,4,2023
1,2007,3.53429270121208,3.53429270121208,4,2023
2,2007,3.1378779126187,3.1378779126187,4,2023
3,2007,2.96270064649273,2.96270064649273,4,2023
4,2007,2.31555771613505,2.31555771613505,4,2023
1,2008,2.22327680758756,2.22327680758756,4,2023
2,2008,1.13210909175054,1.13210909175054,4,2023
3,2008,0.173034246773995,0.173034246773995,4,2023
4,2008,-2.16089115650837,-2.16089115650837,4,2023
1,2009,-5.69838272396461,-5.69838272396461,4,2023
2,2009,-5.38480077833472,-5.38480077833472,4,2023
3,2009,-4.53525644420811,-4.53525644420811,4,2023
4,2009,-2.29059410654807,-2.29059410654807,4,2023
1,2010,1.2414620508082,1.2414620508082,4,2023
2,2010,2.22163779906632,2.22163779906632,4,2023
3,2010,2.26999400067172,2.26999400067172,4,2023
4,2010,2.3883745806089,2.3883745806089,4,2023
1,2011,2.87198520396348,2.87198520396348,4,2023
2,2011,1.90739726992757,1.90739726992757,4,2023
3,2011,1.60493184762955,1.60493184762955,4,2023
4,2011,0.595906386125011,0.595906386125011,4,2023
1,2012,-0.510125784952875,-0.510125784952875,4,2023
2,2012,-0.750057222178591,-0.750057222178591,4,2023
3,2012,-0.993148900611207,-0.993148900611207,4,2023
4,2012,-1.04600472968283,-1.04600472968283,4,2023
1,2013,-1.13519442660032,-1.13519442660032,4,2023
2,2013,-0.365034448664248,-0.365034448664248,4,2023
3,2013,0.0383068963019317,0.0383068963019317,4,2023
4,2013,0.796704880587718,0.796704880587718,4,2023
1,2014,1.55236661931568,1.55236661931568,4,2023
2,2014,1.21290970138068,1.21290970138068,4,2023
3,2014,1.3706856554907,1.3706856554907,4,2023
4,2014,1.43313150355051,1.43313150355051,4,2023
1,2015,1.67429047422789,1.67429047422789,4,2023
2,2015,1.95352655000871,1.95352655000871,4,2023
3,2015,1.87646528915453,1.87646528915453,4,2023
4,2015,1.98160949669073,1.98160949669073,4,2023
1,2016,1.92234505879696,1.92234505879696,4,2023
2,2016,1.65913901911645,1.65913901911645,4,2023
3,2016,1.75220299356047,1.75220299356047,4,2023
4,2016,2.06267283117336,2.06267283117336,4,2023
1,2017,2.18469356365776,2.18469356365776,4,2023
2,2017,2.77362164866541,2.77362164866541,4,2023
3,2017,3.06062062284416,3.06062062284416,4,2023
4,2017,3.07992028564394,3.07992028564394,4,2023
1,2018,2.36505319760447,2.36505319760447,4,2023
2,2018,2.12897508484873,2.12897508484873,4,2023
3,2018,1.34478655194366,1.34478655194366,4,2023
4,2018,1.22784435284242,1.22784435284242,4,2023
1,2019,1.86117016305332,1.86117016305332,4,2023
2,2019,1.63592505598344,1.63592505598344,4,2023
3,2019,1.81847175222514,1.81847175222514,4,2023
4,2019,1.1560667319741,1.1560667319741,4,2023
1,2020,-2.84714299295004,-2.84714299295004,4,2023
2,2020,-14.1636287941196,-14.1636287941196,4,2023
3,2020,-3.94724253438311,-3.94724253438311,4,2023
4,2020,-4.04604441047491,-4.04604441047491,4,2023
1,2021,-0.487570700246676,-0.487570700246676,4,2023
2,2021,14.4957322945716,14.4957322945716,4,2023
3,2021,4.33227186470322,4.33227186470322,4,2023
4,2021,4.97419738100842,4.97419738100842,4,2023
1,2022,5.41353016466186,5.41353016466186,4,2023
2,2022,4.17948364989664,4.17948364989664,4,2023
3,2022,2.33863070283591,2.33863070283591,4,2023
4,2022,1.74605165962134,1.74605165962134,4,2023
1,2023,1.14925869444529,1.14925869444529,4,2023
2,2023,0.468032978320054,0.468032978320054,4,2023
3,2023,-3.43270222018322,-4.39658178413299,4,2023
4,2023,-4.73294728635098,-2.79482306247983,4,2023
1,2024,,1.23429815727539,4,2023
2,2024,,3.65177088912852,4,2023
3,2024,,4.86050725505509,4,2023
4,2024,,5.26341937703061,4,2023
1,1992,2.35922798655344,2.35922798655344,1,2024
2,1992,1.63795482952687,1.63795482952687,1,2024
3,1992,1.4044516642931,1.4044516642931,1,2024
4,1992,0.156950222901875,0.156950222901875,1,2024
1,1993,-1.7879389327991,-1.7879389327991,1,2024
2,1993,-1.04129236324586,-1.04129236324586,1,2024
3,1993,-0.444029875176277,-0.444029875176277,1,2024
4,1993,0.142119951426234,0.142119951426234,1,2024
1,1994,1.76418550159252,1.76418550159252,1,2024
2,1994,2.31766408366043,2.31766408366043,1,2024
3,1994,2.69476012171503,2.69476012171503,1,2024
4,1994,3.20231282010126,3.20231282010126,1,2024
1,1995,3.0290963824223,3.0290963824223,1,2024
2,1995,2.97283529842738,2.97283529842738,1,2024
3,1995,2.50046532015762,2.50046532015762,1,2024
4,1995,1.94515779237117,1.94515779237117,1,2024
1,1996,1.42719563241449,1.42719563241449,1,2024
2,1996,1.56870464217829,1.56870464217829,1,2024
3,1996,1.70722318616718,1.70722318616718,1,2024
4,1996,1.84235822596375,1.84235822596375,1,2024
1,1997,1.96109241100513,1.96109241100513,1,2024
2,1997,2.47618998254384,2.47618998254384,1,2024
3,1997,2.82107679231096,2.82107679231096,1,2024
4,1997,3.45060333203511,3.45060333203511,1,2024
1,1998,3.86086596994639,3.86086596994639,1,2024
2,1998,3.05939103522572,3.05939103522572,1,2024
3,1998,2.81135687500136,2.81135687500136,1,2024
4,1998,1.82107358933628,1.82107358933628,1,2024
1,1999,2.1797157142595,2.1797157142595,1,2024
2,1999,2.27059779317207,2.27059779317207,1,2024
3,1999,2.9171862459541,2.9171862459541,1,2024
4,1999,3.92017162929692,3.92017162929692,1,2024
1,2000,4.14632994507242,4.14632994507242,1,2024
2,2000,4.51387615099601,4.51387615099601,1,2024
3,2000,3.89542768364504,3.89542768364504,1,2024
4,2000,3.39983931112917,3.39983931112917,1,2024
1,2001,3.13750157433785,3.13750157433785,1,2024
2,2001,2.36240144692548,2.36240144692548,1,2024
3,2001,1.89567033317763,1.89567033317763,1,2024
4,2001,1.27902292458013,1.27902292458013,1,2024
1,2002,0.461324671822294,0.461324671822294,1,2024
2,2002,0.869362559330167,0.869362559330167,1,2024
3,2002,1.14484744250667,1.14484744250667,1,2024
4,2002,1.28934315528924,1.28934315528924,1,2024
1,2003,0.819410074818605,0.819410074818605,1,2024
2,2003,0.380562350184355,0.380562350184355,1,2024
3,2003,0.549240194277956,0.549240194277956,1,2024
4,2003,1.06425805386863,1.06425805386863,1,2024
1,2004,1.89353667546028,1.89353667546028,1,2024
2,2004,2.41992373503874,2.41992373503874,1,2024
3,2004,2.06760667175416,2.06760667175416,1,2024
4,2004,1.74999953829333,1.74999953829333,1,2024
1,2005,1.44103365914434,1.44103365914434,1,2024
2,2005,1.45894330902723,1.45894330902723,1,2024
3,2005,2.00093152656493,2.00093152656493,1,2024
4,2005,2.25016241232587,2.25016241232587,1,2024
1,2006,2.90798119733764,2.90798119733764,1,2024
2,2006,3.41544925723813,3.41544925723813,1,2024
3,2006,3.25405720752145,3.25405720752145,1,2024
4,2006,3.80197078498099,3.80197078498099,1,2024
1,2007,3.54789381499057,3.54789381499057,1,2024
2,2007,3.1380146454089,3.1380146454089,1,2024
3,2007,2.94835003450942,2.94835003450942,1,2024
4,2007,2.30660417712323,2.30660417712323,1,2024
1,2008,2.22167288119883,2.22167288119883,1,2024
2,2008,1.12214213868522,1.12214213868522,1,2024
3,2008,0.174843874395592,0.174843874395592,1,2024
4,2008,-2.1538976131152,-2.1538976131152,1,2024
1,2009,-5.68076062473386,-5.68076062473386,1,2024
2,2009,-5.38077939212061,-5.38077939212061,1,2024
