fredbec/spf-europe/data/filter_spf_data_medianfc_withus_month3.csv
target_quarter,target_year,spf_filter_cy,spf_filter_ny,origin_quarter,origin_year
2,1991,1.14565976995737,1.14611625207434,1,2001
3,1991,0.144476387390525,0.144476387390524,1,2001
4,1991,3.35460368274103,3.35460368274103,1,2001
1,1992,6.46223013878078,6.46223013878078,1,2001
2,1992,-2.39511450987036,-2.39511450987036,1,2001
3,1992,-1.39624048576191,-1.39624048576191,1,2001
4,1992,-1.04570304255245,-1.04570304255245,1,2001
1,1993,-2.47364717688081,-2.47364717688081,1,2001
2,1993,0.24745252699765,0.247452526997649,1,2001
3,1993,1.07831265507614,1.07831265507614,1,2001
4,1993,1.69484280297774,1.69484280297774,1,2001
1,1994,4.04820288338041,4.04820288338041,1,2001
2,1994,1.96600624989458,1.96600624989458,1,2001
3,1994,2.67686654786623,2.67686654786623,1,2001
4,1994,3.61151150126071,3.61151150126071,1,2001
1,1995,2.4718840660575,2.4718840660575,1,2001
2,1995,1.87564324462359,1.87564324462359,1,2001
3,1995,0.183191846613707,0.183191846613706,1,2001
4,1995,1.20251243351166,1.20251243351166,1,2001
1,1996,0.948039432270642,0.948039432270642,1,2001
2,1996,2.57913091639148,2.57913091639148,1,2001
3,1996,2.46706477164138,2.46706477164138,1,2001
4,1996,0.44913323226432,0.44913323226432,1,2001
1,1997,0.7383131966892,0.7383131966892,1,2001
2,1997,5.11811808396407,5.11811808396407,1,2001
3,1997,3.04867262818087,3.04867262818087,1,2001
4,1997,3.37697620804052,3.37697620804052,1,2001
1,1998,2.98718309270585,2.98718309270585,1,2001
2,1998,1.83437229422911,1.83437229422911,1,2001
3,1998,2.1915584913315,2.1915584913315,1,2001
4,1998,0.945873691654929,0.94587369165493,1,2001
1,1999,2.89837688208081,2.89837688208081,1,2001
2,1999,2.42167057545639,2.42167057545639,1,2001
3,1999,4.14408635224228,4.14408635224228,1,2001
4,1999,3.757040057663,3.757040057663,1,2001
1,2000,3.62161851635121,3.62161851635121,1,2001
2,2000,3.47702661674512,3.47702661674512,1,2001
3,2000,2.53258756694363,2.53258756694363,1,2001
4,2000,2.78743006597299,2.84122458861398,1,2001
1,2001,2.21429444175389,2.28560638661734,1,2001
2,2001,2.64176643831888,2.65458685522301,1,2001
3,2001,3.24241449657338,3.14541847277609,1,2001
4,2001,3.50753059409517,3.21621907869072,1,2001
1,2002,,2.80827215211297,1,2001
2,2002,,2.56350399616632,1,2001
3,2002,,2.44111991819299,1,2001
4,2002,,2.40032522553522,1,2001
2,1991,1.12520081276609,1.12615787449534,2,2001
3,1991,0.148815841229366,0.148815841229366,2,2001
4,1991,3.87301470725134,3.87301470725134,2,2001
1,1992,5.95594093058895,5.95594093058895,2,2001
2,1992,-2.45561850958964,-2.45561850958964,2,2001
3,1992,-1.05851591465951,-1.05851591465951,2,2001
4,1992,-1.12472806440553,-1.12472806440553,2,2001
1,1993,-2.72660949136438,-2.72660949136438,2,2001
2,1993,0.162038884735183,0.162038884735183,2,2001
3,1993,1.57649647215792,1.57649647215792,2,2001
4,1993,1.62923287945829,1.62923287945829,2,2001
1,1994,3.59586130502141,3.59586130502141,2,2001
2,1994,2.2504675990455,2.2504675990455,2,2001
3,1994,2.98757229601374,2.98757229601374,2,2001
4,1994,3.18368938526112,3.18368938526112,2,2001
1,1995,2.28350917833167,2.28350917833167,2,2001
2,1995,2.17301888543981,2.17301888543981,2,2001
3,1995,0.382008238114961,0.382008238114961,2,2001
4,1995,1.02750689639974,1.02750689639974,2,2001
1,1996,1.16946291942803,1.16946291942803,2,2001
2,1996,2.15011642939214,2.15011642939214,2,2001
3,1996,2.50193949805644,2.50193949805644,2,2001
4,1996,0.632818857244355,0.632818857244356,2,2001
1,1997,1.13490336842408,1.13490336842408,2,2001
2,1997,4.75635876569991,4.75635876569991,2,2001
3,1997,2.84976929426788,2.84976929426788,2,2001
4,1997,3.58184983691825,3.58184983691825,2,2001
1,1998,3.8009913844905,3.8009913844905,2,2001
2,1998,1.3395867391635,1.3395867391635,2,2001
3,1998,2.33251961747425,2.33251961747425,2,2001
4,1998,0.944886278737345,0.944886278737346,2,2001
1,1999,3.25148316482584,3.25148316482584,2,2001
2,1999,2.11810759070918,2.11810759070918,2,2001
3,1999,4.12102083953767,4.12102083953767,2,2001
4,1999,4.03884030982378,4.03884030982378,2,2001
1,2000,3.77528860696574,3.77528860696574,2,2001
2,2000,3.1226687751984,3.1226687751984,2,2001
3,2000,2.27915682084887,2.27915682084887,2,2001
4,2000,2.68168566946252,2.68168566946252,2,2001
1,2001,2.35575861086115,2.35770838313621,2,2001
2,2001,2.34484931895631,2.34040412967003,2,2001
3,2001,2.5434808323294,2.53773449961222,2,2001
4,2001,2.72750341123771,2.74447867155863,2,2001
1,2002,,2.83367340451452,2,2001
2,2002,,2.73116079532147,2,2001
3,2002,,2.67990449072494,2,2001
4,2002,,2.66281905585943,2,2001
2,1991,0.841790044166388,0.841912559822536,3,2001
3,1991,0.292186238986237,0.292186238986235,3,2001
4,1991,3.68470964114307,3.68470964114307,3,2001
1,1992,6.06693048044398,6.06693048044398,3,2001
2,1992,-2.72207460449392,-2.72207460449393,3,2001
3,1992,-0.626125724150329,-0.626125724150329,3,2001
4,1992,-1.35108610362086,-1.35108610362086,3,2001
1,1993,-2.72852484101649,-2.72852484101649,3,2001
2,1993,0.161374048233709,0.161374048233708,3,2001
3,1993,1.79007511522771,1.79007511522771,3,2001
4,1993,1.41953252002818,1.41953252002818,3,2001
1,1994,3.41086556010453,3.41086556010453,3,2001
2,1994,2.32592621854888,2.32592621854888,3,2001
3,1994,2.98886113363803,2.98886113363803,3,2001
4,1994,3.30255754421043,3.30255754421043,3,2001
1,1995,2.14354500889271,2.14354500889271,3,2001
2,1995,2.49469266604576,2.49469266604576,3,2001
3,1995,0.404027558746245,0.404027558746245,3,2001
4,1995,0.827940929629678,0.827940929629678,3,2001
1,1996,1.12207578076406,1.12207578076406,3,2001
2,1996,2.40174720864823,2.40174720864823,3,2001
3,1996,2.32072270311448,2.32072270311448,3,2001
4,1996,0.683361866531752,0.683361866531751,3,2001
1,1997,1.11341834296861,1.11341834296861,3,2001
2,1997,4.76930198987045,4.76930198987045,3,2001
3,1997,2.69049087496911,2.69049087496911,3,2001
4,1997,3.92622136013234,3.92622136013234,3,2001
1,1998,3.56600240421159,3.56600240421159,3,2001
2,1998,1.52315176565991,1.52315176565991,3,2001
3,1998,2.05970231992401,2.05970231992401,3,2001
4,1998,0.639755161962266,0.639755161962262,3,2001
1,1999,3.92114602390967,3.92114602390967,3,2001
2,1999,2.02195374370384,2.02195374370384,3,2001
3,1999,4.48486091449987,4.48486091449987,3,2001
4,1999,3.97973979890973,3.97973979890973,3,2001
1,2000,3.96621216858499,3.96621216858499,3,2001
2,2000,3.122870020304,3.122870020304,3,2001
3,2000,2.0006956078134,2.0006956078134,3,2001
4,2000,2.41662200697821,2.41662200697821,3,2001
1,2001,2.06303883718004,2.06303883718004,3,2001
2,2001,0.201769249791099,0.201769249791093,3,2001
3,2001,2.64501596726665,2.7496933108256,3,2001
4,2001,3.4693137013566,3.25744690012978,3,2001
1,2002,,2.66976299823182,3,2001
2,2002,,2.50479077005799,3,2001
3,2002,,2.1506081965411,3,2001
4,2002,,2.03254733870213,3,2001
2,1991,0.742572932720514,0.742780759611198,4,2001
3,1991,0.268200000827211,0.268200000827213,4,2001
4,1991,3.82022940707094,3.82022940707094,4,2001
1,1992,5.90925337701715,5.90925337701715,4,2001
2,1992,-2.68131949792175,-2.68131949792176,4,2001
3,1992,-0.826490125677681,-0.826490125677681,4,2001
4,1992,-1.14660403126766,-1.14660403126766,4,2001
1,1993,-2.68611156197771,-2.68611156197771,4,2001
2,1993,0.0565558984629626,0.0565558984629613,4,2001
3,1993,1.78118513866556,1.78118513866556,4,2001
4,1993,1.54337786662402,1.54337786662402,4,2001
1,1994,3.53139355203718,3.53139355203718,4,2001
2,1994,1.89929396154855,1.89929396154855,4,2001
3,1994,3.01419371429839,3.01419371429839,4,2001
4,1994,3.36153944687025,3.36153944687025,4,2001
1,1995,1.98781955531187,1.98781955531187,4,2001
2,1995,2.75703540512031,2.75703540512031,4,2001
3,1995,0.58013608098051,0.580136080980509,4,2001
4,1995,0.601155352389339,0.601155352389338,4,2001
1,1996,0.982036561426947,0.982036561426946,4,2001
2,1996,2.71332076485076,2.71332076485076,4,2001
3,1996,2.16568562540456,2.16568562540456,4,2001
4,1996,0.763363490809455,0.763363490809453,4,2001
1,1997,1.36275116811306,1.36275116811306,4,2001
2,1997,4.47783525681538,4.47783525681538,4,2001
3,1997,2.63946907005797,2.63946907005797,4,2001
4,1997,4.09849575483685,4.09849575483685,4,2001
1,1998,3.62541929634577,3.62541929634577,4,2001
2,1998,1.63615515407727,1.63615515407727,4,2001
3,1998,2.02859436086245,2.02859436086245,4,2001
4,1998,0.541793375208612,0.541793375208609,4,2001
1,1999,3.73481250667911,3.73481250667911,4,2001
2,1999,2.39387770401616,2.39387770401616,4,2001
3,1999,4.4851492073912,4.4851492073912,4,2001
4,1999,3.96834345197199,3.96834345197199,4,2001
1,2000,3.51941360992301,3.51941360992301,4,2001
2,2000,3.54970613337475,3.54970613337475,4,2001
3,2000,1.87014333502742,1.87014333502742,4,2001
4,2000,2.37732271028879,2.37732271028879,4,2001
1,2001,2.09132922558055,2.09132922558055,4,2001
2,2001,0.286681828233038,0.286681828233038,4,2001
3,2001,0.385792469003743,0.385792469003744,4,2001
4,2001,-0.423676724311622,-0.406418796226725,4,2001
1,2002,,1.32607697749822,4,2001
2,2002,,2.86876971803896,4,2001
3,2002,,3.82174261651729,4,2001
4,2002,,4.20451223532437,4,2001
2,1991,0.791194054825123,0.79175207241566,1,2002
3,1991,0.289261964666567,0.289261964666565,1,2002
4,1991,3.68869198911346,3.68869198911346,1,2002
1,1992,5.96953026353801,5.96953026353801,1,2002
2,1992,-2.79762707910471,-2.79762707910471,1,2002
3,1992,-0.722336591836825,-0.722336591836826,1,2002
4,1992,-0.952704396219783,-0.952704396219783,1,2002
1,1993,-2.88273414198299,-2.88273414198299,1,2002
2,1993,0.0658083814104145,0.0658083814104145,1,2002
3,1993,1.8372648041949,1.8372648041949,1,2002
4,1993,1.54120851738055,1.54120851738055,1,2002
1,1994,3.58098198147026,3.58098198147026,1,2002
2,1994,1.83958156739161,1.83958156739161,1,2002
3,1994,2.93754585560444,2.93754585560444,1,2002
4,1994,3.38543337129269,3.38543337129269,1,2002
1,1995,2.00393086843522,2.00393086843522,1,2002
2,1995,2.72522052207989,2.72522052207989,1,2002
3,1995,0.601242596929664,0.601242596929664,1,2002
4,1995,0.733980267188739,0.733980267188739,1,2002
1,1996,0.886536201486067,0.886536201486066,1,2002
2,1996,2.70894098174717,2.70894098174717,1,2002
3,1996,2.13074108015476,2.13074108015476,1,2002
4,1996,0.81490455784492,0.81490455784492,1,2002
1,1997,1.36973911890961,1.36973911890961,1,2002
2,1997,4.48181521481041,4.48181521481041,1,2002
3,1997,2.52983320337041,2.52983320337041,1,2002
4,1997,4.21115718165805,4.21115718165805,1,2002
1,1998,3.58719594713985,3.58719594713985,1,2002
2,1998,1.6516907901911,1.6516907901911,1,2002
3,1998,2.081767768581,2.081767768581,1,2002
4,1998,0.509029507417758,0.509029507417758,1,2002
1,1999,3.66700224797512,3.66700224797512,1,2002
2,1999,2.5258463015212,2.5258463015212,1,2002
3,1999,4.42390577531273,4.42390577531273,1,2002
4,1999,3.98232108035077,3.98232108035077,1,2002
1,2000,3.62410238081641,3.62410238081641,1,2002
2,2000,3.56746726403421,3.56746726403421,1,2002
3,2000,1.59424557655972,1.59424557655972,1,2002
4,2000,2.37539358051737,2.37539358051737,1,2002
1,2001,2.22905036541663,2.22905036541663,1,2002
2,2001,0.274394080162121,0.274394080162121,1,2002
3,2001,0.575357921956687,0.575357921956687,1,2002
4,2001,-0.22973046577735,-0.180098336077959,1,2002
1,2002,1.05544502518421,1.10445595711588,1,2002
2,2002,2.20133758767755,2.20616645088498,1,2002
3,2002,3.05873097890376,2.98467942670629,1,2002
4,2002,3.12122992566614,2.90975685468629,1,2002
1,2003,,2.60823765358962,1,2002
2,2003,,2.42732613293161,1,2002
3,2003,,2.33687037260261,1,2002
4,2003,,2.30671845249294,1,2002
2,1991,0.667439976213257,0.667837192011579,2,2002
3,1991,0.306184198387236,0.306184198387238,2,2002
4,1991,3.54926970265108,3.54926970265108,2,2002
1,1992,5.99779741645703,5.99779741645703,2,2002
2,1992,-2.85420737178148,-2.85420737178148,2,2002
3,1992,-0.45906078336696,-0.45906078336696,2,2002
4,1992,-0.950638774360657,-0.950638774360658,2,2002
1,1993,-3.0240936913276,-3.0240936913276,2,2002
2,1993,0.178850920303454,0.178850920303453,2,2002
3,1993,1.90925973917375,1.90925973917375,2,2002
4,1993,1.46421617396748,1.46421617396748,2,2002
1,1994,3.45342580787114,3.45342580787114,2,2002
2,1994,2.07736416364273,2.07736416364273,2,2002
3,1994,2.94263239608419,2.94263239608419,2,2002
4,1994,3.44290711466555,3.44290711466555,2,2002
1,1995,1.85697704427168,1.85697704427168,2,2002
2,1995,2.56535102147619,2.56535102147619,2,2002
3,1995,0.75267574822251,0.752675748222508,2,2002
4,1995,0.988278789111274,0.988278789111274,2,2002
1,1996,0.537155187826955,0.537155187826954,2,2002
2,1996,2.82662062212806,2.82662062212806,2,2002
3,1996,2.15523863275591,2.15523863275591,2,2002
4,1996,0.835145577286079,0.835145577286077,2,2002
1,1997,1.30502380744921,1.30502380744921,2,2002
2,1997,4.46873552964069,4.46873552964069,2,2002
3,1997,2.52134936572452,2.52134936572452,2,2002
4,1997,4.30342612208166,4.30342612208166,2,2002
1,1998,3.30733470002604,3.30733470002604,2,2002
2,1998,1.75028353311579,1.75028353311579,2,2002
3,1998,2.1789257400268,2.1789257400268,2,2002
4,1998,0.83932869640564,0.839328696405639,2,2002
1,1999,3.31138388193228,3.31138388193228,2,2002
2,1999,2.57883287392817,2.57883287392817,2,2002
3,1999,4.84087533194024,4.84087533194024,2,2002
4,1999,4.16247388400284,4.16247388400284,2,2002
1,2000,3.70303378882957,3.70303378882957,2,2002
2,2000,3.56384715335505,3.56384715335505,2,2002
3,2000,1.66434112720715,1.66434112720715,2,2002
4,2000,2.78226191301132,2.78226191301132,2,2002
1,2001,2.03645957584742,2.03645957584742,2,2002
2,2001,0.123589630967459,0.123589630967458,2,2002
3,2001,0.393459944241004,0.393459944241004,2,2002
4,2001,-1.15449083883461,-1.15449083883461,2,2002
1,2002,0.871087304173602,0.871087304173602,2,2002
2,2002,2.90635489279756,3.04542563718369,2,2002
3,2002,3.6729229296931,3.64555495965614,2,2002
4,2002,3.80025880974379,3.4365235027705,2,2002
1,2003,,2.86501008742961,2,2002
2,2003,,2.06995632551503,2,2002
3,2003,,1.67242944455774,2,2002
4,2003,,1.53992048423864,2,2002
2,1991,0.607128140632803,0.607129795279796,3,2002
3,1991,0.0836117815028454,0.0836117815028457,3,2002
4,1991,3.61804415517151,3.61804415517151,3,2002
1,1992,5.8793902782831,5.87939027828309,3,2002
2,1992,-2.62666452122354,-2.62666452122354,3,2002
3,1992,-0.546466672417323,-0.546466672417323,3,2002
4,1992,-0.725766871994915,-0.725766871994916,3,2002
1,1993,-3.15681221590003,-3.15681221590003,3,2002
2,1993,0.237570472707206,0.237570472707205,3,2002
3,1993,1.66410641550967,1.66410641550967,3,2002
4,1993,1.57998932792636,1.57998932792636,3,2002
1,1994,3.3871397463765,3.3871397463765,3,2002
2,1994,2.19380037143457,2.19380037143457,3,2002
3,1994,2.93210432307678,2.93210432307678,3,2002
4,1994,3.45730011421375,3.45730011421375,3,2002
1,1995,1.77094457775338,1.77094457775338,3,2002
2,1995,2.56818889106962,2.56818889106962,3,2002
3,1995,0.85613515161005,0.85613515161005,3,2002
4,1995,0.977816676388255,0.977816676388255,3,2002
1,1996,0.485973311548272,0.48597331154827,3,2002
2,1996,2.81518079667107,2.81518079667107,3,2002
3,1996,2.22324799912992,2.22324799912992,3,2002
4,1996,0.762095992150825,0.762095992150824,3,2002
1,1997,1.26672231784526,1.26672231784526,3,2002
2,1997,4.51657681923865,4.51657681923865,3,2002
3,1997,2.62711197964616,2.62711197964616,3,2002
4,1997,4.20162610169879,4.20162610169879,3,2002
1,1998,3.31635061646964,3.31635061646964,3,2002
2,1998,1.57135994170547,1.57135994170547,3,2002
3,1998,2.26976557395602,2.26976557395602,3,2002
4,1998,1.19869291015544,1.19869291015544,3,2002
1,1999,3.30661004054929,3.30661004054929,3,2002
2,1999,2.17536995105485,2.17536995105485,3,2002
3,1999,5.2634970393816,5.2634970393816,3,2002
4,1999,4.54149394751691,4.54149394751691,3,2002
1,2000,3.31864532175232,3.31864532175232,3,2002
2,2000,3.44350359552477,3.44350359552477,3,2002
3,2000,1.60348148430327,1.60348148430327,3,2002
4,2000,2.6360078233264,2.6360078233264,3,2002
1,2001,2.04880247153765,2.04880247153765,3,2002
2,2001,0.15270288264393,0.152702882643927,3,2002
3,2001,0.653891626050895,0.653891626050896,3,2002
4,2001,-1.15549315344257,-1.15549315344256,3,2002
1,2002,1.42688514205365,1.42688514205365,3,2002
2,2002,1.36578692645493,1.36578692645493,3,2002
3,2002,3.71256370382792,3.90066958533923,3,2002
4,2002,3.96529162575451,3.58417379403726,3,2002
1,2003,,2.67702025979856,3,2002
2,2003,,2.06023776207387,3,2002
3,2003,,1.16402524080333,3,2002
4,2003,,0.865287733713153,3,2002
2,1991,0.683980987903144,0.68414021362286,4,2002
3,1991,0.0744866685875811,0.0744866685875817,4,2002
4,1991,3.60613285395734,3.60613285395734,4,2002
1,1992,5.80772156509459,5.80772156509459,4,2002
2,1992,-2.54042372302762,-2.54042372302762,4,2002
3,1992,-0.567098993853776,-0.567098993853776,4,2002
4,1992,-0.763202840495125,-0.763202840495124,4,2002
1,1993,-3.12221982898301,-3.12221982898301,4,2002
2,1993,0.229848269168721,0.229848269168719,4,2002
3,1993,1.6934752047437,1.6934752047437,4,2002
4,1993,1.48765505069377,1.48765505069377,4,2002
1,1994,3.46985389852437,3.46985389852437,4,2002
2,1994,2.18773149888778,2.18773149888778,4,2002
3,1994,2.91816157471634,2.91816157471634,4,2002
4,1994,3.38338820275335,3.38338820275335,4,2002
1,1995,1.83345995364335,1.83345995364335,4,2002
2,1995,2.54409002322173,2.54409002322173,4,2002
3,1995,0.895086507557298,0.895086507557298,4,2002
4,1995,0.872250865781132,0.872250865781132,4,2002
1,1996,0.652234207714654,0.652234207714653,4,2002
2,1996,2.66584020657428,2.66584020657428,4,2002
3,1996,2.29586630671899,2.29586630671899,4,2002
4,1996,0.719857938622105,0.719857938622105,4,2002
1,1997,1.29397003277454,1.29397003277454,4,2002
2,1997,4.49299406491981,4.49299406491981,4,2002
3,1997,2.66738810806315,2.66738810806315,4,2002
4,1997,4.18385119121205,4.18385119121205,4,2002
1,1998,3.34505273367811,3.34505273367811,4,2002
2,1998,1.55523125435177,1.55523125435177,4,2002
3,1998,2.30788285724444,2.30788285724444,4,2002
4,1998,1.24627531809944,1.24627531809944,4,2002
1,1999,3.39549454985537,3.39549454985537,4,2002
2,1999,2.12431250170135,2.12431250170135,4,2002
3,1999,5.37698625154328,5.37698625154328,4,2002
4,1999,4.40776707903494,4.40776707903494,4,2002
1,2000,3.49404357887917,3.49404357887917,4,2002
2,2000,3.31769449027597,3.31769449027597,4,2002
3,2000,1.57374923813369,1.57374923813369,4,2002
4,2000,2.51364637527973,2.51364637527973,4,2002
1,2001,2.09705843459236,2.09705843459236,4,2002
2,2001,0.0622739895228772,0.0622739895228768,4,2002
3,2001,0.657811301346722,0.657811301346722,4,2002
4,2001,-1.01615065718587,-1.01615065718587,4,2002
1,2002,1.66111836738001,1.66111836738001,4,2002
2,2002,1.15935294903087,1.15935294903087,4,2002
3,2002,1.32682913773279,1.32682913773279,4,2002
4,2002,1.6895783104481,1.68413248171828,4,2002
1,2003,,1.75270438490971,4,2002
2,2003,,2.10686075862193,4,2002
3,2003,,2.30122104494152,4,2002
4,2003,,2.00268229990394,4,2002
2,1991,0.661409089152078,0.66154044124338,1,2003
3,1991,0.107198722865419,0.10719872286542,1,2003
4,1991,3.61150841305884,3.61150841305884,1,2003
1,1992,5.81065426800631,5.81065426800631,1,2003
2,1992,-2.5503035659349,-2.55030356593491,1,2003
3,1992,-0.569569956135196,-0.569569956135196,1,2003
4,1992,-0.797734029685126,-0.797734029685126,1,2003
1,1993,-3.06350742607352,-3.06350742607352,1,2003
2,1993,0.201849786532438,0.201849786532438,1,2003
3,1993,1.67076383277862,1.67076383277862,1,2003
4,1993,1.49377188837201,1.49377188837201,1,2003
1,1994,3.41744168619424,3.41744168619424,1,2003
2,1994,2.28449578704559,2.28449578704559,1,2003
3,1994,2.91184575999728,2.91184575999728,1,2003
4,1994,3.36729425891873,3.36729425891873,1,2003
1,1995,2.01696049753626,2.01696049753626,1,2003
2,1995,2.33012645657373,2.33012645657373,1,2003
3,1995,0.893099384687845,0.893099384687845,1,2003
4,1995,0.840839103229918,0.840839103229918,1,2003
1,1996,0.68887980751815,0.68887980751815,1,2003
2,1996,2.64253195708866,2.64253195708866,1,2003
3,1996,2.30963535450863,2.30963535450863,1,2003
4,1996,0.902997582425602,0.902997582425602,1,2003
1,1997,1.12091264210641,1.12091264210641,1,2003
2,1997,4.51922831462348,4.51922831462348,1,2003
3,1997,2.69508832329282,2.69508832329282,1,2003
4,1997,4.22319369515163,4.22319369515163,1,2003
1,1998,3.23656386715965,3.23656386715965,1,2003
2,1998,1.55418894213297,1.55418894213297,1,2003
3,1998,2.33656427032545,2.33656427032545,1,2003
4,1998,1.28563297544471,1.28563297544471,1,2003
1,1999,3.35852928776432,3.35852928776432,1,2003
2,1999,2.16988051129676,2.16988051129676,1,2003
3,1999,5.36113576350736,5.36113576350736,1,2003
4,1999,4.32558034449801,4.32558034449801,1,2003
1,2000,3.65056242144108,3.65056242144108,1,2003
2,2000,3.28090443766098,3.28090443766098,1,2003
3,2000,1.73604020732794,1.73604020732794,1,2003
4,2000,2.40267335448872,2.40267335448872,1,2003
1,2001,2.21309050353962,2.21309050353962,1,2003
2,2001,-0.0373905785937319,-0.0373905785937336,1,2003
3,2001,0.574680267060757,0.574680267060757,1,2003
4,2001,-0.90305125571305,-0.903051255713052,1,2003
1,2002,1.56427636927152,1.56427636927152,1,2003
2,2002,1.31103400431281,1.31103400431281,1,2003
3,2002,1.56915219567277,1.56915219567277,1,2003
4,2002,0.67982324380218,0.67982324380218,1,2003
1,2003,1.00927044518003,1.05899810019752,1,2003
2,2003,1.68109154321529,1.70464063042408,1,2003
3,2003,2.40790091210519,2.36127553123802,1,2003
4,2003,2.81773745704489,2.64122942263301,1,2003
1,2004,,2.36979174353476,1,2003
2,2004,,2.20692913607581,1,2003
3,2004,,2.12549783234634,1,2003
4,2004,,2.09835406443651,1,2003
2,1991,0.66555315472187,0.665850822936167,2,2003
3,1991,0.0530630556513381,0.053063055651336,2,2003
4,1991,3.63603450103813,3.63603450103813,2,2003
1,1992,5.87671484707535,5.87671484707535,2,2003
2,1992,-2.63457834356003,-2.63457834356003,2,2003
3,1992,-0.528222963846947,-0.528222963846948,2,2003
4,1992,-0.837194098036798,-0.837194098036798,2,2003
1,1993,-2.99276584220347,-2.99276584220347,2,2003
2,1993,0.0806831367059053,0.0806831367059053,2,2003
3,1993,1.82048086998403,1.82048086998403,2,2003
4,1993,1.39204251337042,1.39204251337042,2,2003
1,1994,3.38244782777244,3.38244782777244,2,2003
2,1994,2.39589506499676,2.39589506499676,2,2003
3,1994,2.83133841037806,2.83133841037806,2,2003
4,1994,3.46221215821649,3.46221215821649,2,2003
1,1995,1.97702639926309,1.97702639926309,2,2003
2,1995,2.30520798808505,2.30520798808505,2,2003
3,1995,0.931404891038424,0.931404891038423,2,2003
4,1995,0.771497220763684,0.771497220763684,2,2003
1,1996,0.830870715667609,0.830870715667609,2,2003
2,1996,2.47648348408296,2.47648348408296,2,2003
3,1996,2.31237439127119,2.31237439127119,2,2003
4,1996,0.959839050563294,0.959839050563294,2,2003
1,1997,1.04743535399277,1.04743535399277,2,2003
2,1997,4.70585273571558,4.70585273571558,2,2003
3,1997,2.5726669449146,2.5726669449146,2,2003
4,1997,4.22823013885052,4.22823013885052,2,2003
1,1998,3.27851687194112,3.27851687194112,2,2003
2,1998,1.59032098687864,1.59032098687864,2,2003
3,1998,2.23896357194273,2.23896357194273,2,2003
4,1998,1.22581878458201,1.22581878458201,2,2003
1,1999,3.52160423593368,3.52160423593368,2,2003
2,1999,2.18645894188847,2.18645894188847,2,2003
3,1999,5.25056472502949,5.25056472502949,2,2003
4,1999,4.32329012708403,4.32329012708403,2,2003
1,2000,3.85516062526246,3.85516062526246,2,2003
2,2000,3.20328714534273,3.20328714534273,2,2003
3,2000,1.49947549776155,1.49947549776155,2,2003
4,2000,2.53221302620594,2.53221302620594,2,2003
1,2001,2.38971592778376,2.38971592778376,2,2003
2,2001,-0.00523271282226734,-0.00523271282226689,2,2003
3,2001,0.62730883847204,0.62730883847204,2,2003
4,2001,-0.713947849500419,-0.713947849500417,2,2003
1,2002,1.69226394821267,1.69226394821267,2,2003
2,2002,1.56720075437216,1.56720075437216,2,2003
3,2002,1.29445495035709,1.29445495035709,2,2003
4,2002,0.268894358114991,0.268894358114991,2,2003
1,2003,0.0381512951699531,0.0381512951699517,2,2003
2,2003,1.17384719571651,1.25740969508303,2,2003
3,2003,2.30892645257181,2.27129977160455,2,2003
4,2003,2.74668764284922,2.57026215345464,2,2003
1,2004,,2.56674356301173,2,2003
2,2004,,1.63058733956274,2,2003
3,2004,,1.16250922783825,2,2003
4,2004,,1.00648319059675,2,2003
2,1991,0.714934494444975,0.714777169211718,3,2003
3,1991,-0.0529986475845371,-0.0529986475845352,3,2003
4,1991,3.64209704612297,3.64209704612297,3,2003
1,1992,6.10838209809596,6.10838209809597,3,2003
2,1992,-2.71923376768584,-2.71923376768584,3,2003
3,1992,-0.769192563157872,-0.769192563157872,3,2003
4,1992,-0.986080467159189,-0.986080467159189,3,2003
1,1993,-2.58536869170797,-2.58536869170797,3,2003
2,1993,0.0656800988148469,0.065680098814846,3,2003
3,1993,1.58121964688334,1.58121964688334,3,2003
4,1993,1.228840526176,1.228840526176,3,2003
1,1994,3.70895198817318,3.70895198817318,3,2003
2,1994,2.43536120749381,2.43536120749381,3,2003
3,1994,2.8147426443925,2.8147426443925,3,2003
4,1994,3.07355223717043,3.07355223717043,3,2003
1,1995,2.36836477924534,2.36836477924534,3,2003
2,1995,2.14142112563229,2.14142112563229,3,2003
3,1995,0.931692154144392,0.931692154144392,3,2003
4,1995,0.646516848958068,0.646516848958068,3,2003
1,1996,1.20684630852563,1.20684630852563,3,2003
2,1996,2.34258920221477,2.34258920221477,3,2003
3,1996,2.2072135359273,2.2072135359273,3,2003
4,1996,0.58672476709427,0.586724767094271,3,2003
1,1997,1.04870757189552,1.04870757189552,3,2003
2,1997,5.09386233101923,5.09386233101923,3,2003
3,1997,2.77505626274068,2.77505626274068,3,2003
4,1997,4.11238816569866,4.11238816569866,3,2003
1,1998,3.09645979291362,3.09645979291362,3,2003
2,1998,1.68702452223675,1.68702452223675,3,2003
3,1998,2.29565248927188,2.29565248927188,3,2003
4,1998,1.1544424181581,1.1544424181581,3,2003
1,1999,3.41802194191425,3.41802194191425,3,2003
2,1999,2.34837128704102,2.34837128704102,3,2003
3,1999,5.29082281508979,5.29082281508979,3,2003
4,1999,4.16155318682769,4.16155318682769,3,2003
1,2000,3.86165585761649,3.86165585761649,3,2003
2,2000,3.31164025737438,3.31164025737438,3,2003
3,2000,1.46404791180312,1.46404791180312,3,2003
4,2000,2.36150464555163,2.36150464555163,3,2003
1,2001,2.6111060203373,2.6111060203373,3,2003
2,2001,-0.131169119953413,-0.131169119953412,3,2003
3,2001,0.648249792317389,0.64824979231739,3,2003
4,2001,-0.601390033779637,-0.601390033779636,3,2003
1,2002,1.64688254039083,1.64688254039083,3,2003
2,2002,1.60441684910662,1.60441684910662,3,2003
3,2002,1.28436339620088,1.28436339620088,3,2003
4,2002,0.277758705885933,0.277758705885933,3,2003
1,2003,0.244369759874717,0.244369759874719,3,2003
2,2003,-0.181283707073288,-0.181283707073288,3,2003
3,2003,1.09560571310134,1.12559911597178,3,2003
4,2003,1.9754872969077,1.91309108825387,3,2003
1,2004,,2.27047865778732,3,2003
2,2004,,2.19757929641424,3,2003
3,2004,,1.3351731373239,3,2003
4,2004,,1.04770441762712,3,2003
2,1991,1.22521644326402,1.22651413532846,4,2003
3,1991,-0.174501747286092,-0.174501747286092,4,2003
4,1991,3.9371339834976,3.9371339834976,4,2003
1,1992,6.03125118469714,6.03125118469714,4,2003
2,1992,-2.94837097121151,-2.94837097121151,4,2003
3,1992,-0.951989775208839,-0.951989775208839,4,2003
4,1992,-0.924639791189196,-0.924639791189196,4,2003
1,1993,-2.49333156229895,-2.49333156229895,4,2003
2,1993,0.0685509282315038,0.0685509282315033,4,2003
3,1993,1.52290768458867,1.52290768458867,4,2003
4,1993,1.16732067252214,1.16732067252214,4,2003
1,1994,3.91610658125969,3.91610658125969,4,2003
2,1994,2.40386039320955,2.40386039320955,4,2003
3,1994,2.64283742536864,2.64283742536864,4,2003
4,1994,3.2543906145061,3.2543906145061,4,2003
1,1995,2.20246423446824,2.20246423446824,4,2003
2,1995,2.30757917068762,2.30757917068762,4,2003
3,1995,0.80802553772783,0.80802553772783,4,2003
4,1995,0.937154627471237,0.937154627471237,4,2003
1,1996,0.624755352555216,0.624755352555216,4,2003
2,1996,2.87364262634646,2.87364262634646,4,2003
3,1996,2.15489038003454,2.15489038003454,4,2003
4,1996,0.639712559832129,0.63971255983213,4,2003
1,1997,0.987385063001444,0.987385063001444,4,2003
2,1997,4.97753896610953,4.97753896610953,4,2003
3,1997,2.76334643120155,2.76334643120155,4,2003
4,1997,4.08611400680923,4.08611400680923,4,2003
1,1998,3.28069062729561,3.28069062729561,4,2003
2,1998,1.60423574392428,1.60423574392428,4,2003
3,1998,2.18041285671575,2.18041285671575,4,2003
4,1998,1.08979743280149,1.08979743280149,4,2003
1,1999,3.69311646855288,3.69311646855288,4,2003
2,1999,2.24416343074623,2.24416343074623,4,2003
3,1999,5.06079316073709,5.06079316073709,4,2003
4,1999,4.2853662387603,4.2853662387603,4,2003
1,2000,3.91382373155496,3.91382373155496,4,2003
2,2000,3.48627013361058,3.48627013361058,4,2003
3,2000,1.29223237528315,1.29223237528315,4,2003
4,2000,2.48146560297824,2.48146560297824,4,2003
1,2001,2.72978752152275,2.72978752152275,4,2003
2,2001,0.126259099937088,0.126259099937088,4,2003
3,2001,0.726808480988872,0.726808480988872,4,2003
4,2001,-0.484601300956722,-0.484601300956722,4,2003
1,2002,1.52959987370918,1.52959987370918,4,2003
2,2002,1.92616009065669,1.92616009065669,4,2003
3,2002,0.943580847423742,0.943580847423741,4,2003
4,2002,0.0711949777058244,0.0711949777058245,4,2003
1,2003,-0.0711620818534035,-0.0711620818534061,4,2003
2,2003,-0.417243324275761,-0.417243324275761,4,2003
3,2003,1.54216770682993,1.54216770682993,4,2003
4,2003,2.42987583631004,2.41151918368551,4,2003
1,2004,,1.69586614269969,4,2003
2,2004,,1.65037168203765,4,2003
3,2004,,1.56808649585888,4,2003
4,2004,,0.832173552685897,4,2003
2,1991,1.22427363332953,1.22329505676805,1,2004
3,1991,-0.176185150616113,-0.176185150616115,1,2004
4,1991,3.91398123811415,3.91398123811415,1,2004
1,1992,6.05705341424436,6.05705341424436,1,2004
2,1992,-2.93855106466615,-2.93855106466615,1,2004
3,1992,-0.959471272404688,-0.959471272404688,1,2004
4,1992,-0.965368413904588,-0.965368413904588,1,2004
1,1993,-2.46837005939173,-2.46837005939173,1,2004
2,1993,0.0771523143741741,0.0771523143741733,1,2004
3,1993,1.53479347912469,1.53479347912469,1,2004
4,1993,1.14399862276771,1.14399862276771,1,2004
1,1994,3.93807772545574,3.93807772545574,1,2004
2,1994,2.38117399207389,2.38117399207389,1,2004
3,1994,2.66669036966347,2.66669036966347,1,2004
4,1994,3.22628492863208,3.22628492863208,1,2004
1,1995,2.20233030656991,2.20233030656991,1,2004
2,1995,2.30945216709078,2.30945216709078,1,2004
3,1995,0.827532975043654,0.827532975043654,1,2004
4,1995,0.950313658013169,0.950313658013169,1,2004
1,1996,0.57147206418906,0.571472064189059,1,2004
2,1996,2.90008733123313,2.90008733123313,1,2004
3,1996,2.17165994499655,2.17165994499655,1,2004
4,1996,0.662638380728132,0.662638380728131,1,2004
1,1997,0.9409502892479,0.940950289247898,1,2004
2,1997,4.98073174206768,4.98073174206768,1,2004
3,1997,2.77960187305868,2.77960187305868,1,2004
4,1997,4.10249885314156,4.10249885314156,1,2004
1,1998,3.26214681515864,3.26214681515864,1,2004
2,1998,1.5982399697569,1.5982399697569,1,2004
3,1998,2.18139631548289,2.18139631548289,1,2004
4,1998,1.09613941279445,1.09613941279445,1,2004
1,1999,3.63914588722736,3.63914588722736,1,2004
2,1999,2.29415075655977,2.29415075655977,1,2004
3,1999,5.07242433811022,5.07242433811022,1,2004
4,1999,4.30930369156488,4.30930369156488,1,2004
1,2000,3.76740369160826,3.76740369160826,1,2004
2,2000,3.56389811138931,3.56389811138931,1,2004
3,2000,1.22555043764698,1.22555043764698,1,2004
4,2000,2.47154440175974,2.47154440175974,1,2004
1,2001,2.72705464165655,2.72705464165655,1,2004
2,2001,0.140826700524622,0.140826700524621,1,2004
3,2001,0.712008090876215,0.712008090876215,1,2004
4,2001,-0.528307517940174,-0.528307517940175,1,2004
1,2002,1.52101284942108,1.52101284942108,1,2004
2,2002,2.01956722313039,2.01956722313039,1,2004
3,2002,0.92369644997501,0.923696449975008,1,2004
4,2002,0.00456240145008158,0.00456240145008069,1,2004
1,2003,-0.0570022396637499,-0.0570022396637508,1,2004
2,2003,-0.350421416123713,-0.350421416123715,1,2004
3,2003,1.55394005415075,1.55394005415075,1,2004
4,2003,1.24123691900133,1.24123691900133,1,2004
1,2004,1.79385710086984,1.87875650888064,1,2004
2,2004,2.26464343484426,2.30504167507361,1,2004
3,2004,2.65422288211262,2.57380704703843,1,2004
4,2004,3.04502610474693,2.74473875213967,1,2004
1,2005,,2.31090423523543,1,2004
2,2005,,2.05060352509289,1,2004
3,2005,,1.92045317002162,1,2004
4,2005,,1.87706971833119,1,2004
2,1991,1.19464808600729,1.19345738766807,2,2004
3,1991,-0.110461623318072,-0.110461623318071,2,2004
4,1991,3.85861376388277,3.85861376388277,2,2004
1,1992,6.17632015723351,6.17632015723351,2,2004
2,1992,-3.01851872238129,-3.01851872238129,2,2004
3,1992,-1.11541873342903,-1.11541873342903,2,2004
4,1992,-0.797438459107813,-0.797438459107813,2,2004
1,1993,-2.69768655969261,-2.69768655969261,2,2004
2,1993,0.297037800842825,0.297037800842824,2,2004
3,1993,1.66878901236494,1.66878901236494,2,2004
4,1993,1.0515539788533,1.0515539788533,2,2004
1,1994,3.75829992148429,3.75829992148429,2,2004
2,1994,2.51468094643317,2.51468094643317,2,2004
3,1994,2.72104894865002,2.72104894865002,2,2004
4,1994,3.21168444187441,3.21168444187441,2,2004
1,1995,2.19052812109859,2.19052812109859,2,2004
2,1995,2.26254420786167,2.26254420786167,2,2004
3,1995,0.781056351684306,0.781056351684306,2,2004
4,1995,1.03526317471869,1.03526317471869,2,2004
1,1996,0.670223881824382,0.670223881824382,2,2004
2,1996,2.83564488865313,2.83564488865313,2,2004
3,1996,1.98627484219218,1.98627484219218,2,2004
4,1996,0.708926347909288,0.708926347909288,2,2004
1,1997,0.887826265078416,0.887826265078416,2,2004
2,1997,5.0780136856438,5.0780136856438,2,2004
3,1997,2.87208348124859,2.87208348124859,2,2004
4,1997,4.13907364673085,4.13907364673085,2,2004
1,1998,3.06114331645786,3.06114331645786,2,2004
2,1998,1.71941677224947,1.71941677224947,2,2004
3,1998,2.20920382638696,2.20920382638696,2,2004
4,1998,1.08772019941763,1.08772019941763,2,2004
1,1999,3.46813323065152,3.46813323065152,2,2004
2,1999,2.47574860914424,2.47574860914424,2,2004
3,1999,5.02728741405072,5.02728741405072,2,2004
4,1999,4.37736364134076,4.37736364134076,2,2004
1,2000,3.66968532826999,3.66968532826999,2,2004
2,2000,3.48331352690401,3.48331352690401,2,2004
3,2000,1.40739909299132,1.40739909299132,2,2004
4,2000,2.43143508532899,2.43143508532899,2,2004
1,2001,2.65146004735855,2.65146004735855,2,2004
2,2001,0.142783216409013,0.142783216409014,2,2004
3,2001,0.91315875139848,0.91315875139848,2,2004
4,2001,-0.795270050918431,-0.795270050918429,2,2004
1,2002,1.68396955202887,1.68396955202887,2,2004
2,2002,1.97477059905009,1.97477059905009,2,2004
3,2002,0.792483792295839,0.792483792295839,2,2004
4,2002,0.13261700179914,0.13261700179914,2,2004
1,2003,-0.0360122930470941,-0.0360122930470946,2,2004
2,2003,-0.320051242018583,-0.320051242018583,2,2004
3,2003,1.65244117537877,1.65244117537877,2,2004
4,2003,1.49186166378825,1.49186166378825,2,2004
1,2004,2.31179840937314,2.31179840937314,2,2004
2,2004,1.30179665695453,1.25576227634659,2,2004
3,2004,1.49531948022876,1.48233189059907,2,2004
4,2004,2.00524309947243,2.16958059879567,2,2004
1,2005,,2.69469192455739,2,2004
2,2005,,2.37176836058294,2,2004
3,2005,,2.21030657859572,2,2004
4,2005,,2.15648598459998,2,2004
2,1991,1.20601555617693,1.20633585851675,3,2004
3,1991,-0.0720633628526175,-0.0720633628526137,3,2004
4,1991,3.89990879039976,3.89990879039976,3,2004
1,1992,6.06458349695252,6.06458349695251,3,2004
2,1992,-2.9444686551965,-2.9444686551965,3,2004
3,1992,-1.1254704306828,-1.1254704306828,3,2004
4,1992,-0.791187312154517,-0.791187312154518,3,2004
1,1993,-2.70751732880534,-2.70751732880534,3,2004
2,1993,0.286551075644015,0.286551075644015,3,2004
3,1993,1.65841135486269,1.65841135486269,3,2004
4,1993,1.06853233634536,1.06853233634536,3,2004
1,1994,3.76675260977311,3.76675260977311,3,2004
2,1994,2.47230940771093,2.47230940771093,3,2004
3,1994,2.73556453115444,2.73556453115444,3,2004
4,1994,3.25645358643454,3.25645358643454,3,2004
1,1995,2.1327853565889,2.1327853565889,3,2004
2,1995,2.28963247908589,2.28963247908589,3,2004
3,1995,0.792983897373967,0.792983897373967,3,2004
4,1995,1.04128338093847,1.04128338093847,3,2004
1,1996,0.633086665157622,0.633086665157623,3,2004
2,1996,2.88566209997347,2.88566209997347,3,2004
3,1996,1.96390262546313,1.96390262546313,3,2004
4,1996,0.686483661395475,0.686483661395476,3,2004
1,1997,0.962493015973618,0.96249301597362,3,2004
2,1997,5.00646957821864,5.00646957821864,3,2004
3,1997,2.86657265195309,2.86657265195309,3,2004
4,1997,4.12105558533187,4.12105558533187,3,2004
1,1998,3.11489910127047,3.11489910127047,3,2004
2,1998,1.71161840023251,1.71161840023251,3,2004
3,1998,2.21116077438785,2.21116077438785,3,2004
4,1998,1.02739473604325,1.02739473604325,3,2004
1,1999,3.45473143712363,3.45473143712363,3,2004
2,1999,2.46005296519909,2.46005296519909,3,2004
3,1999,5.14085854187154,5.14085854187154,3,2004
4,1999,4.44119484155119,4.44119484155119,3,2004
1,2000,3.5251130280664,3.5251130280664,3,2004
2,2000,3.55178096788709,3.55178096788709,3,2004
3,2000,1.4352537272408,1.4352537272408,3,2004
4,2000,2.35294860824353,2.35294860824353,3,2004
1,2001,2.65251321679645,2.65251321679645,3,2004
2,2001,0.188711192602463,0.188711192602464,3,2004
3,2001,0.901674260143005,0.901674260143004,3,2004
4,2001,-0.789993522596957,-0.789993522596955,3,2004
1,2002,1.73859702068373,1.73859702068373,3,2004
2,2002,1.84326142852482,1.84326142852482,3,2004
3,2002,0.862579821135734,0.862579821135734,3,2004
4,2002,0.155296646434477,0.155296646434477,3,2004
1,2003,0.037034987533491,0.0370349875334908,3,2004
2,2003,-0.502886836210293,-0.502886836210292,3,2004
3,2003,1.73993831357775,1.73993831357775,3,2004
4,2003,1.51481498853732,1.51481498853732,3,2004
1,2004,2.5409912595127,2.5409912595127,3,2004
2,2004,2.05686311441093,2.05686311441093,3,2004
3,2004,1.48725069896819,1.46216428909183,3,2004
4,2004,1.97915943131094,2.02883238041872,3,2004
1,2005,,2.56178484837543,3,2004
2,2005,,2.60174467741009,3,2004
3,2005,,2.08449301559323,3,2004
4,2005,,1.91207579498761,3,2004
2,1991,1.28358643765095,1.28359189554081,4,2004
3,1991,0.0292363517543117,0.0292363517543144,4,2004
4,1991,3.90981974285434,3.90981974285434,4,2004
1,1992,6.05871799987516,6.05871799987516,4,2004
2,1992,-3.02684794658532,-3.02684794658532,4,2004
3,1992,-1.05951084257945,-1.05951084257945,4,2004
4,1992,-0.918840844548408,-0.918840844548409,4,2004
1,1993,-2.68760211935175,-2.68760211935175,4,2004
2,1993,0.326989376122588,0.326989376122588,4,2004
3,1993,1.73950320026239,1.73950320026239,4,2004
4,1993,1.00954923137315,1.00954923137315,4,2004
1,1994,3.73093606863679,3.73093606863679,4,2004
2,1994,2.48617944480767,2.48617944480767,4,2004
3,1994,2.88700394032764,2.88700394032764,4,2004
4,1994,3.06004066161825,3.06004066161825,4,2004
1,1995,2.44371019239751,2.44371019239751,4,2004
2,1995,2.14941121440939,2.14941121440939,4,2004
3,1995,0.623041633615774,0.623041633615772,4,2004
4,1995,0.987445890786409,0.987445890786409,4,2004
1,1996,0.832148776251995,0.832148776251995,4,2004
2,1996,2.9202727964508,2.9202727964508,4,2004
3,1996,2.04599657743592,2.04599657743592,4,2004
4,1996,0.604506976203113,0.604506976203112,4,2004
1,1997,0.985423407290443,0.985423407290443,4,2004
2,1997,5.07660621571597,5.07660621571597,4,2004
3,1997,2.79052662032588,2.79052662032588,4,2004
4,1997,4.11552857446031,4.11552857446031,4,2004
1,1998,3.11071623704349,3.11071623704349,4,2004
2,1998,1.73016388805736,1.73016388805736,4,2004
3,1998,2.19152898812269,2.19152898812269,4,2004
4,1998,0.992064988927145,0.992064988927145,4,2004
1,1999,3.53537970065183,3.53537970065183,4,2004
2,1999,2.49583611392219,2.49583611392219,4,2004
3,1999,5.1635867230158,5.1635867230158,4,2004
4,1999,4.41667583241758,4.41667583241758,4,2004
1,2000,3.60447594898305,3.60447594898305,4,2004
2,2000,3.66119805546401,3.66119805546401,4,2004
3,2000,1.30177862539724,1.30177862539724,4,2004
4,2000,2.20148491494589,2.20148491494589,4,2004
1,2001,3.03428659405824,3.03428659405824,4,2004
2,2001,-0.0770379037637201,-0.0770379037637192,4,2004
3,2001,0.858322691728031,0.858322691728031,4,2004
4,2001,-0.684862627554583,-0.684862627554581,4,2004
1,2002,1.79276215971795,1.79276215971795,4,2004
2,2002,1.57155778203508,1.57155778203508,4,2004
3,2002,1.15860693520233,1.15860693520233,4,2004
4,2002,0.0658142260164145,0.0658142260164143,4,2004
1,2003,0.140985036248065,0.140985036248065,4,2004
2,2003,-0.764662279887684,-0.764662279887679,4,2004
3,2003,2.16884475009511,2.16884475009511,4,2004
4,2003,1.57924233343831,1.57924233343832,4,2004
1,2004,2.63475177555186,2.63475177555186,4,2004
2,2004,1.88853716966877,1.88853716966878,4,2004
3,2004,1.21526338263944,1.21526338263944,4,2004
4,2004,3.44235687071284,3.42167291696942,4,2004
1,2005,,1.99166296797633,4,2004
2,2005,,1.72761425136504,4,2004
3,2005,,1.63934414195431,4,2004
4,2005,,0.991703662019911,4,2004
2,1991,1.33447792975185,1.334183159703,1,2005
3,1991,-0.0105062022201725,-0.0105062022201741,1,2005
4,1991,3.68862953925557,3.68862953925557,1,2005
1,1992,5.5721037899473,5.5721037899473,1,2005
2,1992,-3.25496649873057,-3.25496649873057,1,2005
3,1992,-1.09844742353213,-1.09844742353213,1,2005
4,1992,-0.974551812593016,-0.974551812593016,1,2005
1,1993,-2.5199208463267,-2.5199208463267,1,2005
2,1993,0.405561262522958,0.405561262522959,1,2005
3,1993,1.76277759548074,1.76277759548074,1,2005
4,1993,1.11653860998289,1.11653860998289,1,2005
1,1994,3.63460260103852,3.63460260103852,1,2005
2,1994,2.51689304194351,2.51689304194351,1,2005
3,1994,2.96323628527713,2.96323628527713,1,2005
4,1994,3.00108688040714,3.00108688040714,1,2005
1,1995,2.68666003513722,2.68666003513722,1,2005
2,1995,2.18899153851,2.18899153851,1,2005
3,1995,0.65132927816578,0.65132927816578,1,2005
4,1995,0.954686264444926,0.954686264444926,1,2005
1,1996,0.779656888334857,0.779656888334858,1,2005
2,1996,2.81703212117148,2.81703212117148,1,2005
3,1996,2.00079742211805,2.00079742211805,1,2005
4,1996,0.671944699333627,0.671944699333627,1,2005
1,1997,1.23219791655247,1.23219791655247,1,2005
2,1997,5.05928030093163,5.05928030093163,1,2005
3,1997,2.75099158953993,2.75099158953993,1,2005
4,1997,4.0788653058075,4.0788653058075,1,2005
1,1998,2.98587554365204,2.98587554365204,1,2005
2,1998,1.59979819163958,1.59979819163958,1,2005
3,1998,2.1604451331398,2.1604451331398,1,2005
4,1998,0.832171574980191,0.832171574980192,1,2005
1,1999,3.46666348822131,3.46666348822131,1,2005
2,1999,2.37565829950501,2.37565829950501,1,2005
3,1999,5.14540581226022,5.14540581226022,1,2005
4,1999,4.6106417679143,4.6106417679143,1,2005
1,2000,3.86674277091756,3.86674277091756,1,2005
2,2000,3.78627388855615,3.78627388855615,1,2005
3,2000,1.44753557012531,1.44753557012531,1,2005
4,2000,2.21212186015762,2.21212186015762,1,2005
1,2001,3.03758424935339,3.03758424935339,1,2005
2,2001,-0.0322130119159261,-0.032213011915927,1,2005
3,2001,0.783854306386256,0.783854306386257,1,2005
4,2001,-0.613511576617764,-0.613511576617764,1,2005
1,2002,1.88459815755868,1.88459815755868,1,2005
2,2002,1.51818637730896,1.51818637730896,1,2005
3,2002,1.22145178178157,1.22145178178157,1,2005
4,2002,0.0385163064533514,0.0385163064533518,1,2005
1,2003,0.049763375758727,0.0497633757587271,1,2005
2,2003,-0.640239752528581,-0.640239752528582,1,2005
3,2003,2.26144607063163,2.26144607063163,1,2005
4,2003,1.71356265213307,1.71356265213307,1,2005
1,2004,2.95925320794399,2.95925320794399,1,2005
2,2004,1.89901692412835,1.89901692412835,1,2005
3,2004,0.983808670774189,0.98380867077419,1,2005
4,2004,0.619556677607136,0.619556677607137,1,2005
1,2005,1.86629909421662,1.95079069484273,1,2005
2,2005,2.44637669534681,2.48692367102041,1,2005
3,2005,2.6903385951743,2.61011118199049,1,2005
4,2005,2.89155340506161,2.59204459112612,1,2005
1,2006,,2.16251632011644,1,2005
2,2006,,1.90479935751063,1,2005
3,2006,,1.77594087620773,1,2005
4,2006,,1.73298804910676,1,2005
2,1991,0.541508556545842,0.541274212213081,2,2005
3,1991,0.27912463626989,0.279124636269889,2,2005
4,1991,3.85583135018199,3.85583135018199,2,2005
1,1992,4.8664327605936,4.8664327605936,2,2005
2,1992,-2.40252242113969,-2.40252242113969,2,2005
3,1992,-0.606628903219808,-0.606628903219808,2,2005
4,1992,-1.11833291344036,-1.11833291344036,2,2005
1,1993,-3.0108678211238,-3.0108678211238,2,2005
2,1993,0.697203086368048,0.697203086368047,2,2005
3,1993,1.84815559577822,1.84815559577822,2,2005
4,1993,1.18887553142994,1.18887553142994,2,2005
1,1994,3.44656698253387,3.44656698253387,2,2005
2,1994,2.94272226448968,2.94272226448968,2,2005
3,1994,3.21704230292432,3.21704230292432,2,2005
4,1994,3.14708100547239,3.14708100547239,2,2005
1,1995,2.65837908815787,2.65837908815787,2,2005
2,1995,2.71104510309643,2.71104510309643,2,2005
3,1995,1.06438818806187,1.06438818806187,2,2005
4,1995,0.607625003606338,0.607625003606338,2,2005
1,1996,0.624449994319321,0.624449994319321,2,2005
2,1996,3.15347690048162,3.15347690048162,2,2005
3,1996,1.98783463004952,1.98783463004952,2,2005
4,1996,0.829850455559078,0.829850455559079,2,2005
1,1997,1.69100020617468,1.69100020617468,2,2005
2,1997,5.22819830623735,5.22819830623735,2,2005
3,1997,2.83472551689219,2.83472551689219,2,2005
4,1997,4.15151990780855,4.15151990780855,2,2005
1,1998,3.18910686336713,3.18910686336713,2,2005
2,1998,1.46432207368554,1.46432207368554,2,2005
3,1998,2.1134815306413,2.1134815306413,2,2005
4,1998,0.526664321114834,0.526664321114835,2,2005
1,1999,3.59301614324132,3.59301614324132,2,2005
2,1999,2.41154618911648,2.41154618911648,2,2005
3,1999,5.02083712679906,5.02083712679906,2,2005
4,1999,4.86035527581958,4.86035527581958,2,2005
1,2000,4.13019295358603,4.13019295358603,2,2005
2,2000,3.58892495786929,3.58892495786929,2,2005
3,2000,1.77552623809774,1.77552623809774,2,2005
4,2000,2.69507493921932,2.69507493921932,2,2005
1,2001,2.77733462411243,2.77733462411243,2,2005
2,2001,0.358468558504921,0.358468558504922,2,2005
3,2001,0.74316268893555,0.74316268893555,2,2005
4,2001,-0.158317749618542,-0.158317749618542,2,2005
1,2002,1.42566686680083,1.42566686680083,2,2005
2,2002,1.56137800466665,1.56137800466665,2,2005
3,2002,1.64646368462364,1.64646368462364,2,2005
4,2002,0.209191517873775,0.209191517873776,2,2005
1,2003,0.178296437548298,0.178296437548298,2,2005
2,2003,-0.452055062732815,-0.452055062732814,2,2005
3,2003,2.08651895826584,2.08651895826584,2,2005
4,2003,1.89307016591618,1.89307016591618,2,2005
1,2004,2.64074004221071,2.64074004221071,2,2005
2,2004,1.65907440163384,1.65907440163384,2,2005
3,2004,1.12874963733787,1.12874963733787,2,2005
4,2004,0.602261658850067,0.602261658850068,2,2005
1,2005,2.00869283449305,2.00869283449305,2,2005
2,2005,1.74105765884581,1.79044967796262,2,2005
3,2005,2.10539880510025,2.08464924672422,2,2005
4,2005,2.4124998046836,2.30522916049748,2,2005
1,2006,,2.2917073867923,2,2005
2,2006,,1.79712003747061,2,2005
3,2006,,1.54982636280977,2,2005
4,2006,,1.46739513792282,2,2005
2,1991,0.509868914641557,0.509716751586689,3,2005
3,1991,0.398855550964082,0.398855550964082,3,2005
4,1991,4.25431127440576,4.25431127440576,3,2005
1,1992,5.46195820346251,5.46195820346251,3,2005
2,1992,-2.20728313459675,-2.20728313459675,3,2005
3,1992,-0.80269483519837,-0.80269483519837,3,2005
4,1992,-1.60708295050731,-1.60708295050731,3,2005
1,1993,-3.94847254439386,-3.94847254439386,3,2005
2,1993,0.231727142165461,0.231727142165461,3,2005
3,1993,1.7266100342876,1.7266100342876,3,2005
4,1993,1.54519049994866,1.54519049994866,3,2005
1,1994,4.23566811832123,4.23566811832123,3,2005
2,1994,3.34447873720758,3.34447873720758,3,2005
3,1994,3.48063540711912,3.48063540711912,3,2005
4,1994,3.25408150521374,3.25408150521374,3,2005
1,1995,2.61681509685756,2.61681509685756,3,2005
2,1995,2.69969406450097,2.69969406450097,3,2005
3,1995,1.06087956241394,1.06087956241394,3,2005
4,1995,0.602088097358533,0.602088097358533,3,2005
1,1996,0.541244235806726,0.541244235806725,3,2005
2,1996,3.2432653935083,3.2432653935083,3,2005
3,1996,1.95818060721968,1.95818060721968,3,2005
4,1996,0.841532904653697,0.841532904653697,3,2005
1,1997,1.67277807728781,1.67277807728781,3,2005
2,1997,5.23829869186094,5.23829869186094,3,2005
3,1997,2.80139060850269,2.80139060850269,3,2005
4,1997,4.18000970635974,4.18000970635974,3,2005
1,1998,3.11813705480351,3.11813705480351,3,2005
2,1998,1.50320573232057,1.50320573232057,3,2005
3,1998,2.13066321054067,2.13066321054067,3,2005
4,1998,0.547549995024023,0.547549995024024,3,2005
1,1999,3.36226417307473,3.36226417307473,3,2005
2,1999,2.56210725093757,2.56210725093757,3,2005
3,1999,5.19272186096027,5.19272186096027,3,2005
4,1999,4.89657043362257,4.89657043362257,3,2005
1,2000,4.01519178177199,4.01519178177199,3,2005
2,2000,3.67388521278502,3.67388521278502,3,2005
3,2000,1.6860133267288,1.6860133267288,3,2005
4,2000,2.48143661005358,2.48143661005358,3,2005
1,2001,2.73624248917166,2.73624248917166,3,2005
2,2001,0.349956294125686,0.349956294125686,3,2005
3,2001,0.700334656509338,0.700334656509338,3,2005
4,2001,-0.0216357115121801,-0.0216357115121798,3,2005
1,2002,1.02606609003115,1.02606609003115,3,2005
2,2002,1.61253385593603,1.61253385593603,3,2005
3,2002,1.57360220021714,1.57360220021714,3,2005
4,2002,0.352855517100226,0.352855517100226,3,2005
1,2003,0.0624920165577916,0.0624920165577917,3,2005
2,2003,-0.46163351353411,-0.461633513534108,3,2005
3,2003,2.32515305484051,2.32515305484051,3,2005
4,2003,1.86622075910565,1.86622075910565,3,2005
1,2004,2.57203281309089,2.57203281309089,3,2005
2,2004,1.83000898050296,1.83000898050296,3,2005
3,2004,1.04510855922899,1.04510855922899,3,2005
4,2004,0.720573288795445,0.720573288795446,3,2005
1,2005,1.50460027059351,1.50460027059351,3,2005
2,2005,1.17100512102082,1.17100512102082,3,2005
3,2005,2.1432634492923,2.24235110052394,3,2005
4,2005,2.50414464265459,2.30233162568381,3,2005
1,2006,,2.07844516753662,3,2005
2,2006,,1.85579892771054,3,2005
3,2006,,1.13296924108384,3,2005
4,2006,,0.892026012208277,3,2005
2,1991,0.472936295699041,0.472999326070902,4,2005
3,1991,0.248231853097015,0.248231853097015,4,2005
4,1991,3.8897978104617,3.8897978104617,4,2005
1,1992,4.90857609945596,4.90857609945596,4,2005
2,1992,-2.32958000905685,-2.32958000905685,4,2005
3,1992,-0.669839967683961,-0.669839967683961,4,2005
4,1992,-1.12894134611107,-1.12894134611107,4,2005
1,1993,-3.0057641213536,-3.0057641213536,4,2005
2,1993,0.674577159691947,0.674577159691947,4,2005
3,1993,1.74997477897223,1.74997477897223,4,2005
4,1993,1.22017253227869,1.22017253227869,4,2005
1,1994,3.43288683394709,3.43288683394709,4,2005
2,1994,2.88271984399262,2.88271984399262,4,2005
3,1994,3.25830290892175,3.25830290892175,4,2005
4,1994,3.23611547498819,3.23611547498819,4,2005
1,1995,2.74021940548166,2.74021940548166,4,2005
2,1995,2.72827593688654,2.72827593688654,4,2005
3,1995,1.29134419922841,1.29134419922841,4,2005
4,1995,0.474010013035198,0.474010013035199,4,2005
1,1996,0.720684842838005,0.720684842838004,4,2005
2,1996,3.21056328382627,3.21056328382627,4,2005
3,1996,2.04403616442896,2.04403616442896,4,2005
4,1996,0.76227040331902,0.762270403319021,4,2005
1,1997,1.77479488257273,1.77479488257273,4,2005
2,1997,5.19836558931284,5.19836558931284,4,2005
3,1997,2.905328664044,2.905328664044,4,2005
4,1997,4.31941408543739,4.31941408543739,4,2005
1,1998,2.77787952869073,2.77787952869073,4,2005
2,1998,1.73970427486156,1.73970427486156,4,2005
3,1998,2.32094803586962,2.32094803586962,4,2005
4,1998,0.599562461620317,0.599562461620319,4,2005
1,1999,3.47419845702752,3.47419845702752,4,2005
2,1999,2.62034180607147,2.62034180607147,4,2005
3,1999,5.2100938999716,5.2100938999716,4,2005
4,1999,4.92075993953272,4.92075993953272,4,2005
1,2000,4.41172684270519,4.41172684270519,4,2005
2,2000,3.41967799247924,3.41967799247924,4,2005
3,2000,1.85277834364226,1.85277834364226,4,2005
4,2000,2.67526577389057,2.67526577389057,4,2005
1,2001,2.97132269988358,2.97132269988358,4,2005
2,2001,0.589131742452564,0.589131742452564,4,2005
3,2001,0.833290284978827,0.833290284978827,4,2005
4,2001,0.0685328060066488,0.0685328060066489,4,2005
1,2002,1.19660929811711,1.19660929811711,4,2005
2,2002,1.57878843060455,1.57878843060455,4,2005
3,2002,1.5288107620854,1.5288107620854,4,2005
4,2002,0.377841453040961,0.377841453040962,4,2005
1,2003,0.272160153823786,0.272160153823786,4,2005
2,2003,-0.44425169767619,-0.444251697676189,4,2005
3,2003,2.26445364766514,2.26445364766514,4,2005
4,2003,1.78317000912611,1.78317000912611,4,2005
1,2004,2.83690645871355,2.83690645871355,4,2005
2,2004,1.75684111186687,1.75684111186687,4,2005
3,2004,1.14550270644633,1.14550270644633,4,2005
4,2004,0.764393995438021,0.764393995438018,4,2005
1,2005,1.30163345547497,1.30163345547498,4,2005
2,2005,1.60047991701739,1.60047991701739,4,2005
3,2005,2.55445183200291,2.55445183200291,4,2005
4,2005,-0.607417509153219,-0.589490624920989,4,2005
1,2006,,1.71795223636818,4,2005
2,2006,,2.50689775929922,4,2005
3,2006,,2.76679215674949,4,2005
4,2006,,2.73327241448917,4,2005
2,1991,0.472824995688858,0.472962681351779,1,2006
3,1991,0.248231839187985,0.248231839187985,1,2006
4,1991,3.88979776137965,3.88979776137965,1,2006
1,1992,4.90857613207749,4.90857613207749,1,2006
2,1992,-2.32957985206096,-2.32957985206096,1,2006
3,1992,-0.669840070936988,-0.669840070936989,1,2006
4,1992,-1.12894120603166,-1.12894120603166,1,2006
1,1993,-3.00576423971767,-3.00576423971767,1,2006
2,1993,0.674577310596902,0.674577310596902,1,2006
3,1993,1.74997454526191,1.74997454526191,1,2006
4,1993,1.22017254096978,1.22017254096978,1,2006
1,1994,3.43288694156636,3.43288694156636,1,2006
2,1994,2.88271991629148,2.88271991629148,1,2006
3,1994,3.25830273947281,3.25830273947281,1,2006
4,1994,3.23611567773709,3.23611567773709,1,2006
1,1995,2.74021929361845,2.74021929361845,1,2006
2,1995,2.78992571342016,2.78992571342016,1,2006
3,1995,1.26357514311268,1.26357514311268,1,2006
4,1995,0.47044148160289,0.470441481602891,1,2006
1,1996,0.462680235417201,0.4626802354172,1,2006
2,1996,3.25645880088747,3.25645880088747,1,2006
3,1996,2.01486376058964,2.01486376058964,1,2006
4,1996,0.776132910938677,0.776132910938677,1,2006
1,1997,1.68599219094026,1.68599219094026,1,2006
2,1997,5.19168190965609,5.19168190965609,1,2006
3,1997,2.86990585730837,2.86990585730837,1,2006
4,1997,4.31270278816551,4.31270278816551,1,2006
1,1998,2.55661147471518,2.55661147471518,1,2006
2,1998,1.73614391897308,1.73614391897308,1,2006
3,1998,2.27942061051223,2.27942061051223,1,2006
4,1998,0.609107989994985,0.609107989994986,1,2006
1,1999,3.59402348719797,3.59402348719797,1,2006
2,1999,2.66457816103955,2.66457816103955,1,2006
3,1999,5.22007789198553,5.22007789198553,1,2006
4,1999,5.00224732329964,5.00224732329964,1,2006
1,2000,4.67379057444781,4.67379057444781,1,2006
2,2000,3.50304194831674,3.50304194831674,1,2006
3,2000,1.82590828957776,1.82590828957776,1,2006
4,2000,2.67287957599611,2.67287957599611,1,2006
1,2001,2.99460386435011,2.99460386435011,1,2006
2,2001,0.585958420375344,0.585958420375344,1,2006
3,2001,0.773366063018055,0.773366063018055,1,2006
4,2001,0.0768756201272375,0.0768756201272371,1,2006
1,2002,1.20962650310661,1.20962650310661,1,2006
2,2002,1.61152665533955,1.61152665533955,1,2006
3,2002,1.49071106038685,1.49071106038685,1,2006
4,2002,0.404282385513,0.404282385513,1,2006
1,2003,0.297729439107465,0.297729439107464,1,2006
2,2003,-0.428033042157349,-0.428033042157349,1,2006
3,2003,2.218303298405,2.218303298405,1,2006
4,2003,1.79555585707345,1.79555585707345,1,2006
1,2004,2.82319770299755,2.82319770299755,1,2006
2,2004,1.80773830654322,1.80773830654322,1,2006
3,2004,1.0543108811129,1.0543108811129,1,2006
4,2004,0.821008500716114,0.821008500716115,1,2006
1,2005,1.3103293236534,1.3103293236534,1,2006
2,2005,1.66852741223982,1.66852741223982,1,2006
3,2005,2.61752747356161,2.61752747356161,1,2006
4,2005,1.24577709009654,1.24577709009654,1,2006
1,2006,1.98218076789798,2.06214299057754,1,2006
2,2006,2.12029479658809,2.15868678844532,1,2006
3,2006,2.27589104090141,2.19787836409457,1,2006
4,2006,2.52058133175913,2.24117799427222,1,2006
1,2007,,1.87888725487944,1,2006
2,2007,,1.66151281124377,1,2006
3,2007,,1.55282558942594,1,2006
4,2007,,1.51659651548666,1,2006
2,1991,0.473195570985565,0.472908841347678,2,2006
3,1991,0.248231965975522,0.248231965975519,2,2006
4,1991,3.88979773008391,3.88979773008391,2,2006
1,1992,4.90857610566926,4.90857610566926,2,2006
2,1992,-2.32958011265123,-2.32958011265123,2,2006
3,1992,-0.669839863343391,-0.669839863343391,2,2006
4,1992,-1.12894125987366,-1.12894125987366,2,2006
1,1993,-3.00576410121189,-3.00576410121189,2,2006
2,1993,0.674576941385308,0.674576941385308,2,2006
3,1993,1.74997499401071,1.74997499401071,2,2006
4,1993,1.2201724941117,1.2201724941117,2,2006
1,1994,3.43288680907552,3.43288680907552,2,2006
2,1994,2.88271970996792,2.88271970996792,2,2006
3,1994,3.25830301027974,3.25830301027974,2,2006
4,1994,3.23611551683578,3.23611551683578,2,2006
1,1995,2.74021932293944,2.74021932293944,2,2006
2,1995,2.70671436607426,2.70671436607426,2,2006
3,1995,1.4000773148058,1.4000773148058,2,2006
4,1995,0.750503955407633,0.750503955407633,2,2006
1,1996,0.220048187848665,0.220048187848666,2,2006
2,1996,3.28896403747385,3.28896403747385,2,2006
3,1996,1.94778192069567,1.94778192069567,2,2006
4,1996,0.723150453385801,0.723150453385801,2,2006
1,1997,2.36222628581906,2.36222628581906,2,2006
2,1997,4.33226284285322,4.33226284285322,2,2006
3,1997,2.88856092156318,2.88856092156318,2,2006
4,1997,4.02844257812505,4.02844257812505,2,2006
1,1998,2.81637694379893,2.81637694379893,2,2006
2,1998,1.566801846333,1.566801846333,2,2006
3,1998,2.3274624758262,2.3274624758262,2,2006
4,1998,0.69133027544408,0.69133027544408,2,2006
1,1999,3.65327859447917,3.65327859447917,2,2006
2,1999,2.66737521047629,2.66737521047629,2,2006
3,1999,5.23166824025361,5.23166824025361,2,2006
4,1999,4.88811111706007,4.88811111706007,2,2006
1,2000,4.79815883544805,4.79815883544805,2,2006
2,2000,3.74591456687419,3.74591456687419,2,2006
3,2000,1.81931027169466,1.81931027169466,2,2006
4,2000,2.87566939077837,2.87566939077837,2,2006
1,2001,3.3193900089572,3.3193900089572,2,2006
2,2001,0.39573000896036,0.39573000896036,2,2006
3,2001,0.389486214507162,0.389486214507162,2,2006
4,2001,0.163880620169321,0.163880620169321,2,2006
1,2002,1.35191483539951,1.35191483539951,2,2006
2,2002,1.63759106591503,1.63759106591503,2,2006
3,2002,1.57334101710527,1.57334101710527,2,2006
4,2002,0.173351640997854,0.173351640997854,2,2006
1,2003,0.577269440795059,0.577269440795059,2,2006
2,2003,-0.274326260847324,-0.274326260847324,2,2006
3,2003,2.04817005150921,2.04817005150921,2,2006
4,2003,1.7947534804732,1.7947534804732,2,2006
1,2004,3.12009718920208,3.12009718920208,2,2006
2,2004,1.66307163471104,1.66307163471104,2,2006
3,2004,1.00703682804604,1.00703682804604,2,2006
4,2004,0.541635302135957,0.541635302135957,2,2006
1,2005,1.42747897290487,1.42747897290487,2,2006
2,2005,1.62728145759283,1.62728145759283,2,2006
3,2005,2.64159974737459,2.64159974737459,2,2006
4,2005,1.15674651996744,1.15674651996744,2,2006
1,2006,2.37170284882551,2.37170284882551,2,2006
2,2006,2.24982495166839,2.32446158291918,2,2006
3,2006,2.2904106977003,2.26840957983347,2,2006
4,2006,2.40535975960959,2.2245594356316,2,2006
1,2007,,2.06336523494293,2,2006
2,2007,,1.57190303131069,2,2006
3,2007,,1.32617192949457,2,2006
4,2007,,1.24426156222253,2,2006
2,1991,0.473203080626662,0.472843196032632,3,2006
3,1991,0.248231736612837,0.248231736612836,3,2006
4,1991,3.88979786939752,3.88979786939752,3,2006
1,1992,4.90857610632414,4.90857610632414,3,2006
2,1992,-2.32957997679664,-2.32957997679664,3,2006
3,1992,-0.669840020873169,-0.669840020873169,3,2006
4,1992,-1.12894121997055,-1.12894121997055,3,2006
1,1993,-3.00576420123838,-3.00576420123838,3,2006
2,1993,0.674577165475188,0.674577165475188,3,2006
3,1993,1.7499747201825,1.7499747201825,3,2006
4,1993,1.22017262521048,1.22017262521048,3,2006
1,1994,3.43288683889891,3.43288683889891,3,2006
2,1994,2.88271983759207,2.88271983759207,3,2006
3,1994,3.2583029855827,3.2583029855827,3,2006
4,1994,3.23611545494098,3.23611545494098,3,2006
1,1995,2.74021929118449,2.74021929118449,3,2006
2,1995,2.58256403611274,2.58256403611274,3,2006
3,1995,1.47093449062998,1.47093449062998,3,2006
4,1995,0.906579985762557,0.906579985762557,3,2006
1,1996,0.0310015553577572,0.0310015553577573,3,2006
2,1996,3.32188690482629,3.32188690482629,3,2006
3,1996,1.94842119185874,1.94842119185874,3,2006
4,1996,0.869746546089557,0.869746546089556,3,2006
1,1997,2.2648689651098,2.2648689651098,3,2006
2,1997,4.3489085735493,4.3489085735493,3,2006
3,1997,2.85571151985009,2.85571151985009,3,2006
4,1997,4.04044355034765,4.04044355034765,3,2006
1,1998,2.76251307662991,2.76251307662991,3,2006
2,1998,1.57594754667567,1.57594754667567,3,2006
3,1998,2.39427533742969,2.39427533742969,3,2006
4,1998,0.83010353367774,0.83010353367774,3,2006
1,1999,3.49647251215484,3.49647251215484,3,2006
2,1999,2.74199405075839,2.74199405075839,3,2006
3,1999,5.11351690845443,5.11351690845443,3,2006
4,1999,4.90464151148293,4.90464151148293,3,2006
1,2000,4.69799991699675,4.69799991699675,3,2006
2,2000,3.84924576937644,3.84924576937644,3,2006
3,2000,1.91686346711899,1.91686346711899,3,2006
4,2000,2.84085259748339,2.84085259748339,3,2006
1,2001,3.20032882297914,3.20032882297914,3,2006
2,2001,0.508107341960806,0.508107341960806,3,2006
3,2001,0.259891977681437,0.259891977681437,3,2006
4,2001,0.326514719270965,0.326514719270965,3,2006
1,2002,1.14262045074665,1.14262045074665,3,2006
2,2002,1.74855893947652,1.74855893947652,3,2006
3,2002,1.65862051872139,1.65862051872139,3,2006
4,2002,0.146665036632143,0.146665036632143,3,2006
1,2003,0.384794434780456,0.384794434780456,3,2006
2,2003,-0.170891764364733,-0.170891764364733,3,2006
3,2003,2.06677048510504,2.06677048510504,3,2006
4,2003,1.89042639890633,1.89042639890633,3,2006
1,2004,3.05095544278109,3.05095544278109,3,2006
2,2004,1.71415934563037,1.71415934563037,3,2006
3,2004,0.917160455562005,0.917160455562005,3,2006
4,2004,0.582884460355594,0.582884460355593,3,2006
1,2005,1.48915908821676,1.48915908821676,3,2006
2,2005,1.68825125661056,1.68825125661056,3,2006
3,2005,2.48244376567803,2.48244376567803,3,2006
4,2005,1.12022702173018,1.12022702173018,3,2006
1,2006,2.52638186666592,2.52638186666592,3,2006
2,2006,3.59448506164404,3.59448506164404,3,2006
3,2006,1.50041831891737,1.44256568282554,3,2006
4,2006,1.3092429855703,1.42585269693596,3,2006
1,2007,,1.9714726331917,3,2006
2,2007,,2.07597372345599,3,2006
3,2007,,1.86649238534741,3,2006
4,2007,,1.79666527264455,3,2006
2,1991,0.47297688901628,0.472613603718574,4,2006
3,1991,0.248231985425919,0.248231985425916,4,2006
4,1991,3.88979770750419,3.88979770750419,4,2006
1,1992,4.90857630381707,4.90857630381707,4,2006
2,1992,-2.32958020862601,-2.32958020862601,4,2006
3,1992,-0.669839937294937,-0.669839937294936,4,2006
4,1992,-1.12894122166923,-1.12894122166923,4,2006
1,1993,-3.00576405822554,-3.00576405822554,4,2006
2,1993,0.674577047987124,0.674577047987124,4,2006
3,1993,1.74997475719323,1.74997475719323,4,2006
4,1993,1.22017256203744,1.22017256203744,4,2006
1,1994,3.43288681680074,3.43288681680074,4,2006
2,1994,2.88271978927441,2.88271978927441,4,2006
3,1994,3.25830288708053,3.25830288708053,4,2006
4,1994,3.23611557641754,3.23611557641754,4,2006
1,1995,2.74021937618287,2.74021937618287,4,2006
2,1995,2.52261835980097,2.52261835980097,4,2006
3,1995,1.49332617602751,1.49332617602751,4,2006
4,1995,0.931767663482685,0.931767663482685,4,2006
1,1996,0.114869366849681,0.114869366849678,4,2006
2,1996,3.12764013047828,3.12764013047828,4,2006
3,1996,2.01875451373501,2.01875451373501,4,2006
4,1996,0.870305210092748,0.870305210092748,4,2006
1,1997,2.09637072407465,2.09637072407465,4,2006
2,1997,4.50591317801796,4.50591317801796,4,2006
3,1997,2.9077704599473,2.9077704599473,4,2006
4,1997,4.01336388479348,4.01336388479348,4,2006
1,1998,2.74035798133943,2.74035798133943,4,2006
2,1998,1.50845960321344,1.50845960321344,4,2006
3,1998,2.41843216977911,2.41843216977911,4,2006
4,1998,0.945344222907217,0.945344222907217,4,2006
1,1999,3.56766189105429,3.56766189105429,4,2006
2,1999,2.63666167313834,2.63666167313834,4,2006
3,1999,5.09308703547917,5.09308703547917,4,2006
4,1999,5.03455031765485,5.03455031765485,4,2006
1,2000,4.78305787955504,4.78305787955504,4,2006
2,2000,3.60634927213199,3.60634927213199,4,2006
3,2000,1.89778482881855,1.89778482881855,4,2006
4,2000,2.87901111916593,2.87901111916593,4,2006
1,2001,3.10520849943263,3.10520849943263,4,2006
2,2001,0.472878583748315,0.472878583748315,4,2006
3,2001,0.203719490393439,0.203719490393439,4,2006
4,2001,0.400009857900763,0.400009857900763,4,2006
1,2002,0.901421155089754,0.901421155089754,4,2006
2,2002,1.62884279286328,1.62884279286328,4,2006
3,2002,1.62021258775467,1.62021258775467,4,2006
4,2002,0.150390794070354,0.150390794070354,4,2006
1,2003,0.589777113371159,0.589777113371159,4,2006
2,2003,-0.457709446914368,-0.457709446914368,4,2006
3,2003,2.19209358757595,2.19209358757595,4,2006
4,2003,1.85268032473349,1.85268032473349,4,2006
1,2004,2.97292285802229,2.97292285802229,4,2006
2,2004,1.29431236811193,1.29431236811193,4,2006
3,2004,0.920359373914526,0.920359373914525,4,2006
4,2004,0.845168208506242,0.845168208506242,4,2006
1,2005,1.62976186096111,1.62976186096111,4,2006
2,2005,1.47348470344426,1.47348470344426,4,2006
3,2005,2.57347619846042,2.57347619846042,4,2006
4,2005,1.44771932892329,1.44771932892329,4,2006
1,2006,3.36020697257504,3.36020697257504,4,2006
2,2006,4.02996310545538,4.02996310545538,4,2006
3,2006,2.08971247466958,2.08971247466958,4,2006
4,2006,0.947579341338806,0.953188121844807,4,2006
1,2007,,1.78916535528273,4,2006
2,2007,,2.22119636627008,4,2006
3,2007,,2.40030487666415,4,2006
4,2007,,2.31099935848271,4,2006
2,1991,0.473050852010666,0.47321093597392,1,2007
3,1991,0.248231853509284,0.248231853509283,1,2007
4,1991,3.88979781074119,3.88979781074119,1,2007
1,1992,4.90857610083129,4.90857610083129,1,2007
2,1992,-2.3295800113778,-2.3295800113778,1,2007
3,1992,-0.669839967387031,-0.669839967387031,1,2007
4,1992,-1.12894134415841,-1.12894134415841,1,2007
1,1993,-3.00576412228848,-3.00576412228848,1,2007
2,1993,0.674577159232316,0.674577159232315,1,2007
3,1993,1.74997477779124,1.74997477779124,1,2007
4,1993,1.22017253426245,1.22017253426245,1,2007
1,1994,3.43288683359684,3.43288683359684,1,2007
2,1994,2.88271984280215,2.88271984280215,1,2007
3,1994,3.25830290877462,3.25830290877462,1,2007
4,1994,3.23611547722147,3.23611547722147,1,2007
1,1995,2.74021940435196,2.74021940435196,1,2007
2,1995,2.62303409558338,2.62303409558338,1,2007
3,1995,1.35143925481125,1.35143925481125,1,2007
4,1995,1.01314743864627,1.01314743864627,1,2007
1,1996,0.0788587317985148,0.0788587317985149,1,2007
2,1996,3.21524584126724,3.21524584126724,1,2007
3,1996,1.93698448134869,1.93698448134869,1,2007
4,1996,0.90426106671615,0.90426106671615,1,2007
1,1997,2.01119216700891,2.01119216700891,1,2007
2,1997,4.58555091847521,4.58555091847521,1,2007
3,1997,2.92574260982461,2.92574260982461,1,2007
4,1997,4.03625404942358,4.03625404942358,1,2007
1,1998,2.59012982250899,2.59012982250899,1,2007
2,1998,1.6567564017314,1.6567564017314,1,2007
3,1998,2.45251635692938,2.45251635692938,1,2007
4,1998,0.899450701489536,0.899450701489536,1,2007
1,1999,3.51347121777741,3.51347121777741,1,2007
2,1999,2.70671689658466,2.70671689658466,1,2007
3,1999,5.03611310312329,5.03611310312329,1,2007
4,1999,4.96815238469512,4.96815238469512,1,2007
1,2000,4.84247662209796,4.84247662209796,1,2007
2,2000,3.62772448456297,3.62772448456297,1,2007
3,2000,1.87414267620254,1.87414267620254,1,2007
4,2000,2.8777662999429,2.8777662999429,1,2007
1,2001,3.10028072304458,3.10028072304458,1,2007
2,2001,0.46763915978929,0.46763915978929,1,2007
3,2001,0.240454050845784,0.240454050845784,1,2007
4,2001,0.429888654807531,0.429888654807531,1,2007
1,2002,0.79584366113663,0.79584366113663,1,2007
2,2002,1.7011918749348,1.7011918749348,1,2007
3,2002,1.6419534119561,1.6419534119561,1,2007
4,2002,0.175814476696101,0.175814476696101,1,2007
1,2003,0.457047088728202,0.457047088728202,1,2007
2,2003,-0.377571706942992,-0.377571706942992,1,2007
3,2003,2.21134818611028,2.21134818611028,1,2007
4,2003,1.88728780546157,1.88728780546157,1,2007
1,2004,2.91670646727356,2.91670646727356,1,2007
2,2004,1.35546188067712,1.35546188067712,1,2007
3,2004,0.991052564690431,0.991052564690431,1,2007
4,2004,0.90138845778478,0.90138845778478,1,2007
1,2005,1.6399570825065,1.6399570825065,1,2007
2,2005,1.49603716369595,1.49603716369595,1,2007
3,2005,2.57422161909338,2.57422161909338,1,2007
4,2005,1.38302183555001,1.38302183555001,1,2007
1,2006,3.34008589313244,3.34008589313244,1,2007
2,2006,3.91728719610516,3.91728719610516,1,2007
3,2006,2.281311316781,2.281311316781,1,2007
4,2006,3.5905790431354,3.5905790431354,1,2007
1,2007,1.50197314320328,1.45768144549849,1,2007
2,2007,1.15921679173973,1.13910336119466,1,2007
3,2007,1.48934063616885,1.53258644125441,1,2007
4,2007,1.89000888171778,2.04130700033834,1,2007
1,2008,,2.23709849526281,1,2007
2,2008,,2.35457339221749,1,2007
3,2008,,2.41331084069483,1,2007
4,2008,,2.43288999018728,1,2007
2,1991,0.472987919565071,0.472542367761556,2,2007
3,1991,0.248231853796344,0.248231853796344,2,2007
4,1991,3.88979781079915,3.88979781079915,2,2007
1,1992,4.90857609692299,4.90857609692299,2,2007
2,1992,-2.32958000732851,-2.32958000732851,2,2007
3,1992,-0.669839968852493,-0.669839968852493,2,2007
4,1992,-1.12894134416554,-1.12894134416554,2,2007
1,1993,-3.00576412195293,-3.00576412195293,2,2007
2,1993,0.674577157633105,0.674577157633105,2,2007
3,1993,1.7499747799856,1.7499747799856,2,2007
4,1993,1.22017253115438,1.22017253115438,2,2007
1,1994,3.43288683480183,3.43288683480183,2,2007
2,1994,2.88271984513331,2.88271984513331,2,2007
3,1994,3.25830290835503,3.25830290835503,2,2007
4,1994,3.23611547553799,3.23611547553799,2,2007
1,1995,2.74021940497011,2.74021940497011,2,2007
2,1995,2.58612498222712,2.58612498222712,2,2007
3,1995,1.5158091695276,1.5158091695276,2,2007
4,1995,1.18126558053309,1.18126558053309,2,2007
1,1996,-0.10590269013836,-0.10590269013836,2,2007
2,1996,3.14555882584004,3.14555882584004,2,2007
3,1996,2.08989306567215,2.08989306567215,2,2007
4,1996,0.870608346352397,0.870608346352397,2,2007
1,1997,1.89533945025755,1.89533945025755,2,2007
2,1997,4.80992912924971,4.80992912924971,2,2007
3,1997,2.83328424015106,2.83328424015106,2,2007
4,1997,4.03828447234773,4.03828447234773,2,2007
1,1998,2.52682202747492,2.52682202747492,2,2007
2,1998,1.75102962155653,1.75102962155653,2,2007
3,1998,2.44126939416645,2.44126939416645,2,2007
4,1998,0.938849665166019,0.938849665166019,2,2007
1,1999,3.52098193623835,3.52098193623835,2,2007
2,1999,2.80449772354203,2.80449772354203,2,2007
3,1999,4.99773784120898,4.99773784120898,2,2007
4,1999,4.93688419420377,4.93688419420377,2,2007
1,2000,4.78355100577501,4.78355100577501,2,2007
2,2000,3.67696661320973,3.67696661320973,2,2007
3,2000,1.82707056133518,1.82707056133518,2,2007
4,2000,2.75762404032025,2.75762404032025,2,2007
1,2001,3.17446120136513,3.17446120136513,2,2007
2,2001,0.386080755337658,0.386080755337659,2,2007
3,2001,0.365774094225024,0.365774094225024,2,2007
4,2001,0.539462754282073,0.539462754282072,2,2007
1,2002,0.770882662823924,0.770882662823924,2,2007
2,2002,1.65402253775999,1.65402253775999,2,2007
3,2002,1.5609418745903,1.5609418745903,2,2007
4,2002,0.168137332053542,0.168137332053542,2,2007
1,2003,0.584647485848255,0.584647485848255,2,2007
2,2003,-0.35739396546859,-0.357393965468589,2,2007
3,2003,2.09628787554732,2.09628787554732,2,2007
4,2003,1.99218797406,1.99218797406,2,2007
1,2004,2.99264262856809,2.99264262856809,2,2007
2,2004,1.31570902247296,1.31570902247296,2,2007
3,2004,1.16045867626071,1.16045867626071,2,2007
4,2004,0.992225395017975,0.992225395017976,2,2007
1,2005,1.8090405852162,1.8090405852162,2,2007
2,2005,1.736531395792,1.736531395792,2,2007
3,2005,2.5491200696248,2.5491200696248,2,2007
4,2005,1.58801031953841,1.58801031953841,2,2007
1,2006,3.58281910129272,3.58281910129272,2,2007
2,2006,3.79394589710509,3.79394589710509,2,2007
3,2006,2.4029770505611,2.4029770505611,2,2007
4,2006,3.50756736019355,3.50756736019355,2,2007
1,2007,2.43408060520518,2.43408060520518,2,2007
2,2007,1.78563664581963,1.74522860674033,2,2007
3,2007,1.8477534635611,1.84688521257779,2,2007
4,2007,2.09241475335568,2.21576898492612,2,2007
1,2008,,2.50093623504989,2,2007
2,2008,,2.4623785925753,2,2007
3,2008,,2.44309977133801,2,2007
4,2008,,2.43667349759224,2,2007
2,1991,0.473057861377834,0.472615275531913,3,2007
3,1991,0.248231853796344,0.248231853796346,3,2007
4,1991,3.88979781079915,3.88979781079915,3,2007
1,1992,4.90857609692299,4.90857609692299,3,2007
2,1992,-2.32958000732851,-2.32958000732851,3,2007
3,1992,-0.669839968852492,-0.669839968852493,3,2007
4,1992,-1.12894134416554,-1.12894134416554,3,2007
1,1993,-3.00576412195293,-3.00576412195293,3,2007
2,1993,0.674577157633106,0.674577157633106,3,2007
3,1993,1.7499747799856,1.7499747799856,3,2007
4,1993,1.22017253115438,1.22017253115438,3,2007
1,1994,3.43288683480183,3.43288683480183,3,2007
2,1994,2.88271984513331,2.88271984513331,3,2007
3,1994,3.25830290835503,3.25830290835503,3,2007
4,1994,3.23611547553799,3.23611547553799,3,2007
1,1995,2.74021940497011,2.74021940497011,3,2007
2,1995,2.51072345915697,2.51072345915697,3,2007
3,1995,1.49554537485648,1.49554537485648,3,2007
4,1995,1.02911986354242,1.02911986354242,3,2007
1,1996,0.0791875919796462,0.0791875919796463,3,2007
2,1996,2.97829453355947,2.97829453355947,3,2007
3,1996,2.16353278613202,2.16353278613202,3,2007
4,1996,0.99967716357785,0.99967716357785,3,2007
1,1997,1.70590429606901,1.70590429606901,3,2007
2,1997,4.9906883181607,4.9906883181607,3,2007
3,1997,2.7420244454756,2.7420244454756,3,2007
4,1997,4.05915681156439,4.05915681156439,3,2007
1,1998,2.5363294482015,2.5363294482015,3,2007
2,1998,1.79962050987919,1.79962050987919,3,2007
3,1998,2.22633367767606,2.22633367767606,3,2007
4,1998,1.08431148007044,1.08431148007044,3,2007
1,1999,3.65488908082363,3.65488908082363,3,2007
2,1999,2.69320158769346,2.69320158769346,3,2007
3,1999,4.95045663639753,4.95045663639753,3,2007
4,1999,4.85405077594951,4.85405077594951,3,2007
1,2000,4.65615498371892,4.65615498371892,3,2007
2,2000,3.90852222734808,3.90852222734808,3,2007
3,2000,1.9181914810277,1.9181914810277,3,2007
4,2000,2.74322822733144,2.74322822733144,3,2007
1,2001,3.17587539888267,3.17587539888267,3,2007
2,2001,0.344488006710497,0.344488006710496,3,2007
3,2001,0.321868793246938,0.321868793246938,3,2007
4,2001,0.43279493794146,0.432794937941461,3,2007
1,2002,0.866242028593156,0.866242028593156,3,2007
2,2002,1.82399430538034,1.82399430538034,3,2007
3,2002,1.44811705020205,1.44811705020205,3,2007
4,2002,-0.0374002674032643,-0.0374002674032647,3,2007
1,2003,0.550855748519275,0.550855748519274,3,2007
2,2003,-0.183213484999044,-0.183213484999045,3,2007
3,2003,2.20418525072896,2.20418525072896,3,2007
4,2003,1.83960505485046,1.83960505485046,3,2007
1,2004,2.6314542554539,2.6314542554539,3,2007
2,2004,1.5821962351529,1.5821962351529,3,2007
3,2004,1.36381930758498,1.36381930758498,3,2007
4,2004,0.940043684471071,0.94004368447107,3,2007
1,2005,1.30435274777789,1.30435274777789,3,2007
2,2005,2.11944937914363,2.11944937914363,3,2007
3,2005,2.66192493842548,2.66192493842548,3,2007
4,2005,1.44672165498265,1.44672165498265,3,2007
1,2006,3.57584924867835,3.57584924867835,3,2007
2,2006,3.98696595102985,3.98696595102985,3,2007
3,2006,2.2931759977123,2.2931759977123,3,2007
4,2006,3.54201104964755,3.54201104964755,3,2007
1,2007,2.85699624824367,2.85699624824367,3,2007
2,2007,1.40449548281325,1.40449548281325,3,2007
3,2007,2.68565786879225,2.77920812054293,3,2007
4,2007,2.98265218991667,2.79209963569701,3,2007
1,2008,,2.37402321937635,3,2007
2,2008,,2.21046814371905,3,2007
3,2008,,1.82139623587274,3,2007
4,2008,,1.69170559992397,3,2007
2,1991,0.472978461145369,0.473056833655415,4,2007
3,1991,0.248231853796345,0.248231853796343,4,2007
4,1991,3.88979781079915,3.88979781079915,4,2007
1,1992,4.90857609692299,4.90857609692299,4,2007
2,1992,-2.32958000732851,-2.32958000732851,4,2007
3,1992,-0.669839968852493,-0.669839968852493,4,2007
4,1992,-1.12894134416554,-1.12894134416554,4,2007
1,1993,-3.00576412195293,-3.00576412195293,4,2007
2,1993,0.674577157633105,0.674577157633104,4,2007
3,1993,1.7499747799856,1.7499747799856,4,2007
4,1993,1.22017253115438,1.22017253115438,4,2007
1,1994,3.43288683480183,3.43288683480183,4,2007
2,1994,2.88271984513331,2.88271984513331,4,2007
3,1994,3.25830290835503,3.25830290835503,4,2007
4,1994,3.23611547553799,3.23611547553799,4,2007
1,1995,2.74021940497011,2.74021940497011,4,2007
2,1995,2.29227693141039,2.29227693141039,4,2007
3,1995,1.27252218204337,1.27252218204337,4,2007
4,1995,1.09427856411299,1.09427856411299,4,2007
1,1996,0.258154032341285,0.258154032341284,4,2007
2,1996,2.92632302418461,2.92632302418461,4,2007
3,1996,2.16929929391183,2.16929929391183,4,2007
4,1996,1.07589125865739,1.07589125865739,4,2007
1,1997,1.66718333630587,1.66718333630587,4,2007
2,1997,5.07157841044368,5.07157841044368,4,2007
3,1997,2.64822015609285,2.64822015609285,4,2007
4,1997,3.88947984665773,3.88947984665773,4,2007
1,1998,2.78410857679556,2.78410857679556,4,2007
2,1998,1.71267166294851,1.71267166294851,4,2007
3,1998,2.21882764914818,2.21882764914818,4,2007
4,1998,0.903969749674616,0.903969749674616,4,2007
1,1999,3.83367901610394,3.83367901610394,4,2007
2,1999,2.57479910467524,2.57479910467524,4,2007
3,1999,5.11272194881498,5.11272194881498,4,2007
4,1999,4.76453002588282,4.76453002588282,4,2007
1,2000,4.56388247641577,4.56388247641577,4,2007
2,2000,4.02542952581659,4.02542952581659,4,2007
3,2000,1.88640069144208,1.88640069144208,4,2007
4,2000,2.81079242293736,2.81079242293736,4,2007
1,2001,3.23220254195293,3.23220254195293,4,2007
2,2001,0.253503608813044,0.253503608813043,4,2007
3,2001,0.255167471718609,0.255167471718609,4,2007
4,2001,0.426995254887474,0.426995254887474,4,2007
1,2002,0.978108605627792,0.978108605627792,4,2007
2,2002,1.7206806742752,1.7206806742752,4,2007
3,2002,1.53800242341475,1.53800242341475,4,2007
4,2002,0.0252114728376271,0.0252114728376269,4,2007
1,2003,0.419660687442969,0.419660687442969,4,2007
2,2003,-0.0709759950336176,-0.0709759950336178,4,2007
3,2003,2.13279077056125,2.13279077056125,4,2007
4,2003,2.17982033385733,2.17982033385733,4,2007
1,2004,2.39760990857079,2.39760990857079,4,2007
2,2004,1.56275422531009,1.56275422531009,4,2007
3,2004,1.26178211229433,1.26178211229433,4,2007
4,2004,1.06469980845259,1.06469980845259,4,2007
1,2005,1.23043785703527,1.23043785703527,4,2007
2,2005,2.30188482054126,2.30188482054126,4,2007
3,2005,2.475273912107,2.475273912107,4,2007
4,2005,1.61724826348875,1.61724826348875,4,2007
1,2006,3.60612244857639,3.60612244857639,4,2007
2,2006,3.93806689425906,3.93806689425906,4,2007
3,2006,2.29967920188319,2.29967920188319,4,2007
4,2006,3.32868834882787,3.32868834882787,4,2007
1,2007,3.15491870603757,3.15491870603757,4,2007
2,2007,1.24444698102402,1.24444698102402,4,2007
3,2007,2.88606542835221,2.88606542835221,4,2007
4,2007,0.972905459148076,0.984569137637475,4,2007
1,2008,,1.97318387196344,4,2007
2,2008,,2.41403998716958,4,2007
3,2008,,2.68587621198908,4,2007
4,2008,,2.77549828609625,4,2007
2,1991,0.472613887957777,0.472614825188339,1,2008
3,1991,0.248231853796343,0.248231853796343,1,2008
4,1991,3.88979781079915,3.88979781079915,1,2008
1,1992,4.90857609692299,4.90857609692299,1,2008
2,1992,-2.32958000732851,-2.32958000732851,1,2008
3,1992,-0.669839968852492,-0.669839968852493,1,2008
4,1992,-1.12894134416554,-1.12894134416554,1,2008
1,1993,-3.00576412195293,-3.00576412195293,1,2008
2,1993,0.674577157633105,0.674577157633105,1,2008
3,1993,1.7499747799856,1.7499747799856,1,2008
4,1993,1.22017253115438,1.22017253115438,1,2008
1,1994,3.43288683480183,3.43288683480183,1,2008
2,1994,2.88271984513331,2.88271984513331,1,2008
3,1994,3.25830290835503,3.25830290835503,1,2008
4,1994,3.23611547553799,3.23611547553799,1,2008
1,1995,2.74021940497011,2.74021940497011,1,2008
2,1995,2.25627860331998,2.25627860331998,1,2008
3,1995,1.2948177534239,1.2948177534239,1,2008
4,1995,1.14570054313627,1.14570054313627,1,2008
1,1996,0.2019711591158,0.201971159115799,1,2008
2,1996,2.96873316354627,2.96873316354627,1,2008
3,1996,2.15932042310278,2.15932042310278,1,2008
4,1996,1.06012484853093,1.06012484853093,1,2008
1,1997,1.66883852838977,1.66883852838977,1,2008
2,1997,5.01373203140243,5.01373203140243,1,2008
3,1997,2.64012716151243,2.64012716151243,1,2008
4,1997,3.92017482337257,3.92017482337257,1,2008
1,1998,2.77066117393965,2.77066117393965,1,2008
2,1998,1.7902357391975,1.7902357391975,1,2008
3,1998,2.18777603758968,2.18777603758968,1,2008
4,1998,0.838440871479529,0.838440871479529,1,2008
1,1999,3.91317621930163,3.91317621930163,1,2008
2,1999,2.51802018904461,2.51802018904461,1,2008
3,1999,5.09956918247951,5.09956918247951,1,2008
4,1999,4.79080000110868,4.79080000110868,1,2008
1,2000,4.56950195205079,4.56950195205079,1,2008
2,2000,4.04743379737742,4.04743379737742,1,2008
3,2000,1.82801368001295,1.82801368001295,1,2008
4,2000,2.86596952132221,2.86596952132221,1,2008
1,2001,3.18288268672862,3.18288268672862,1,2008
2,2001,0.292365276682683,0.292365276682682,1,2008
3,2001,0.33157575149918,0.33157575149918,1,2008
4,2001,0.323370085856656,0.323370085856656,1,2008
1,2002,1.10404500782908,1.10404500782908,1,2008
2,2002,1.73662069766261,1.73662069766261,1,2008
3,2002,1.49270141890288,1.49270141890288,1,2008
4,2002,0.0315029382028211,0.0315029382028211,1,2008
1,2003,0.388858951079052,0.388858951079052,1,2008
2,2003,-0.0783272937840739,-0.0783272937840748,1,2008
3,2003,2.16038485002528,2.16038485002528,1,2008
4,2003,2.22046500470647,2.22046500470647,1,2008
1,2004,2.44350542758347,2.44350542758347,1,2008
2,2004,1.73320856065635,1.73320856065635,1,2008
3,2004,1.33479348046737,1.33479348046737,1,2008
4,2004,1.13131111759723,1.13131111759723,1,2008
1,2005,1.32853056705888,1.32853056705888,1,2008
2,2005,2.36679027922229,2.36679027922229,1,2008
3,2005,2.54465752616211,2.54465752616211,1,2008
4,2005,1.7021059992542,1.7021059992542,1,2008
1,2006,3.53466090805648,3.53466090805648,1,2008
2,2006,3.92776893852851,3.92776893852851,1,2008
3,2006,2.24098272701225,2.24098272701225,1,2008
4,2006,3.12264374375373,3.12264374375373,1,2008
1,2007,3.19412611019112,3.19412611019112,1,2008
2,2007,1.09882775247476,1.09882775247476,1,2008
3,2007,3.03258536582636,3.03258536582636,1,2008
4,2007,1.53682611137846,1.53682611137846,1,2008
1,2008,1.27325268483562,1.33428068573817,1,2008
2,2008,1.61806977290372,1.64652229919008,1,2008
3,2008,2.27601804220479,2.21636275919105,1,2008
4,2008,2.52641077989832,2.31592442329304,1,2008
1,2009,,2.02921207062374,1,2008
2,2009,,1.85718465902216,1,2008
3,2009,,1.77117095322137,1,2008
4,2009,,1.74249971795445,1,2008
2,1991,0.472606912203818,0.472815053876767,2,2008
3,1991,0.248231853796345,0.248231853796345,2,2008
4,1991,3.88979781079915,3.88979781079915,2,2008
1,1992,4.90857609692299,4.90857609692299,2,2008
2,1992,-2.32958000732851,-2.32958000732851,2,2008
3,1992,-0.669839968852493,-0.669839968852492,2,2008
4,1992,-1.12894134416554,-1.12894134416554,2,2008
1,1993,-3.00576412195293,-3.00576412195293,2,2008
2,1993,0.674577157633105,0.674577157633106,2,2008
3,1993,1.7499747799856,1.7499747799856,2,2008
4,1993,1.22017253115438,1.22017253115438,2,2008
1,1994,3.43288683480183,3.43288683480183,2,2008
2,1994,2.88271984513331,2.88271984513331,2,2008
3,1994,3.25830290835503,3.25830290835503,2,2008
4,1994,3.23611547553799,3.23611547553799,2,2008
1,1995,2.74021940497011,2.74021940497011,2,2008
2,1995,4.06502222408331,4.06502222408331,2,2008
3,1995,1.88668930570874,1.88668930570874,2,2008
4,1995,2.09036734344261,2.09036734344261,2,2008
1,1996,-0.979847764051521,-0.979847764051522,2,2008
2,1996,2.94552019433247,2.94552019433247,2,2008
3,1996,2.09807829275261,2.09807829275261,2,2008
4,1996,1.26104425066307,1.26104425066307,2,2008
1,1997,1.59392400992586,1.59392400992586,2,2008
2,1997,4.89848175978382,4.89848175978382,2,2008
3,1997,2.70202618578375,2.70202618578375,2,2008
4,1997,3.96695916375955,3.96695916375955,2,2008
1,1998,2.77970777415733,2.77970777415733,2,2008
2,1998,1.77125831295841,1.77125831295841,2,2008
3,1998,2.10487253937608,2.10487253937608,2,2008
4,1998,0.81970474905977,0.819704749059769,2,2008
1,1999,3.73990687861188,3.73990687861188,2,2008
2,1999,2.37939237506126,2.37939237506126,2,2008
3,1999,5.05916981194867,5.05916981194867,2,2008
4,1999,4.89979500754412,4.89979500754412,2,2008
1,2000,4.60618737992098,4.60618737992098,2,2008
2,2000,3.9142948610039,3.9142948610039,2,2008
3,2000,1.94158595755565,1.94158595755565,2,2008
4,2000,3.19367716745442,3.19367716745442,2,2008
1,2001,2.94100055305013,2.94100055305013,2,2008
2,2001,0.269910131533658,0.269910131533657,2,2008
3,2001,0.241331456939387,0.241331456939387,2,2008
4,2001,0.445139316068266,0.445139316068266,2,2008
1,2002,1.09252905427677,1.09252905427677,2,2008
2,2002,1.75964290905137,1.75964290905137,2,2008
3,2002,1.34567642792933,1.34567642792933,2,2008
4,2002,0.302311646569797,0.302311646569797,2,2008
1,2003,0.327865103976488,0.327865103976488,2,2008
2,2003,-0.0789849312874285,-0.0789849312874294,2,2008
3,2003,2.05603016902032,2.05603016902032,2,2008
4,2003,2.41766535516095,2.41766535516095,2,2008
1,2004,2.28346141130338,2.28346141130338,2,2008
2,2004,1.67488395169759,1.67488395169759,2,2008
3,2004,1.37894850310971,1.37894850310971,2,2008
4,2004,1.43427178637794,1.43427178637794,2,2008
1,2005,1.19348563591462,1.19348563591462,2,2008
2,2005,2.45079599105891,2.45079599105891,2,2008
3,2005,2.54713650865321,2.54713650865321,2,2008
4,2005,1.97397162197368,1.97397162197368,2,2008
1,2006,3.308761903784,3.308761903784,2,2008
2,2006,4.01496638682344,4.01496638682344,2,2008
3,2006,2.31789163224359,2.31789163224359,2,2008
4,2006,3.36552237793655,3.36552237793655,2,2008
1,2007,3.16058540390567,3.16058540390567,2,2008
2,2007,1.49308736951683,1.49308736951683,2,2008
3,2007,2.66476618797091,2.66476618797091,2,2008
4,2007,1.25374675913799,1.25374675913799,2,2008
1,2008,3.222998120353,3.222998120353,2,2008
2,2008,0.345118627908383,0.181714065856105,2,2008
3,2008,0.260118418194384,0.277031180503374,2,2008
4,2008,0.575852829703015,1.03379542280049,2,2008
1,2009,,1.92227378959458,2,2008
2,2009,,2.25353160587757,2,2008
3,2009,,2.41916051401906,2,2008
4,2009,,2.47437015006622,2,2008
2,1991,0.47302018680289,0.473025992466832,3,2008
3,1991,0.248231853796346,0.248231853796344,3,2008
4,1991,3.88979781079915,3.88979781079915,3,2008
1,1992,4.90857609692299,4.90857609692299,3,2008
2,1992,-2.32958000732851,-2.32958000732851,3,2008
3,1992,-0.669839968852493,-0.669839968852494,3,2008
4,1992,-1.12894134416554,-1.12894134416554,3,2008
1,1993,-3.00576412195293,-3.00576412195293,3,2008
2,1993,0.674577157633105,0.674577157633104,3,2008
3,1993,1.7499747799856,1.7499747799856,3,2008
4,1993,1.22017253115438,1.22017253115438,3,2008
1,1994,3.43288683480183,3.43288683480183,3,2008
2,1994,2.88271984513331,2.88271984513331,3,2008
3,1994,3.25830290835503,3.25830290835503,3,2008
4,1994,3.23611547553799,3.23611547553799,3,2008
1,1995,2.74021940497011,2.74021940497011,3,2008
2,1995,2.27215293492566,2.27215293492566,3,2008
3,1995,1.32959219420465,1.32959219420465,3,2008
4,1995,1.50294952734369,1.50294952734369,3,2008
1,1996,0.0274139980991139,0.0274139980991133,3,2008
2,1996,3.02616012779891,3.02616012779891,3,2008
3,1996,2.12527477660553,2.12527477660553,3,2008
4,1996,1.30522630093994,1.30522630093994,3,2008
1,1997,1.46778420180345,1.46778420180345,3,2008
2,1997,4.98489510810014,4.98489510810014,3,2008
3,1997,2.73789664692798,2.73789664692798,3,2008
4,1997,4.00973872763588,4.00973872763588,3,2008
1,1998,2.7611411936405,2.7611411936405,3,2008
2,1998,1.6892887174512,1.6892887174512,3,2008
3,1998,2.20275699816701,2.20275699816701,3,2008
4,1998,0.654142904084566,0.654142904084564,3,2008
1,1999,3.80304517962717,3.80304517962717,3,2008
2,1999,2.50156564391764,2.50156564391764,3,2008
3,1999,5.01445738519339,5.01445738519339,3,2008
4,1999,4.74809120310553,4.74809120310553,3,2008
1,2000,4.76504744556261,4.76504744556261,3,2008
2,2000,3.95035411568128,3.95035411568128,3,2008
3,2000,1.94046986253869,1.94046986253869,3,2008
4,2000,2.94602758225362,2.94602758225362,3,2008
1,2001,3.0502395893713,3.0502395893713,3,2008
2,2001,0.289381934803147,0.289381934803147,3,2008
3,2001,0.292894562317891,0.292894562317891,3,2008
4,2001,0.508061837430018,0.508061837430018,3,2008
1,2002,0.954451974327064,0.954451974327064,3,2008
2,2002,1.9300635790412,1.9300635790412,3,2008
3,2002,1.39950127547763,1.39950127547763,3,2008
4,2002,0.314610083857358,0.314610083857358,3,2008
1,2003,0.0656103747016749,0.065610374701675,3,2008
2,2003,0.0882846908353725,0.0882846908353714,3,2008
3,2003,2.09257379723036,2.09257379723036,3,2008
4,2003,2.4190709314031,2.4190709314031,3,2008
1,2004,2.24202334406889,2.24202334406889,3,2008
2,2004,1.95265943516176,1.95265943516176,3,2008
3,2004,1.37425177316204,1.37425177316204,3,2008
4,2004,1.36327459760031,1.36327459760031,3,2008
1,2005,1.06381165876777,1.06381165876777,3,2008
2,2005,2.92875381703541,2.92875381703541,3,2008
3,2005,2.49927577403681,2.49927577403681,3,2008
4,2005,1.87310787462749,1.87310787462749,3,2008
1,2006,3.2789224725174,3.2789224725174,3,2008
2,2006,4.36845522040494,4.36845522040494,3,2008
3,2006,2.18476022182026,2.18476022182026,3,2008
4,2006,3.38174525120285,3.38174525120285,3,2008
1,2007,2.97922848782575,2.97922848782575,3,2008
2,2007,1.83953775554457,1.83953775554457,3,2008
3,2007,2.30586807907405,2.30586807907405,3,2008
4,2007,1.44283296428203,1.44283296428203,3,2008
1,2008,2.68012846637393,2.68012846637393,3,2008
2,2008,-0.784561275048442,-0.784561275048439,3,2008
3,2008,2.33515459638793,2.50757901347064,3,2008
4,2008,2.56610655398199,2.21552032193128,3,2008
1,2009,,1.35156370387132,3,2008
2,2009,,1.09785926262788,3,2008
3,2009,,0.477219150985137,3,2008
4,2009,,0.270339113770891,3,2008
2,1991,0.472679178042518,0.47261190760985,4,2008
3,1991,0.248231853796344,0.248231853796345,4,2008
4,1991,3.88979781079915,3.88979781079915,4,2008
1,1992,4.90857609692299,4.90857609692299,4,2008
2,1992,-2.32958000732851,-2.32958000732851,4,2008
3,1992,-0.669839968852493,-0.669839968852493,4,2008
4,1992,-1.12894134416554,-1.12894134416554,4,2008
1,1993,-3.00576412195293,-3.00576412195293,4,2008
2,1993,0.674577157633106,0.674577157633105,4,2008
3,1993,1.7499747799856,1.7499747799856,4,2008
4,1993,1.22017253115438,1.22017253115438,4,2008
1,1994,3.43288683480183,3.43288683480183,4,2008
2,1994,2.88271984513331,2.88271984513331,4,2008
3,1994,3.25830290835503,3.25830290835503,4,2008
4,1994,3.23611547553799,3.23611547553799,4,2008
1,1995,2.74021940497011,2.74021940497011,4,2008
2,1995,2.27760150129035,2.27760150129035,4,2008
3,1995,1.31171975146311,1.31171975146311,4,2008
4,1995,1.48314107418728,1.48314107418728,4,2008
1,1996,0.0115329457686331,0.0115329457686342,4,2008
2,1996,3.00730288344233,3.00730288344233,4,2008
3,1996,2.09061136528563,2.09061136528563,4,2008
4,1996,1.34085099173464,1.34085099173464,4,2008
1,1997,1.50960984533848,1.50960984533848,4,2008
2,1997,4.97715370155949,4.97715370155949,4,2008
3,1997,2.74873116162535,2.74873116162535,4,2008
4,1997,4.04113761678662,4.04113761678662,4,2008
1,1998,2.72914644556543,2.72914644556543,4,2008
2,1998,1.71399152749112,1.71399152749112,4,2008
3,1998,2.21971071990463,2.21971071990463,4,2008
4,1998,0.65548070337933,0.655480703379331,4,2008
1,1999,3.81557601115152,3.81557601115152,4,2008
2,1999,2.52706324251419,2.52706324251419,4,2008
3,1999,4.97048487250975,4.97048487250975,4,2008
4,1999,4.79304733825408,4.79304733825408,4,2008
1,2000,4.74769451814674,4.74769451814674,4,2008
2,2000,3.9236186014266,3.9236186014266,4,2008
3,2000,1.93274162689625,1.93274162689625,4,2008
4,2000,2.96287966501614,2.96287966501614,4,2008
1,2001,3.06049703899864,3.06049703899864,4,2008
2,2001,0.181067991857953,0.181067991857954,4,2008
3,2001,0.305398438519888,0.305398438519888,4,2008
4,2001,0.481413338214165,0.481413338214165,4,2008
1,2002,0.984272060314573,0.984272060314573,4,2008
2,2002,1.90611437664854,1.90611437664854,4,2008
3,2002,1.36769412770232,1.36769412770232,4,2008
4,2002,0.344024979467084,0.344024979467084,4,2008
1,2003,0.103239151012957,0.103239151012957,4,2008
2,2003,0.0875118318771187,0.0875118318771191,4,2008
3,2003,2.09796137104563,2.09796137104563,4,2008
4,2003,2.42574943095852,2.42574943095852,4,2008
1,2004,2.2829797544792,2.2829797544792,4,2008
2,2004,1.93857466618441,1.93857466618441,4,2008
3,2004,1.41031154360916,1.41031154360916,4,2008
4,2004,1.382378668579,1.382378668579,4,2008
1,2005,1.01251303806202,1.01251303806202,4,2008
2,2005,2.93168107943207,2.93168107943207,4,2008
3,2005,2.52769343291059,2.52769343291059,4,2008
4,2005,1.80680236375101,1.80680236375101,4,2008
1,2006,3.35890068033795,3.35890068033795,4,2008
2,2006,4.40728940002921,4.40728940002921,4,2008
3,2006,2.20305705755728,2.20305705755728,4,2008
4,2006,3.29706413861448,3.29706413861448,4,2008
1,2007,2.91107182635764,2.91107182635764,4,2008
2,2007,1.86143826795899,1.86143826795899,4,2008
3,2007,2.39125166319785,2.39125166319785,4,2008
4,2007,1.33772506427452,1.33772506427453,4,2008
1,2008,2.73077021547596,2.73077021547597,4,2008
2,2008,-0.698674434728697,-0.698674434728692,4,2008
3,2008,-0.812353714729852,-0.812353714729848,4,2008
4,2008,1.29016544908217,1.27730745656207,4,2008
1,2009,,0.152411474024195,4,2008
2,2009,,0.410265241378338,4,2008
3,2009,,0.507696631535343,4,2008
4,2009,,0.436258248759354,4,2008
2,1991,0.472793341826966,0.47285676982962,1,2009
3,1991,0.248231853796344,0.248231853796343,1,2009
4,1991,3.88979781079915,3.88979781079915,1,2009
1,1992,4.90857609692299,4.90857609692298,1,2009
2,1992,-2.32958000732851,-2.32958000732851,1,2009
3,1992,-0.669839968852493,-0.669839968852493,1,2009
4,1992,-1.12894134416554,-1.12894134416554,1,2009
1,1993,-3.00576412195293,-3.00576412195293,1,2009
2,1993,0.674577157633105,0.674577157633105,1,2009
3,1993,1.7499747799856,1.7499747799856,1,2009
4,1993,1.22017253115438,1.22017253115438,1,2009
1,1994,3.43288683480183,3.43288683480183,1,2009
2,1994,2.88271984513331,2.88271984513331,1,2009
3,1994,3.25830290835503,3.25830290835503,1,2009
4,1994,3.23611547553799,3.23611547553799,1,2009
1,1995,2.74021940497011,2.74021940497011,1,2009
2,1995,2.26548496860386,2.26548496860386,1,2009
3,1995,1.26911944123622,1.26911944123622,1,2009
4,1995,1.44333699267041,1.44333699267041,1,2009
1,1996,0.133098350168659,0.133098350168661,1,2009
2,1996,3.02983759139865,3.02983759139865,1,2009
3,1996,2.03693081368819,2.03693081368819,1,2009
4,1996,1.32803846534078,1.32803846534078,1,2009
1,1997,1.63659104267169,1.63659104267169,1,2009
2,1997,4.92977764816887,4.92977764816887,1,2009
3,1997,2.70639871160787,2.70639871160787,1,2009
4,1997,3.97297993658587,3.97297993658587,1,2009
1,1998,2.90398587072218,2.90398587072218,1,2009
2,1998,1.65237939929332,1.65237939929332,1,2009
3,1998,2.1773776609292,2.1773776609292,1,2009
4,1998,0.622041797095729,0.622041797095729,1,2009
1,1999,3.95738166563506,3.95738166563506,1,2009
2,1999,2.45117908726504,2.45117908726504,1,2009
3,1999,4.88286711183037,4.88286711183037,1,2009
4,1999,4.71981072801673,4.71981072801673,1,2009
1,2000,4.91674881718875,4.91674881718875,1,2009
2,2000,3.88065374752109,3.88065374752109,1,2009
3,2000,1.87996612880537,1.87996612880537,1,2009
4,2000,2.92908941553276,2.92908941553276,1,2009
1,2001,3.12047947723264,3.12047947723264,1,2009
2,2001,0.186243047818913,0.186243047818913,1,2009
3,2001,0.338869440067047,0.338869440067047,1,2009
4,2001,0.505290342281906,0.505290342281906,1,2009
1,2002,0.967852148871184,0.967852148871184,1,2009
2,2002,1.89839375954173,1.89839375954173,1,2009
3,2002,1.41872412665982,1.41872412665982,1,2009
4,2002,0.3576072608104,0.3576072608104,1,2009
1,2003,0.146668754268342,0.146668754268342,1,2009
2,2003,0.0862598349649746,0.0862598349649746,1,2009
3,2003,2.06131713400175,2.06131713400175,1,2009
4,2003,2.44061648857652,2.44061648857652,1,2009
1,2004,2.32119290210007,2.32119290210007,1,2009
2,2004,1.92134074943677,1.92134074943677,1,2009
3,2004,1.42637211938992,1.42637211938992,1,2009
4,2004,1.40760515264082,1.40760515264082,1,2009
1,2005,1.05961749858121,1.05961749858121,1,2009
2,2005,2.9814832453581,2.9814832453581,1,2009
3,2005,2.58990064098597,2.58990064098597,1,2009
4,2005,1.89725402423819,1.89725402423819,1,2009
1,2006,3.41392216962824,3.41392216962824,1,2009
2,2006,4.41986533765688,4.41986533765688,1,2009
3,2006,2.23347963073648,2.23347963073648,1,2009
4,2006,3.52809124865825,3.52809124865825,1,2009
1,2007,2.86722512132993,2.86722512132993,1,2009
2,2007,1.83195221383152,1.83195221383152,1,2009
3,2007,2.42214942201309,2.42214942201309,1,2009
4,2007,1.6574225521218,1.6574225521218,1,2009
1,2008,2.7933285298944,2.7933285298944,1,2009
2,2008,-0.952240082465938,-0.952240082465937,1,2009
3,2008,-0.950611302499893,-0.950611302499894,1,2009
4,2008,-5.75165103511995,-5.75165103511995,1,2009
1,2009,-2.9114727651901,-2.77728899345957,1,2009
2,2009,-0.464969705050762,-0.402293437155358,1,2009
3,2009,1.24511873506568,1.11776715132466,1,2009
4,2009,1.85371213168546,1.38297874433464,1,2009
1,2010,,0.68356598008359,1,2009
2,2010,,0.263918321532959,1,2009
3,2010,,0.0540944922576432,1,2009
4,2010,,-0.0158467841674621,1,2009
2,1991,0.472584608693299,0.472798632559968,2,2009
3,1991,0.248231853796344,0.248231853796346,2,2009
4,1991,3.88979781079915,3.88979781079915,2,2009
1,1992,4.90857609692299,4.90857609692299,2,2009
2,1992,-2.32958000732851,-2.32958000732851,2,2009
3,1992,-0.669839968852493,-0.669839968852493,2,2009
4,1992,-1.12894134416554,-1.12894134416554,2,2009
1,1993,-3.00576412195293,-3.00576412195293,2,2009
2,1993,0.674577157633105,0.674577157633105,2,2009
3,1993,1.7499747799856,1.7499747799856,2,2009
4,1993,1.22017253115438,1.22017253115438,2,2009
1,1994,3.43288683480183,3.43288683480183,2,2009
2,1994,2.88271984513331,2.88271984513331,2,2009
3,1994,3.25830290835503,3.25830290835503,2,2009
4,1994,3.23611547553799,3.23611547553799,2,2009
1,1995,2.74021940497011,2.74021940497011,2,2009
2,1995,2.36334261329816,2.36334261329816,2,2009
3,1995,1.21957187900701,1.21957187900701,2,2009
4,1995,1.30002079395501,1.30002079395501,2,2009
1,1996,0.195587470528282,0.195587470528279,2,2009
2,1996,3.03237195476973,3.03237195476973,2,2009
3,1996,2.0277298362823,2.0277298362823,2,2009
4,1996,1.40307975336398,1.40307975336398,2,2009
1,1997,1.59564784949211,1.59564784949211,2,2009
2,1997,4.90017622479941,4.90017622479941,2,2009
3,1997,2.69877520689599,2.69877520689599,2,2009
4,1997,4.08620600303149,4.08620600303149,2,2009
1,1998,2.85789135092596,2.85789135092596,2,2009
2,1998,1.55065085569626,1.55065085569626,2,2009
3,1998,2.18690244292179,2.18690244292179,2,2009
4,1998,0.807695867337444,0.807695867337446,2,2009
1,1999,3.89214869325063,3.89214869325063,2,2009
2,1999,2.38380675116829,2.38380675116829,2,2009
3,1999,4.85291379008377,4.85291379008377,2,2009
4,1999,4.82358455315912,4.82358455315912,2,2009
1,2000,4.85194326946357,4.85194326946357,2,2009
2,2000,3.86883617882119,3.86883617882119,2,2009
3,2000,1.9177165203299,1.9177165203299,2,2009
4,2000,2.97942812293071,2.97942812293071,2,2009
1,2001,3.05685960134492,3.05685960134492,2,2009
2,2001,0.209352379088612,0.209352379088613,2,2009
3,2001,0.360351423990091,0.360351423990091,2,2009
4,2001,0.436998353489071,0.436998353489071,2,2009
1,2002,0.966251182195221,0.966251182195221,2,2009
2,2002,1.83777157109823,1.83777157109823,2,2009
3,2002,1.46929863319152,1.46929863319152,2,2009
4,2002,0.460683164821907,0.460683164821907,2,2009
1,2003,0.0443129368509439,0.0443129368509426,2,2009
2,2003,0.00574847260927959,0.00574847260927959,2,2009
3,2003,2.12315869748203,2.12315869748203,2,2009
4,2003,2.54243544132,2.54243544132,2,2009
1,2004,2.30041697381269,2.30041697381269,2,2009
2,2004,1.86140292560972,1.86140292560972,2,2009
3,2004,1.40887996566867,1.40887996566867,2,2009
4,2004,1.45758859684342,1.45758859684342,2,2009
1,2005,1.08525765885961,1.08525765885961,2,2009
2,2005,2.95161203098482,2.95161203098482,2,2009
3,2005,2.54637666929487,2.54637666929487,2,2009
4,2005,2.01929245680035,2.01929245680035,2,2009
1,2006,3.22108733558784,3.22108733558784,2,2009
2,2006,4.61632205818592,4.61632205818592,2,2009
3,2006,2.29972359711108,2.29972359711108,2,2009
4,2006,3.52098179226392,3.52098179226392,2,2009
1,2007,2.99050991696912,2.99050991696912,2,2009
2,2007,1.7058518408579,1.7058518408579,2,2009
3,2007,2.47845974454328,2.47845974454328,2,2009
4,2007,1.64239062760818,1.64239062760818,2,2009
1,2008,2.8054803765734,2.8054803765734,2,2009
2,2008,-1.02830075644487,-1.02830075644487,2,2009
3,2008,-1.380332355431,-1.380332355431,2,2009
4,2008,-6.83113811918674,-6.83113811918673,2,2009
1,2009,-9.68408178450967,-9.68408178450967,2,2009
2,2009,0.111923798145021,0.516300445212567,2,2009
