fredbec/spf-europe/data/filter_spf_data_medianfc_month2.csv
target_quarter,target_year,spf_filter_cy,spf_filter_ny,origin_quarter,origin_year
2,1991,1.12384132543095,1.12384132543095,1,2001
3,1991,0.134704883392822,0.134704883392822,1,2001
4,1991,3.38051563436741,3.38051563436741,1,2001
1,1992,6.45892265514567,6.45892265514567,1,2001
2,1992,-2.39835653912332,-2.39835653912331,1,2001
3,1992,-1.4058829426451,-1.4058829426451,1,2001
4,1992,-1.03930645228429,-1.03930645228429,1,2001
1,1993,-2.48722497551369,-2.48722497551369,1,2001
2,1993,0.261585554797206,0.261585554797206,1,2001
3,1993,1.07745753590149,1.07745753590149,1,2001
4,1993,1.71488962413158,1.71488962413158,1,2001
1,1994,4.03510399010705,4.03510399010705,1,2001
2,1994,1.96530724927766,1.96530724927766,1,2001
3,1994,2.64558865235922,2.64558865235922,1,2001
4,1994,3.65476389547685,3.65476389547685,1,2001
1,1995,2.53235273036725,2.53235273036725,1,2001
2,1995,1.82873469737295,1.82873469737295,1,2001
3,1995,0.314341194141732,0.314341194141732,1,2001
4,1995,1.00606940099812,1.00606940099812,1,2001
1,1996,1.04061681177248,1.04061681177248,1,2001
2,1996,2.59022703151404,2.59022703151404,1,2001
3,1996,2.35233068526104,2.35233068526104,1,2001
4,1996,0.642050914407721,0.642050914407721,1,2001
1,1997,0.626060319585409,0.626060319585409,1,2001
2,1997,5.16869805980198,5.16869805980198,1,2001
3,1997,3.07695105613279,3.07695105613279,1,2001
4,1997,3.25790249169673,3.25790249169673,1,2001
1,1998,3.10510116834875,3.10510116834875,1,2001
2,1998,1.74210094258378,1.74210094258378,1,2001
3,1998,2.22492370023901,2.22492370023901,1,2001
4,1998,0.937577295332836,0.937577295332837,1,2001
1,1999,2.95530720786368,2.95530720786368,1,2001
2,1999,2.38759912588513,2.38759912588513,1,2001
3,1999,4.07044578157292,4.07044578157292,1,2001
4,1999,3.83010038943159,3.83010038943159,1,2001
1,2000,3.63961695105834,3.63961695105834,1,2001
2,2000,3.56902267910186,3.56902267910186,1,2001
3,2000,2.64981588182456,2.64981588182456,1,2001
4,2000,2.66482706270387,2.642304225704,1,2001
1,2001,2.67637412491873,2.65153043265986,1,2001
2,2001,2.68330236224764,2.68307379038425,1,2001
3,2001,2.6867664809121,2.72729131844273,1,2001
4,2001,2.68792118713358,2.77454003640083,1,2001
1,2002,,2.81517696382408,1,2001
2,2002,,2.83955912027804,1,2001
3,2002,,2.85175019850501,1,2001
4,2002,,2.85581389124734,1,2001
2,1991,1.12498016109216,1.12498016162488,2,2001
3,1991,0.148815841229365,0.148815841229367,2,2001
4,1991,3.87301470725134,3.87301470725134,2,2001
1,1992,5.95594093058896,5.95594093058895,2,2001
2,1992,-2.45561850958964,-2.45561850958964,2,2001
3,1992,-1.05851591465951,-1.05851591465951,2,2001
4,1992,-1.12472806440553,-1.12472806440553,2,2001
1,1993,-2.72660949136439,-2.72660949136438,2,2001
2,1993,0.162038884735183,0.162038884735183,2,2001
3,1993,1.57649647215792,1.57649647215792,2,2001
4,1993,1.62923287945829,1.62923287945829,2,2001
1,1994,3.59586130502141,3.59586130502141,2,2001
2,1994,2.2504675990455,2.2504675990455,2,2001
3,1994,2.98757229601374,2.98757229601374,2,2001
4,1994,3.18368938526112,3.18368938526112,2,2001
1,1995,2.28350917833167,2.28350917833167,2,2001
2,1995,2.17301888543982,2.17301888543981,2,2001
3,1995,0.382008238114961,0.382008238114962,2,2001
4,1995,1.02750689639974,1.02750689639974,2,2001
1,1996,1.16946291942803,1.16946291942803,2,2001
2,1996,2.15011642939214,2.15011642939214,2,2001
3,1996,2.50193949805644,2.50193949805644,2,2001
4,1996,0.632818857244355,0.632818857244355,2,2001
1,1997,1.13490336842408,1.13490336842408,2,2001
2,1997,4.75635876569991,4.75635876569991,2,2001
3,1997,2.84976929426788,2.84976929426788,2,2001
4,1997,3.58184983691825,3.58184983691825,2,2001
1,1998,3.8009913844905,3.8009913844905,2,2001
2,1998,1.3395867391635,1.3395867391635,2,2001
3,1998,2.33251961747425,2.33251961747425,2,2001
4,1998,0.944886278737344,0.944886278737345,2,2001
1,1999,3.25148316482584,3.25148316482584,2,2001
2,1999,2.11810759070918,2.11810759070918,2,2001
3,1999,4.12102083953767,4.12102083953767,2,2001
4,1999,4.03884030982378,4.03884030982378,2,2001
1,2000,3.77528860696574,3.77528860696574,2,2001
2,2000,3.1226687751984,3.1226687751984,2,2001
3,2000,2.27915682084887,2.27915682084887,2,2001
4,2000,2.68168566946252,2.68168566946252,2,2001
1,2001,2.50752220777799,2.42331251390265,2,2001
2,2001,2.40302413076728,2.36617331031002,2,2001
3,2001,2.35077509226192,2.44466508792041,2,2001
4,2001,2.33335874609346,2.59318487596964,2,2001
1,2002,,2.74612970369352,2,2001
2,2002,,2.83789660032784,2,2001
3,2002,,2.88378004864501,2,2001
4,2002,,2.89907453141739,2,2001
2,1991,1.08135113727688,1.08135113756724,3,2001
3,1991,-0.0169395832674164,-0.016939583267418,3,2001
4,1991,3.86028875985958,3.86028875985958,3,2001
1,1992,6.01759821926522,6.01759821926522,3,2001
2,1992,-2.48899087981659,-2.48899087981659,3,2001
3,1992,-0.908697812907111,-0.908697812907111,3,2001
4,1992,-1.14652181647289,-1.14652181647289,3,2001
1,1993,-2.86109101661087,-2.86109101661087,3,2001
2,1993,0.301059793002567,0.301059793002567,3,2001
3,1993,1.54294792637655,1.54294792637655,3,2001
4,1993,1.62932190995664,1.62932190995664,3,2001
1,1994,3.61471200474432,3.61471200474432,3,2001
2,1994,2.22191706702244,2.22191706702244,3,2001
3,1994,2.85778965287489,2.85778965287489,3,2001
4,1994,3.38045585698541,3.38045585698541,3,2001
1,1995,2.21457864675907,2.21457864675907,3,2001
2,1995,2.18009776647807,2.18009776647807,3,2001
3,1995,0.413072824375704,0.413072824375704,3,2001
4,1995,0.922298218968831,0.922298218968831,3,2001
1,1996,1.32240040106226,1.32240040106226,3,2001
2,1996,2.01469288041298,2.01469288041298,3,2001
3,1996,2.53722220976198,2.53722220976198,3,2001
4,1996,0.601959944668585,0.601959944668584,3,2001
1,1997,1.15716726294,1.15716726294,3,2001
2,1997,4.832350331747,4.832350331747,3,2001
3,1997,2.75135947650118,2.75135947650118,3,2001
4,1997,3.62429539138061,3.62429539138061,3,2001
1,1998,3.83512185520549,3.83512185520549,3,2001
2,1998,1.373338851907,1.373338851907,3,2001
3,1998,2.24435213020706,2.24435213020706,3,2001
4,1998,0.882114399433443,0.882114399433443,3,2001
1,1999,3.41209063640835,3.41209063640835,3,2001
2,1999,2.07100897825991,2.07100897825991,3,2001
3,1999,4.01443095623535,4.01443095623535,3,2001
4,1999,4.0920859996628,4.0920859996628,3,2001
1,2000,3.75637945658089,3.75637945658089,3,2001
2,2000,3.17804551457606,3.17804551457606,3,2001
3,2000,2.36536613610974,2.36536613610974,3,2001
4,2000,2.42528734565577,2.42528734565577,3,2001
1,2001,2.35745927445967,2.35745927445967,3,2001
2,2001,1.47593706733324,1.1132986223917,3,2001
3,2001,1.03517596377002,1.11274491896284,3,2001
4,2001,0.888255595915611,1.82287649127336,3,2001
1,2002,,2.71077166642354,3,2001
2,2002,,3.24350877151365,3,2001
3,2002,,3.5098773240587,3,2001
4,2002,,3.59866684157372,3,2001
2,1991,0.826895509254677,0.82689550955829,4,2001
3,1991,0.230060490920181,0.230060490920181,4,2001
4,1991,3.72589521448536,3.72589521448536,4,2001
1,1992,6.03463816090324,6.03463816090324,4,2001
2,1992,-2.80754843857051,-2.80754843857051,4,2001
3,1992,-0.664829897832187,-0.664829897832187,4,2001
4,1992,-1.28048891377872,-1.28048891377872,4,2001
1,1993,-2.67508180764632,-2.67508180764632,4,2001
2,1993,0.13180414926246,0.13180414926246,4,2001
3,1993,1.85337563765786,1.85337563765786,4,2001
4,1993,1.31147933649682,1.31147933649682,4,2001
1,1994,3.61072844414394,3.61072844414394,4,2001
2,1994,1.97302501710628,1.97302501710628,4,2001
3,1994,2.99321426262205,2.99321426262205,4,2001
4,1994,3.48303183078535,3.48303183078535,4,2001
1,1995,1.96485389324383,1.96485389324383,4,2001
2,1995,2.72692324144741,2.72692324144741,4,2001
3,1995,0.49370221110423,0.49370221110423,4,2001
4,1995,0.57370259011964,0.57370259011964,4,2001
1,1996,1.12832360921509,1.12832360921509,4,2001
2,1996,2.54427374009882,2.54427374009882,4,2001
3,1996,2.20632456491232,2.20632456491232,4,2001
4,1996,0.806562515820142,0.806562515820142,4,2001
1,1997,1.22140924010326,1.22140924010326,4,2001
2,1997,4.56556006164524,4.56556006164524,4,2001
3,1997,2.73852610796739,2.73852610796739,4,2001
4,1997,4.03637234912262,4.03637234912262,4,2001
1,1998,3.54857143052616,3.54857143052616,4,2001
2,1998,1.60432316259735,1.60432316259735,4,2001
3,1998,2.09753788214615,2.09753788214615,4,2001
4,1998,0.64364517487383,0.64364517487383,4,2001
1,1999,3.6614354259018,3.6614354259018,4,2001
2,1999,2.277791914628,2.277791914628,4,2001
3,1999,4.51125156113943,4.51125156113943,4,2001
4,1999,3.93194926611447,3.93194926611447,4,2001
1,2000,3.68578388969572,3.68578388969572,4,2001
2,2000,3.37183655789,3.37183655789,4,2001
3,2000,1.8733580142565,1.8733580142565,4,2001
4,2000,2.48658105516149,2.48658105516149,4,2001
1,2001,1.99771693451605,1.99771693451605,4,2001
2,2001,0.344061185137323,0.344061185137323,4,2001
3,2001,0.154112426930177,-0.124583222554606,4,2001
4,2001,0.090796174194462,0.65215543467482,4,2001
1,2002,,1.81834725941657,4,2001
2,2002,,2.51806235426163,4,2001
3,2002,,2.86791990168415,4,2001
4,2002,,2.98453908415833,4,2001
2,1991,0.786385002672982,0.786385002418832,1,2002
3,1991,0.288195043804129,0.28819504380413,1,2002
4,1991,3.69325564874532,3.69325564874532,1,2002
1,1992,5.97145724898835,5.97145724898836,1,2002
2,1992,-2.79774822990261,-2.79774822990261,1,2002
3,1992,-0.723737344476427,-0.723737344476427,1,2002
4,1992,-0.948044383700275,-0.948044383700275,1,2002
1,1993,-2.87990289662321,-2.87990289662321,1,2002
2,1993,0.0643690235962784,0.0643690235962784,1,2002
3,1993,1.82521421678954,1.82521421678954,1,2002
4,1993,1.54027352980426,1.54027352980426,1,2002
1,1994,3.58471206957427,3.58471206957427,1,2002
2,1994,1.84282664278237,1.84282664278237,1,2002
3,1994,2.93809189475087,2.93809189475087,1,2002
4,1994,3.38692934308438,3.38692934308438,1,2002
1,1995,2.00543866781941,2.00543866781941,1,2002
2,1995,2.71771075129093,2.71771075129093,1,2002
3,1995,0.605258348529514,0.605258348529513,1,2002
4,1995,0.725899239844985,0.725899239844985,1,2002
1,1996,0.88695654637565,0.88695654637565,1,2002
2,1996,2.71309327189351,2.71309327189351,1,2002
3,1996,2.14173184003821,2.14173184003821,1,2002
4,1996,0.804261679394935,0.804261679394935,1,2002
1,1997,1.37415590078684,1.37415590078684,1,2002
2,1997,4.48490669018675,4.48490669018675,1,2002
3,1997,2.53794313508893,2.53794313508893,1,2002
4,1997,4.19256644987249,4.19256644987249,1,2002
1,1998,3.59520478034243,3.59520478034243,1,2002
2,1998,1.6559111335777,1.6559111335777,1,2002
3,1998,2.08758882679774,2.08758882679774,1,2002
4,1998,0.486926641901331,0.48692664190133,1,2002
1,1999,3.68906050600992,3.68906050600992,1,2002
2,1999,2.52550991846712,2.52550991846712,1,2002
3,1999,4.41874542105116,4.41874542105116,1,2002
4,1999,3.94443374673268,3.94443374673268,1,2002
1,2000,3.60552915185686,3.60552915185686,1,2002
2,2000,3.55783336618241,3.55783336618241,1,2002
3,2000,1.65103910582047,1.65103910582047,1,2002
4,2000,2.35250056722371,2.35250056722371,1,2002
1,2001,2.32500340291779,2.32500340291779,1,2002
2,2001,0.252532341855338,0.252532341855338,1,2002
3,2001,0.496624005674784,0.496624005674784,1,2002
4,2001,1.03717073324011,0.887672625040937,1,2002
1,2002,1.45297590829035,1.28807286237952,1,2002
2,2002,1.7024590133205,1.70094192368135,1,2002
3,2002,1.82720056583558,2.0961893343777,1,2002
4,2002,1.8687810833406,2.44372461989983,1,2002
1,2003,,2.71345730567901,1,2002
2,2003,,2.87529691714652,1,2002
3,2003,,2.95621672288028,1,2002
4,2003,,2.9831899914582,1,2002
2,1991,0.772550419849826,0.77255041985593,2,2002
3,1991,0.22938720445771,0.22938720445771,2,2002
4,1991,3.71705660254427,3.71705660254427,2,2002
1,1992,6.01958049919697,6.01958049919697,2,2002
2,1992,-2.81388326053564,-2.81388326053565,2,2002
3,1992,-0.769823316885876,-0.769823316885876,2,2002
4,1992,-0.937152270939346,-0.937152270939345,2,2002
1,1993,-2.84158033832992,-2.84158033832992,2,2002
2,1993,0.0345705586654028,0.0345705586654037,2,2002
3,1993,1.83911435799518,1.83911435799518,2,2002
4,1993,1.51620912941048,1.51620912941048,2,2002
1,1994,3.60408391404829,3.60408391404829,2,2002
2,1994,1.86379167857105,1.86379167857105,2,2002
3,1994,2.88826501936186,2.88826501936186,2,2002
4,1994,3.43662772435986,3.43662772435986,2,2002
1,1995,2.00185714664378,2.00185714664378,2,2002
2,1995,2.72672021438505,2.72672021438505,2,2002
3,1995,0.560007446083466,0.560007446083466,2,2002
4,1995,0.740765588498604,0.740765588498604,2,2002
1,1996,0.779707490986104,0.779707490986104,2,2002
2,1996,2.86264599405364,2.86264599405364,2,2002
3,1996,2.11045100617748,2.11045100617748,2,2002
4,1996,0.889056499496488,0.889056499496488,2,2002
1,1997,1.2347294849957,1.2347294849957,2,2002
2,1997,4.52176635586732,4.52176635586732,2,2002
3,1997,2.51189454728176,2.51189454728176,2,2002
4,1997,4.33922529012518,4.33922529012518,2,2002
1,1998,3.53510390895511,3.53510390895511,2,2002
2,1998,1.56684092416035,1.56684092416035,2,2002
3,1998,2.0293338727214,2.0293338727214,2,2002
4,1998,0.654236252165564,0.654236252165563,2,2002
1,1999,3.67033068237228,3.67033068237228,2,2002
2,1999,2.35758176831802,2.35758176831802,2,2002
3,1999,4.45174344565353,4.45174344565353,2,2002
4,1999,4.1708964995083,4.1708964995083,2,2002
1,2000,3.44833217061671,3.44833217061671,2,2002
2,2000,3.48896357177004,3.48896357177004,2,2002
3,2000,1.6207388547306,1.6207388547306,2,2002
4,2000,2.62875436790844,2.62875436790844,2,2002
1,2001,2.03826211688809,2.03826211688809,2,2002
2,2001,0.301295431693549,0.301295431693549,2,2002
3,2001,0.706858806386035,0.706858806386035,2,2002
4,2001,-0.661936849014122,-0.661936849014122,2,2002
1,2002,1.23457600397747,1.31875288660453,2,2002
2,2002,2.37248371577242,2.4093200996886,2,2002
3,2002,2.9414375716699,2.84758395654161,2,2002
4,2002,3.13108885696906,2.87136362346705,2,2002
1,2003,,2.71847826676843,2,2002
2,2003,,2.62674705274926,2,2002
3,2003,,2.58088144573968,2,2002
4,2003,,2.56559291006981,2,2002
2,1991,0.6680983702616,0.66809836999321,3,2002
3,1991,0.316917724256415,0.316917724256416,3,2002
4,1991,3.53497235192279,3.53497235192279,3,2002
1,1992,5.98808626505478,5.98808626505478,3,2002
2,1992,-2.83945569762029,-2.83945569762029,3,2002
3,1992,-0.458965857909721,-0.458965857909721,3,2002
4,1992,-0.940497084780012,-0.940497084780012,3,2002
1,1993,-3.03774698040185,-3.03774698040185,3,2002
2,1993,0.187073840443386,0.187073840443385,3,2002
3,1993,1.89676928235649,1.89676928235649,3,2002
4,1993,1.47434326320501,1.47434326320501,3,2002
1,1994,3.45193886806519,3.45193886806519,3,2002
2,1994,2.07326114941715,2.07326114941715,3,2002
3,1994,2.94246675309005,2.94246675309005,3,2002
4,1994,3.44754481365595,3.44754481365595,3,2002
1,1995,1.85927684087999,1.85927684087999,3,2002
2,1995,2.55486824925226,2.55486824925226,3,2002
3,1995,0.751098154809737,0.751098154809737,3,2002
4,1995,1.00410720317983,1.00410720317983,3,2002
1,1996,0.523323338773451,0.523323338773452,3,2002
2,1996,2.86027503084068,2.86027503084068,3,2002
3,1996,2.11975424777053,2.11975424777053,3,2002
4,1996,0.827900159963213,0.827900159963213,3,2002
1,1997,1.31666169706892,1.31666169706892,3,2002
2,1997,4.47515111279826,4.47515111279826,3,2002
3,1997,2.54695674360386,2.54695674360386,3,2002
4,1997,4.24533542011445,4.24533542011445,3,2002
1,1998,3.34974403301194,3.34974403301194,3,2002
2,1998,1.75941214132498,1.75941214132498,3,2002
3,1998,2.15934433146363,2.15934433146363,3,2002
4,1998,0.79739137517687,0.797391375176871,3,2002
1,1999,3.3781199153577,3.3781199153577,3,2002
2,1999,2.54279543687068,2.54279543687068,3,2002
3,1999,4.85311363361143,4.85311363361143,3,2002
4,1999,4.13966210462946,4.13966210462946,3,2002
1,2000,3.68209707410077,3.68209707410077,3,2002
2,2000,3.62563689378281,3.62563689378281,3,2002
3,2000,1.6777623945325,1.6777623945325,3,2002
4,2000,2.73288143852664,2.73288143852664,3,2002
1,2001,1.76706170295464,1.76706170295464,3,2002
2,2001,0.195809853153061,0.195809853153062,3,2002
3,2001,0.758813556988103,0.758813556988103,3,2002
4,2001,-1.01268792899454,-1.01268792899454,3,2002
1,2002,1.26285916977775,1.26285916977775,3,2002
2,2002,2.29264624469864,2.38928019195204,3,2002
3,2002,2.80753978215909,2.78686903257555,3,2002
4,2002,2.97917096131257,2.73011673701542,3,2002
1,2003,,2.4935143506388,3,2002
2,2003,,2.35155291881283,3,2002
3,2003,,2.28057220289985,3,2002
4,2003,,2.25691196426218,3,2002
2,1991,0.592919842819573,0.592919842554399,4,2002
3,1991,0.0893140605152443,0.0893140605152451,4,2002
4,1991,3.60331945013825,3.60331945013825,4,2002
1,1992,5.87196595643165,5.87196595643165,4,2002
2,1992,-2.62967761312783,-2.62967761312784,4,2002
3,1992,-0.547771877980985,-0.547771877980984,4,2002
4,1992,-0.70245565162409,-0.702455651624089,4,2002
1,1993,-3.17569601038864,-3.17569601038864,4,2002
2,1993,0.246845439964738,0.246845439964738,4,2002
3,1993,1.66917711591397,1.66917711591397,4,2002
4,1993,1.57576279107778,1.57576279107778,4,2002
1,1994,3.39577795920905,3.39577795920905,4,2002
2,1994,2.18789971309612,2.18789971309612,4,2002
3,1994,2.9064404683198,2.9064404683198,4,2002
4,1994,3.4647276507249,3.4647276507249,4,2002
1,1995,1.77593537238419,1.77593537238418,4,2002
2,1995,2.55530161328024,2.55530161328024,4,2002
3,1995,0.867667688884222,0.867667688884221,4,2002
4,1995,0.970761536956055,0.970761536956055,4,2002
1,1996,0.516256778457414,0.516256778457413,4,2002
2,1996,2.78668049341071,2.78668049341071,4,2002
3,1996,2.22786864526294,2.22786864526294,4,2002
4,1996,0.734873194126529,0.734873194126528,4,2002
1,1997,1.26663762436769,1.26663762436769,4,2002
2,1997,4.52955120189134,4.52955120189134,4,2002
3,1997,2.61825803522764,2.61825803522764,4,2002
4,1997,4.22802595062424,4.22802595062424,4,2002
1,1998,3.34642451108842,3.34642451108842,4,2002
2,1998,1.60194821201756,1.60194821201756,4,2002
3,1998,2.26786532966246,2.26786532966246,4,2002
4,1998,1.20378496731943,1.20378496731943,4,2002
1,1999,3.3488588619552,3.3488588619552,4,2002
2,1999,2.16025669837632,2.16025669837632,4,2002
3,1999,5.29733868254798,5.29733868254798,4,2002
4,1999,4.54352578916142,4.54352578916142,4,2002
1,2000,3.40147133226107,3.40147133226107,4,2002
2,2000,3.39471224727066,3.39471224727066,4,2002
3,2000,1.65763861598398,1.65763861598398,4,2002
4,2000,2.55627654178068,2.55627654178068,4,2002
1,2001,2.05645096591445,2.05645096591445,4,2002
2,2001,0.00834420573585515,0.0083442057358547,4,2002
3,2001,0.827210966433056,0.827210966433057,4,2002
4,2001,-1.10220883166686,-1.10220883166686,4,2002
1,2002,1.44755297200188,1.44755297200188,4,2002
2,2002,1.58723287602398,1.58723287602398,4,2002
3,2002,1.32646338664742,1.22744961356132,4,2002
4,2002,1.23954022352189,1.43903648848472,4,2002
1,2003,,1.85342977483174,4,2002
2,2003,,2.10206574663995,4,2002
3,2003,,2.22638373254406,4,2002
4,2003,,2.26782306117876,4,2002
2,1991,0.667227950962292,0.667227950959117,1,2003
3,1991,0.0901064604855515,0.0901064604855506,1,2003
4,1991,3.62420817979585,3.62420817979585,1,2003
1,1992,5.80768287763364,5.80768287763365,1,2003
2,1992,-2.53762417943672,-2.53762417943673,1,2003
3,1992,-0.589066339022293,-0.589066339022293,1,2003
4,1992,-0.794743857885194,-0.794743857885194,1,2003
1,1993,-3.0715418575637,-3.0715418575637,1,2003
2,1993,0.225807530751365,0.225807530751366,1,2003
3,1993,1.64351033033565,1.64351033033565,1,2003
4,1993,1.52643065312983,1.52643065312983,1,2003
1,1994,3.40471670205384,3.40471670205385,1,2003
2,1994,2.26883938067859,2.26883938067859,1,2003
3,1994,2.93662878963026,2.93662878963026,1,2003
4,1994,3.34691549666741,3.34691549666741,1,2003
1,1995,2.01263585975826,2.01263585975826,1,2003
2,1995,2.32534015365153,2.32534015365153,1,2003
3,1995,0.894136657982503,0.894136657982503,1,2003
4,1995,0.803932516126293,0.803932516126293,1,2003
1,1996,0.724772854483869,0.724772854483868,1,2003
2,1996,2.65033236331005,2.65033236331005,1,2003
3,1996,2.30179056944864,2.30179056944864,1,2003
4,1996,0.8823038400956,0.8823038400956,1,2003
1,1997,1.13635672756449,1.13635672756449,1,2003
2,1997,4.51583540291922,4.51583540291922,1,2003
3,1997,2.69060599960511,2.69060599960511,1,2003
4,1997,4.22074774407393,4.22074774407393,1,2003
1,1998,3.29212528831273,3.29212528831273,1,2003
2,1998,1.54608539630139,1.54608539630139,1,2003
3,1998,2.32435024949886,2.32435024949886,1,2003
4,1998,1.28156707858373,1.28156707858373,1,2003
1,1999,3.38908956625623,3.38908956625623,1,2003
2,1999,2.15872922899629,2.15872922899629,1,2003
3,1999,5.32789670063329,5.32789670063329,1,2003
4,1999,4.38336652673523,4.38336652673523,1,2003
1,2000,3.5635552466752,3.5635552466752,1,2003
2,2000,3.29415245323805,3.29415245323805,1,2003
3,2000,1.52456156036294,1.52456156036294,1,2003
4,2000,2.57858522032781,2.57858522032781,1,2003
1,2001,2.07671028998448,2.07671028998448,1,2003
2,2001,0.00360412451885273,0.00360412451885184,1,2003
3,2001,0.729189350328351,0.729189350328352,1,2003
4,2001,-0.976146818070255,-0.976146818070256,1,2003
1,2002,1.65740257690419,1.65740257690419,1,2003
2,2002,1.34516695428022,1.34516695428022,1,2003
3,2002,1.33087299458941,1.33087299458941,1,2003
4,2002,1.40894314097516,1.25416431774567,1,2003
1,2003,1.46899709973343,1.29826997758974,1,2003
2,2003,1.50502947498839,1.5034614196842,1,2003
3,2003,1.52304566261587,1.80154094124958,1,2003
4,2003,1.5290510584917,2.12431083950641,1,2003
1,2004,,2.40357341167519,1,2003
2,2004,,2.57113095497646,1,2003
3,2004,,2.6549097266271,1,2003
4,2004,,2.68283598384398,1,2003
2,1991,0.654621637277595,0.654621637779974,2,2003
3,1991,0.0758543193599253,0.0758543193599248,2,2003
4,1991,3.63366683339357,3.63366683339357,2,2003
1,1992,5.80784962142562,5.80784962142562,2,2003
2,1992,-2.54814261094771,-2.54814261094771,2,2003
3,1992,-0.568830987851332,-0.568830987851332,2,2003
4,1992,-0.790103215447146,-0.790103215447147,2,2003
1,1993,-3.05791581976645,-3.05791581976645,2,2003
2,1993,0.177595681140308,0.177595681140307,2,2003
3,1993,1.68808949724402,1.68808949724402,2,2003
4,1993,1.48228095539504,1.48228095539504,2,2003
1,1994,3.41296861934086,3.41296861934086,2,2003
2,1994,2.30125031296986,2.30125031296986,2,2003
3,1994,2.90142149412582,2.90142149412582,2,2003
4,1994,3.38004551924316,3.38004551924316,2,2003
1,1995,2.00914882009409,2.00914882009409,2,2003
2,1995,2.33441779975101,2.33441779975101,2,2003
3,1995,0.882267154327465,0.882267154327465,2,2003
4,1995,0.847797883043411,0.847797883043411,2,2003
1,1996,0.693772814399774,0.693772814399774,2,2003
2,1996,2.6307351095461,2.6307351095461,2,2003
3,1996,2.31313740246433,2.31313740246433,2,2003
4,1996,0.907506206309816,0.907506206309817,2,2003
1,1997,1.1129246339719,1.1129246339719,2,2003
2,1997,4.54720637215356,4.54720637215356,2,2003
3,1997,2.66467683533365,2.66467683533365,2,2003
4,1997,4.22512541960889,4.22512541960889,2,2003
1,1998,3.2624565573615,3.2624565573615,2,2003
2,1998,1.56739549024765,1.56739549024765,2,2003
3,1998,2.26894640251789,2.26894640251789,2,2003
4,1998,1.30597074076062,1.30597074076062,2,2003
1,1999,3.40372867408532,3.40372867408532,2,2003
2,1999,2.19360240916497,2.19360240916498,2,2003
3,1999,5.26380777822857,5.26380777822857,2,2003
4,1999,4.33761697000761,4.33761697000761,2,2003
1,2000,3.74908001886498,3.74908001886498,2,2003
2,2000,3.31418785804114,3.31418785804114,2,2003
3,2000,1.52970404586217,1.52970404586217,2,2003
4,2000,2.44336779702563,2.44336779702563,2,2003
1,2001,2.21882928849724,2.21882928849724,2,2003
2,2001,-0.0175242982959571,-0.0175242982959563,2,2003
3,2001,0.58364499299306,0.58364499299306,2,2003
4,2001,-0.747829139092116,-0.747829139092114,2,2003
1,2002,1.68113087395407,1.68113087395407,2,2003
2,2002,1.48744146150011,1.48744146150011,2,2003
3,2002,1.32997613787458,1.32997613787458,2,2003
4,2002,0.547112544082972,0.547112544082973,2,2003
1,2003,0.871765233503583,0.681006298861689,2,2003
2,2003,1.06655684715595,0.983079993555974,2,2003
3,2003,1.16395265398213,1.37664216790146,2,2003
4,2003,1.19641792292419,1.78500136163378,2,2003
1,2004,,2.13146611448855,2,2003
2,2004,,2.33934496620142,2,2003
3,2004,,2.44328439205785,2,2003
4,2004,,2.47793086734333,2,2003
2,1991,0.737467880504995,0.737467880498195,3,2003
3,1991,-0.0332344956106895,-0.0332344956106909,3,2003
4,1991,3.62965705976257,3.62965705976257,3,2003
1,1992,6.11976573317188,6.11976573317188,3,2003
2,1992,-2.6922211431871,-2.69222114318711,3,2003
3,1992,-0.768106646840428,-0.768106646840427,3,2003
4,1992,-0.97634978665212,-0.97634978665212,3,2003
1,1993,-2.59362635072949,-2.5936263507295,3,2003
2,1993,0.0763019030604051,0.0763019030604055,3,2003
3,1993,1.57675182179076,1.57675182179076,3,2003
4,1993,1.20781973019193,1.20781973019193,3,2003
1,1994,3.68458370178977,3.68458370178977,3,2003
2,1994,2.41793480628334,2.41793480628334,3,2003
3,1994,2.87218132786886,2.87218132786886,3,2003
4,1994,3.17095178210312,3.17095178210312,3,2003
1,1995,2.30792551774426,2.30792551774426,3,2003
2,1995,2.16283647724582,2.16283647724582,3,2003
3,1995,0.923557546878118,0.923557546878117,3,2003
4,1995,0.651870261037702,0.651870261037701,3,2003
1,1996,1.19652599749396,1.19652599749396,3,2003
2,1996,2.35452129442963,2.35452129442964,3,2003
3,1996,2.20957016467744,2.20957016467744,3,2003
4,1996,0.581211145801408,0.581211145801408,3,2003
1,1997,1.0514336806156,1.0514336806156,3,2003
2,1997,5.10037093654776,5.10037093654776,3,2003
3,1997,2.78487398993794,2.78487398993794,3,2003
4,1997,4.10155702415846,4.10155702415847,3,2003
1,1998,3.08641460123944,3.08641460123944,3,2003
2,1998,1.68691882828704,1.68691882828704,3,2003
3,1998,2.30205168310069,2.30205168310069,3,2003
4,1998,1.14328709735394,1.14328709735394,3,2003
1,1999,3.41994025154604,3.41994025154604,3,2003
2,1999,2.34951661017402,2.34951661017402,3,2003
3,1999,5.29897432904207,5.29897432904207,3,2003
4,1999,4.16588294778257,4.16588294778257,3,2003
1,2000,3.86567458362683,3.86567458362683,3,2003
2,2000,3.32862659034494,3.32862659034494,3,2003
3,2000,1.48029279448156,1.48029279448156,3,2003
4,2000,2.36410615785343,2.36410615785343,3,2003
1,2001,2.54495001716373,2.54495001716373,3,2003
2,2001,-0.125854398373126,-0.125854398373127,3,2003
3,2001,0.652930281874342,0.652930281874343,3,2003
4,2001,-0.601174897324152,-0.601174897324153,3,2003
1,2002,1.60312175901038,1.60312175901039,3,2003
2,2002,1.59206189408105,1.59206189408105,3,2003
3,2002,1.28732391466919,1.28732391466919,3,2003
4,2002,0.289411378080229,0.289411378080229,3,2003
1,2003,0.237272393375498,0.237272393375498,3,2003
2,2003,0.523189229401499,0.28928863295191,3,2003
3,2003,0.6661476474145,0.716189442885853,3,2003
4,2003,0.713800453418833,1.31665278731611,3,2003
1,2004,,1.88935663038145,3,2003
2,2004,,2.23297893622065,3,2003
3,2004,,2.40479008914025,3,2003
4,2004,,2.46206047344678,3,2003
2,1991,1.23072672693523,1.23072672655763,4,2003
3,1991,-0.194026436592865,-0.194026436592865,4,2003
4,1991,3.93829044657925,3.93829044657925,4,2003
1,1992,6.05045676259006,6.05045676259006,4,2003
2,1992,-2.9572102003787,-2.9572102003787,4,2003
3,1992,-0.95913646925948,-0.959136469259481,4,2003
4,1992,-0.931935538699491,-0.931935538699491,4,2003
1,1993,-2.48416984374464,-2.48416984374464,4,2003
2,1993,0.071095937963217,0.071095937963217,4,2003
3,1993,1.51788911038313,1.51788911038313,4,2003
4,1993,1.16710697952676,1.16710697952676,4,2003
1,1994,3.89643104293593,3.89643104293593,4,2003
2,1994,2.41739721154013,2.41739721154013,4,2003
3,1994,2.65174222519593,2.65174222519593,4,2003
4,1994,3.2827283500134,3.2827283500134,4,2003
1,1995,2.1799153540967,2.1799153540967,4,2003
2,1995,2.29764525946625,2.29764525946625,4,2003
3,1995,0.81850171978699,0.81850171978699,4,2003
4,1995,0.919782891577436,0.919782891577436,4,2003
1,1996,0.627661984192418,0.627661984192418,4,2003
2,1996,2.88510247932261,2.88510247932261,4,2003
3,1996,2.15309745744325,2.15309745744325,4,2003
4,1996,0.657724942764904,0.657724942764904,4,2003
1,1997,0.974309083214009,0.974309083214009,4,2003
2,1997,5.0156003619789,5.0156003619789,4,2003
3,1997,2.75181472838773,2.75181472838773,4,2003
4,1997,4.07196223274187,4.07196223274187,4,2003
1,1998,3.30346665830155,3.30346665830155,4,2003
2,1998,1.59818533940963,1.59818533940963,4,2003
3,1998,2.16194500293778,2.16194500293778,4,2003
4,1998,1.07964132456266,1.07964132456266,4,2003
1,1999,3.67850523026971,3.67850523026971,4,2003
2,1999,2.28444741847786,2.28444741847786,4,2003
3,1999,5.04239929790924,5.04239929790924,4,2003
4,1999,4.28720362796895,4.28720362796895,4,2003
1,2000,3.93117794618805,3.93117794618805,4,2003
2,2000,3.46528055084305,3.46528055084305,4,2003
3,2000,1.25300078792481,1.25300078792481,4,2003
4,2000,2.4326346161625,2.4326346161625,4,2003
1,2001,2.72059893727141,2.72059893727141,4,2003
2,2001,0.123348725000105,0.123348725000105,4,2003
3,2001,0.736800767742518,0.736800767742518,4,2003
4,2001,-0.372000766508185,-0.372000766508185,4,2003
1,2002,1.46371630775362,1.46371630775362,4,2003
2,2002,1.86646918878193,1.86646918878193,4,2003
3,2002,0.911044316854359,0.911044316854359,4,2003
4,2002,0.153773818469727,0.153773818469727,4,2003
1,2003,-0.0249112638113225,-0.0249112638113225,4,2003
2,2003,-0.224131421597085,-0.224131421597085,4,2003
3,2003,1.36328413118037,1.38089168450019,4,2003
4,2003,1.89242264877286,1.85688182204712,4,2003
1,2004,,1.78310986644026,4,2003
2,2004,,1.73884669307615,4,2003
3,2004,,1.71671510639409,4,2003
4,2004,,1.70933791083341,4,2003
2,1991,1.22468679784567,1.22468679821113,1,2004
3,1991,-0.176289228282767,-0.176289228282767,1,2004
4,1991,3.92568547224408,3.92568547224408,1,2004
1,1992,6.05690114719641,6.05690114719641,1,2004
2,1992,-2.95299805652298,-2.95299805652298,1,2004
3,1992,-0.95603880036762,-0.95603880036762,1,2004
4,1992,-0.96233582227524,-0.96233582227524,1,2004
1,1993,-2.46720661414054,-2.46720661414054,1,2004
2,1993,0.07573002645529,0.0757300264552896,1,2004
3,1993,1.5374444595682,1.5374444595682,1,2004
4,1993,1.13704350298645,1.13704350298645,1,2004
1,1994,3.94695882197131,3.94695882197131,1,2004
2,1994,2.38043185111621,2.38043185111621,1,2004
3,1994,2.65589774823909,2.65589774823909,1,2004
4,1994,3.23239614942077,3.23239614942077,1,2004
1,1995,2.20656134950181,2.20656134950181,1,2004
2,1995,2.29961537022547,2.29961537022547,1,2004
3,1995,0.835771922424633,0.835771922424633,1,2004
4,1995,0.950115934852746,0.950115934852747,1,2004
1,1996,0.565495681547268,0.565495681547268,1,2004
2,1996,2.9061348881851,2.9061348881851,1,2004
3,1996,2.17249932422405,2.17249932422405,1,2004
4,1996,0.660453005259632,0.660453005259631,1,2004
1,1997,0.939926060999885,0.939926060999885,1,2004
2,1997,4.98079735301333,4.98079735301333,1,2004
3,1997,2.78353619433771,2.78353619433771,1,2004
4,1997,4.09812727067931,4.09812727067931,1,2004
1,1998,3.2674433031352,3.2674433031352,1,2004
2,1998,1.59699200188972,1.59699200188972,1,2004
3,1998,2.18298175669338,2.18298175669338,1,2004
4,1998,1.08098977493745,1.08098977493745,1,2004
1,1999,3.64615255697471,3.64615255697471,1,2004
2,1999,2.30040226035957,2.30040226035957,1,2004
3,1999,5.06956639726,5.06956639726,1,2004
4,1999,4.31239854856027,4.31239854856027,1,2004
1,2000,3.85201938998963,3.85201938998963,1,2004
2,2000,3.51401942068157,3.51401942068157,1,2004
3,2000,1.29188395697091,1.29188395697091,1,2004
4,2000,2.49146910394755,2.49146910394755,1,2004
1,2001,2.7249600630479,2.7249600630479,1,2004
2,2001,0.0917830902954058,0.0917830902954053,1,2004
3,2001,0.776822286087908,0.776822286087908,1,2004
4,2001,-0.516730087300021,-0.516730087300021,1,2004
1,2002,1.53256420348793,1.53256420348793,1,2004
2,2002,1.97944645253352,1.97944645253352,1,2004
3,2002,0.891602966424077,0.891602966424077,1,2004
4,2002,0.0380902538851925,0.0380902538851923,1,2004
1,2003,-0.0660495724325139,-0.0660495724325139,1,2004
2,2003,-0.411664245131504,-0.411664245131504,1,2004
3,2003,1.54413532335784,1.54413532335784,1,2004
4,2003,1.79379800720546,1.76791300516812,1,2004
1,2004,1.98584622554977,1.95729390853669,1,2004
2,2004,2.10107515655636,2.10081244064965,1,2004
3,2004,2.15868962205966,2.20526388336906,1,2004
4,2004,2.17789444389409,2.27744351855697,1,2004
1,2005,,2.32414662807544,1,2004
2,2005,,2.35216849378652,1,2004
3,2005,,2.36617942664206,1,2004
4,2005,,2.37084973759391,1,2004
2,1991,1.23680375785793,1.23680375710236,2,2004
3,1991,-0.176886834836555,-0.176886834836554,2,2004
4,1991,3.92172157557782,3.92172157557782,2,2004
1,1992,6.04217381580257,6.04217381580257,2,2004
2,1992,-2.93743808552337,-2.93743808552337,2,2004
3,1992,-0.955255459237169,-0.95525545923717,2,2004
4,1992,-0.95568732456891,-0.95568732456891,2,2004
1,1993,-2.48451161113887,-2.48451161113887,2,2004
2,1993,0.0805734060246977,0.0805734060246977,2,2004
3,1993,1.54041094227029,1.54041094227029,2,2004
4,1993,1.14980929548998,1.14980929548998,2,2004
1,1994,3.92321559990896,3.92321559990896,2,2004
2,1994,2.38910520617481,2.38910520617481,2,2004
3,1994,2.668197930292,2.668197930292,2,2004
4,1994,3.22555029267828,3.22555029267828,2,2004
1,1995,2.19636581127913,2.19636581127913,2,2004
2,1995,2.31392851328849,2.31392851328849,2,2004
3,1995,0.827674771904374,0.827674771904374,2,2004
4,1995,0.951798232078249,0.951798232078249,2,2004
1,1996,0.573389156157699,0.5733891561577,2,2004
2,1996,2.89485178715583,2.89485178715583,2,2004
3,1996,2.17181660491499,2.17181660491499,2,2004
4,1996,0.660978584831273,0.660978584831273,2,2004
1,1997,0.945789283838615,0.945789283838616,2,2004
2,1997,4.98178071826427,4.98178071826427,2,2004
3,1997,2.77444866996395,2.77444866996395,2,2004
4,1997,4.10001292312934,4.10001292312934,2,2004
1,1998,3.27507502347986,3.27507502347986,2,2004
2,1998,1.59348046350496,1.59348046350496,2,2004
3,1998,2.17144100519002,2.17144100519002,2,2004
4,1998,1.09582656194693,1.09582656194693,2,2004
1,1999,3.62689159797995,3.62689159797995,2,2004
2,1999,2.2717104357922,2.2717104357922,2,2004
3,1999,5.06845921223624,5.06845921223624,2,2004
4,1999,4.45934479279371,4.45934479279371,2,2004
1,2000,3.68365024930128,3.68365024930128,2,2004
2,2000,3.53777112980604,3.53777112980604,2,2004
3,2000,1.24321455606704,1.24321455606704,2,2004
4,2000,2.43497184400618,2.43497184400618,2,2004
1,2001,2.75029207985662,2.75029207985662,2,2004
2,2001,0.153697694585553,0.153697694585552,2,2004
3,2001,0.67708529197259,0.67708529197259,2,2004
4,2001,-0.492219026269158,-0.492219026269159,2,2004
1,2002,1.52788054078064,1.52788054078064,2,2004
2,2002,2.01555566238183,2.01555566238183,2,2004
3,2002,0.916473438447363,0.916473438447363,2,2004
4,2002,-0.0214156115829867,-0.0214156115829867,2,2004
1,2003,-0.0685311600772564,-0.0685311600772565,2,2004
2,2003,-0.392662687754708,-0.392662687754708,2,2004
3,2003,1.50145319328734,1.50145319328734,2,2004
4,2003,1.2206482443631,1.2206482443631,2,2004
1,2004,1.70838992776733,1.70320760035829,2,2004
2,2004,2.00103493780987,1.99876660142381,2,2004
3,2004,2.14735744283114,2.15313418200014,2,2004
4,2004,2.19613161117156,2.21211927652775,2,2004
1,2005,,2.22153081944713,2,2004
2,2005,,2.22717774519876,2,2004
3,2005,,2.23000120807457,2,2004
4,2005,,2.23094236236651,2,2004
2,1991,1.20481980085028,1.20481980085028,3,2004
3,1991,-0.0720633628526139,-0.0720633628526146,3,2004
4,1991,3.89990879039976,3.89990879039976,3,2004
1,1992,6.06458349695251,6.06458349695251,3,2004
2,1992,-2.9444686551965,-2.9444686551965,3,2004
3,1992,-1.1254704306828,-1.1254704306828,3,2004
4,1992,-0.791187312154519,-0.791187312154518,3,2004
1,1993,-2.70751732880534,-2.70751732880534,3,2004
2,1993,0.286551075644014,0.286551075644014,3,2004
3,1993,1.65841135486269,1.65841135486269,3,2004
4,1993,1.06853233634536,1.06853233634536,3,2004
1,1994,3.76675260977311,3.76675260977311,3,2004
2,1994,2.47230940771093,2.47230940771093,3,2004
3,1994,2.73556453115444,2.73556453115444,3,2004
4,1994,3.25645358643454,3.25645358643454,3,2004
1,1995,2.1327853565889,2.1327853565889,3,2004
2,1995,2.28963247908589,2.28963247908589,3,2004
3,1995,0.792983897373967,0.792983897373967,3,2004
4,1995,1.04128338093847,1.04128338093847,3,2004
1,1996,0.633086665157623,0.633086665157623,3,2004
2,1996,2.88566209997347,2.88566209997347,3,2004
3,1996,1.96390262546313,1.96390262546313,3,2004
4,1996,0.686483661395477,0.686483661395476,3,2004
1,1997,0.962493015973621,0.96249301597362,3,2004
2,1997,5.00646957821864,5.00646957821864,3,2004
3,1997,2.86657265195309,2.86657265195309,3,2004
4,1997,4.12105558533187,4.12105558533187,3,2004
1,1998,3.11489910127047,3.11489910127047,3,2004
2,1998,1.71161840023251,1.71161840023251,3,2004
3,1998,2.21116077438785,2.21116077438785,3,2004
4,1998,1.02739473604325,1.02739473604325,3,2004
1,1999,3.45473143712363,3.45473143712363,3,2004
2,1999,2.46005296519909,2.46005296519909,3,2004
3,1999,5.14085854187154,5.14085854187154,3,2004
4,1999,4.44119484155119,4.44119484155119,3,2004
1,2000,3.5251130280664,3.5251130280664,3,2004
2,2000,3.55178096788709,3.55178096788709,3,2004
3,2000,1.4352537272408,1.4352537272408,3,2004
4,2000,2.35294860824353,2.35294860824353,3,2004
1,2001,2.65251321679645,2.65251321679645,3,2004
2,2001,0.188711192602466,0.188711192602464,3,2004
3,2001,0.901674260143004,0.901674260143004,3,2004
4,2001,-0.789993522596953,-0.789993522596955,3,2004
1,2002,1.73859702068373,1.73859702068373,3,2004
2,2002,1.84326142852482,1.84326142852482,3,2004
3,2002,0.862579821135734,0.862579821135734,3,2004
4,2002,0.155296646434478,0.155296646434478,3,2004
1,2003,0.0370349875334907,0.0370349875334908,3,2004
2,2003,-0.502886836210292,-0.502886836210292,3,2004
3,2003,1.73993831357775,1.73993831357775,3,2004
4,2003,1.51481498853732,1.51481498853732,3,2004
1,2004,2.5409912595127,2.5409912595127,3,2004
2,2004,2.00219262767704,1.88028087639509,3,2004
3,2004,1.73279331175921,1.75887539853897,3,2004
4,2004,1.6429935397866,1.95720657872334,3,2004
1,2005,,2.25570616972718,3,2004
2,2005,,2.43480592432948,3,2004
3,2005,,2.52435580163063,3,2004
4,2005,,2.55420576073101,3,2004
2,1991,1.27130803001545,1.27130803001545,4,2004
3,1991,0.0360791384520498,0.0360791384520502,4,2004
4,1991,3.8751203068526,3.8751203068526,4,2004
1,1992,6.10285553646228,6.10285553646228,4,2004
2,1992,-3.04203644998905,-3.04203644998905,4,2004
3,1992,-1.08262542702986,-1.08262542702986,4,2004
4,1992,-0.893850098285542,-0.893850098285542,4,2004
1,1993,-2.68698616035156,-2.68698616035156,4,2004
2,1993,0.311184604678561,0.31118460467856,4,2004
3,1993,1.72922362130457,1.72922362130457,4,2004
4,1993,1.06179711340368,1.06179711340368,4,2004
1,1994,3.72247770553864,3.72247770553864,4,2004
2,1994,2.49084033464957,2.49084033464957,4,2004
3,1994,2.83219302969537,2.83219302969537,4,2004
4,1994,3.06755222432633,3.06755222432633,4,2004
1,1995,2.41165698112673,2.41165698112673,4,2004
2,1995,2.1880868376349,2.1880868376349,4,2004
3,1995,0.62787119083767,0.62787119083767,4,2004
4,1995,1.06057172114293,1.06057172114293,4,2004
1,1996,0.772060080189019,0.772060080189018,4,2004
2,1996,2.8941296143721,2.8941296143721,4,2004
3,1996,2.03613872774726,2.03613872774726,4,2004
4,1996,0.677107903672303,0.677107903672303,4,2004
1,1997,0.91314478035136,0.913144780351359,4,2004
2,1997,5.07385234769131,5.07385234769131,4,2004
3,1997,2.84492460187971,2.84492460187971,4,2004
4,1997,4.12599286666646,4.12599286666646,4,2004
1,1998,3.04250281933156,3.04250281933156,4,2004
2,1998,1.76903373805424,1.76903373805424,4,2004
3,1998,2.17673628901147,2.17673628901147,4,2004
4,1998,1.03173489701567,1.03173489701567,4,2004
1,1999,3.49736738911368,3.49736738911368,4,2004
2,1999,2.52278387442311,2.52278387442311,4,2004
3,1999,5.15126442765514,5.15126442765514,4,2004
4,1999,4.38690632299099,4.38690632299099,4,2004
1,2000,3.6085309190228,3.6085309190228,4,2004
2,2000,3.55877061143477,3.55877061143477,4,2004
3,2000,1.30988499465576,1.30988499465576,4,2004
4,2000,2.27014280996294,2.27014280996294,4,2004
1,2001,2.99723741571918,2.99723741571918,4,2004
2,2001,-0.0791778720408587,-0.0791778720408596,4,2004
3,2001,0.868902968391017,0.868902968391017,4,2004
4,2001,-0.662916270505543,-0.662916270505543,4,2004
1,2002,1.65984761010638,1.65984761010638,4,2004
2,2002,1.57211675234106,1.57211675234106,4,2004
3,2002,1.10577646839178,1.10577646839178,4,2004
4,2002,0.209166650121606,0.209166650121606,4,2004
1,2003,0.115323539606549,0.115323539606549,4,2004
2,2003,-0.712827603975397,-0.712827603975397,4,2004
3,2003,1.90679980480979,1.90679980480979,4,2004
4,2003,1.50725670050251,1.50725670050251,4,2004
1,2004,2.76818296384049,2.76818296384049,4,2004
2,2004,2.01176869063398,2.01176869063398,4,2004
3,2004,1.90207010090823,1.87941833752573,4,2004
4,2004,1.86550390433298,1.91115484060615,4,2004
1,2005,,2.00597144991845,4,2004
2,2005,,2.06286141550583,4,2004
3,2005,,2.09130639829952,4,2004
4,2005,,2.10078805923075,4,2004
2,1991,1.2791353743181,1.27913537464163,1,2005
3,1991,0.0775189729543147,0.0775189729543155,1,2005
4,1991,3.9121579693201,3.9121579693201,1,2005
1,1992,6.00237740181573,6.00237740181573,1,2005
2,1992,-3.00461526703194,-3.00461526703194,1,2005
3,1992,-0.989428438320395,-0.989428438320394,1,2005
4,1992,-1.01459593468755,-1.01459593468755,1,2005
1,1993,-2.64917631432506,-2.64917631432506,1,2005
2,1993,0.300287609749117,0.300287609749117,1,2005
3,1993,1.71503933942885,1.71503933942885,1,2005
4,1993,1.10581581672331,1.10581581672331,1,2005
1,1994,3.68139344116585,3.68139344116585,1,2005
2,1994,2.5037171664311,2.5037171664311,1,2005
3,1994,2.92977905974812,2.92977905974812,1,2005
4,1994,2.90214451543989,2.90214451543989,1,2005
1,1995,2.54272310330121,2.54272310330121,1,2005
2,1995,2.11872837182963,2.11872837182963,1,2005
3,1995,0.649698281381639,0.649698281381639,1,2005
4,1995,0.997468379061739,0.997468379061739,1,2005
1,1996,0.889792928041455,0.889792928041455,1,2005
2,1996,2.86559132536683,2.86559132536683,1,2005
3,1996,1.98050483448378,1.98050483448378,1,2005
4,1996,0.61205135490634,0.61205135490634,1,2005
1,1997,1.1093854354884,1.1093854354884,1,2005
2,1997,4.97580749866213,4.97580749866213,1,2005
3,1997,2.75263210112249,2.75263210112249,1,2005
4,1997,4.14742416829503,4.14742416829503,1,2005
1,1998,3.11969375256518,3.11969375256518,1,2005
2,1998,1.71279048749078,1.71279048749078,1,2005
3,1998,2.25409890016837,2.25409890016837,1,2005
4,1998,0.961897520148881,0.96189752014888,1,2005
1,1999,3.61357869839736,3.61357869839736,1,2005
2,1999,2.41445692355493,2.41445692355493,1,2005
3,1999,5.09379120863997,5.09379120863998,1,2005
4,1999,4.47413500527272,4.47413500527272,1,2005
1,2000,3.60450107040111,3.60450107040111,1,2005
2,2000,3.64488396197731,3.64488396197731,1,2005
3,2000,1.37666468781024,1.37666468781024,1,2005
4,2000,2.145124619288,2.145124619288,1,2005
1,2001,3.04959479640878,3.04959479640878,1,2005
2,2001,-0.0440630335024168,-0.0440630335024177,1,2005
3,2001,0.768700947320089,0.768700947320089,1,2005
4,2001,-0.609843073732963,-0.609843073732963,1,2005
1,2002,1.81119159601986,1.81119159601986,1,2005
2,2002,1.51393022747301,1.51393022747301,1,2005
3,2002,1.18342359269559,1.18342359269559,1,2005
4,2002,0.0411298073279331,0.0411298073279329,1,2005
1,2003,0.134960954511709,0.134960954511709,1,2005
2,2003,-0.696094923422297,-0.696094923422297,1,2005
3,2003,2.13934360587582,2.13934360587582,1,2005
4,2003,1.58893831984304,1.58893831984304,1,2005
1,2004,2.65164831326712,2.65164831326712,1,2005
2,2004,1.88795915541298,1.88795915541298,1,2005
3,2004,1.06557062757231,1.06557062757231,1,2005
4,2004,1.51657826485007,1.51690951681533,1,2005
1,2005,1.8635072166022,1.86387248899026,1,2005
2,2005,2.07166458765347,2.07166757174108,1,2005
3,2005,2.17574327317911,2.1751465343854,1,2005
4,2005,2.21043616835432,2.20916114624083,1,2005
1,2006,,2.20856317662499,1,2005
2,2006,,2.20820439485548,1,2005
3,2006,,2.20802500397073,1,2005
4,2006,,2.20796520700915,1,2005
2,1991,1.3273055293223,1.32730552893315,2,2005
3,1991,-0.00989136913881583,-0.00989136913881472,2,2005
4,1991,3.6874790378107,3.6874790378107,2,2005
1,1992,5.56913459571129,5.56913459571129,2,2005
2,1992,-3.24931833171196,-3.24931833171196,2,2005
3,1992,-1.09671404950729,-1.09671404950729,2,2005
4,1992,-0.976517346110306,-0.976517346110306,2,2005
1,1993,-2.51714174283306,-2.51714174283306,2,2005
2,1993,0.402069847367237,0.402069847367237,2,2005
3,1993,1.76052046754207,1.76052046754207,2,2005
4,1993,1.11648163529066,1.11648163529066,2,2005
1,1994,3.63509045457196,3.63509045457195,2,2005
2,1994,2.5185084677573,2.5185084677573,2,2005
3,1994,2.96395407092978,2.96395407092978,2,2005
4,1994,3.00088373664442,3.00088373664442,2,2005
1,1995,2.68608470793115,2.68608470793115,2,2005
2,1995,2.18884944011568,2.18884944011568,2,2005
3,1995,0.651728250787742,0.651728250787742,2,2005
4,1995,0.954268871085806,0.954268871085806,2,2005
1,1996,0.781018825907264,0.781018825907265,2,2005
2,1996,2.81521751299116,2.81521751299116,2,2005
3,1996,2.00081819871867,2.00081819871867,2,2005
4,1996,0.671624096548972,0.671624096548973,2,2005
1,1997,1.23566759538072,1.23566759538072,2,2005
2,1997,5.05213416994686,5.05213416994685,2,2005
3,1997,2.7532244972156,2.7532244972156,2,2005
4,1997,4.08470502060205,4.08470502060205,2,2005
1,1998,2.97928080418541,2.97928080418541,2,2005
2,1998,1.59839181570882,1.59839181570882,2,2005
3,1998,2.16535310505472,2.16535310505472,2,2005
4,1998,0.838320126392577,0.838320126392578,2,2005
1,1999,3.46155196485403,3.46155196485403,2,2005
2,1999,2.37022065078718,2.37022065078718,2,2005
3,1999,5.15026351492123,5.15026351492123,2,2005
4,1999,4.6100854066089,4.6100854066089,2,2005
1,2000,3.86483063901413,3.86483063901413,2,2005
2,2000,3.77860634233844,3.77860634233844,2,2005
3,2000,1.46115732692553,1.46115732692553,2,2005
4,2000,2.21270312522885,2.21270312522885,2,2005
1,2001,3.03471726835818,3.03471726835818,2,2005
2,2001,-0.0445139274801729,-0.0445139274801716,2,2005
3,2001,0.797787403266171,0.79778740326617,2,2005
4,2001,-0.615344719824208,-0.615344719824207,2,2005
1,2002,1.89999236659002,1.89999236659002,2,2005
2,2002,1.50595591005263,1.50595591005263,2,2005
3,2002,1.27980657091091,1.27980657091091,2,2005
4,2002,0.0126784223657637,0.0126784223657639,2,2005
1,2003,0.0863352103286365,0.0863352103286364,2,2005
2,2003,-0.658404010451553,-0.658404010451552,2,2005
3,2003,2.29143656797417,2.29143656797417,2,2005
4,2003,1.59140964244777,1.59140964244777,2,2005
1,2004,2.91329083724004,2.91329083724003,2,2005
2,2004,1.82283980819367,1.82283980819367,2,2005
3,2004,1.02457601864663,1.02457601864663,2,2005
4,2004,0.644328771397617,0.644328771397618,2,2005
1,2005,1.55879050495021,1.66143743835257,2,2005
2,2005,2.10746754508176,2.15238561374354,2,2005
3,2005,2.38180606514754,2.26735670558372,2,2005
4,2005,2.4732522385028,2.15653412188628,2,2005
1,2006,,1.9701012706644,2,2005
2,2006,,1.85824155993128,2,2005
3,2006,,1.80231170456472,2,2005
4,2006,,1.78366841944253,2,2005
2,1991,0.555829759743797,0.555829759650329,3,2005
3,1991,0.296261452433756,0.296261452433755,3,2005
4,1991,3.87576254396107,3.87576254396107,3,2005
1,1992,4.89136523476013,4.89136523476013,3,2005
2,1992,-2.39345629860318,-2.39345629860318,3,2005
3,1992,-0.608309681043406,-0.608309681043406,3,2005
4,1992,-1.13752716507233,-1.13752716507233,3,2005
1,1993,-3.01518385683892,-3.01518385683892,3,2005
2,1993,0.680608744046563,0.680608744046563,3,2005
3,1993,1.84101582700162,1.84101582700162,3,2005
4,1993,1.17911957977415,1.17911957977415,3,2005
1,1994,3.42899631889366,3.42899631889366,3,2005
2,1994,2.93515729548695,2.93515729548695,3,2005
3,1994,3.21281346530455,3.21281346530455,3,2005
4,1994,3.12297189955981,3.12297189955981,3,2005
1,1995,2.63917478257767,2.63917478257767,3,2005
2,1995,2.69906306233525,2.69906306233525,3,2005
3,1995,1.04656414774773,1.04656414774773,3,2005
4,1995,0.589162778556318,0.589162778556318,3,2005
1,1996,0.615285007396804,0.615285007396805,3,2005
2,1996,3.14422367794056,3.14422367794056,3,2005
3,1996,1.98712591104626,1.98712591104626,3,2005
4,1996,0.826203917035095,0.826203917035096,3,2005
1,1997,1.69818680555398,1.69818680555398,3,2005
2,1997,5.20720115204942,5.20720115204942,3,2005
3,1997,2.83169607188007,2.83169607188008,3,2005
4,1997,4.14297255653191,4.14297255653191,3,2005
1,1998,3.17609355353814,3.17609355353814,3,2005
2,1998,1.47396073086428,1.47396073086428,3,2005
3,1998,2.12779108832082,2.12779108832082,3,2005
4,1998,0.547435433158694,0.547435433158694,3,2005
1,1999,3.59399741031847,3.59399741031847,3,2005
2,1999,2.41271258048044,2.41271258048044,3,2005
3,1999,5.00902962771845,5.00902962771845,3,2005
4,1999,4.8435749861323,4.8435749861323,3,2005
1,2000,4.07957972216386,4.07957972216386,3,2005
2,2000,3.59614320618509,3.59614320618509,3,2005
3,2000,1.80509870140875,1.80509870140875,3,2005
4,2000,2.7476058706901,2.7476058706901,3,2005
1,2001,2.88104582094595,2.88104582094595,3,2005
2,2001,0.377922592959989,0.377922592959989,3,2005
3,2001,0.848695362697249,0.848695362697249,3,2005
4,2001,-0.120566383516596,-0.120566383516596,3,2005
1,2002,1.36700778434078,1.36700778434078,3,2005
2,2002,1.55431279161309,1.55431279161309,3,2005
3,2002,1.58795443564599,1.58795443564599,3,2005
4,2002,0.205420741082629,0.205420741082629,3,2005
1,2003,0.259075370679263,0.259075370679263,3,2005
2,2003,-0.459103763114865,-0.459103763114865,3,2005
3,2003,2.01975573367639,2.01975573367639,3,2005
4,2003,1.84493231198462,1.84493231198462,3,2005
1,2004,2.56176655545857,2.56176655545857,3,2005
2,2004,1.84322005210154,1.84322005210154,3,2005
3,2004,1.0659378528894,1.0659378528894,3,2005
4,2004,0.637208690560165,0.637208690560165,3,2005
1,2005,1.89246134441026,1.89246134441026,3,2005
2,2005,1.57799427526135,1.47040030137273,3,2005
3,2005,1.4207607406869,1.44381560206695,3,2005
4,2005,1.36834956249541,1.64574926101794,3,2005
1,2006,,1.90924329275077,3,2005
2,2006,,2.06733971179046,3,2005
3,2006,,2.14638792131031,3,2005
4,2006,,2.17273732448359,3,2005
2,1991,0.472542366569957,0.472542366486057,4,2005
3,1991,0.248231853097014,0.248231853097014,4,2005
4,1991,3.8897978104617,3.8897978104617,4,2005
1,1992,4.90857609945596,4.90857609945596,4,2005
2,1992,-2.32958000905685,-2.32958000905685,4,2005
3,1992,-0.669839967683961,-0.669839967683961,4,2005
4,1992,-1.12894134611107,-1.12894134611107,4,2005
1,1993,-3.0057641213536,-3.0057641213536,4,2005
2,1993,0.674577159691946,0.674577159691947,4,2005
3,1993,1.74997477897223,1.74997477897223,4,2005
4,1993,1.22017253227869,1.22017253227869,4,2005
1,1994,3.43288683394709,3.43288683394709,4,2005
2,1994,2.88271984399262,2.88271984399262,4,2005
3,1994,3.25830290892175,3.25830290892175,4,2005
4,1994,3.23611547498819,3.23611547498819,4,2005
1,1995,2.74021940548166,2.74021940548166,4,2005
2,1995,2.82256774094713,2.82256774094714,4,2005
3,1995,1.14345928724287,1.14345928724286,4,2005
4,1995,0.5489538470421,0.5489538470421,4,2005
1,1996,0.523353153929596,0.523353153929596,4,2005
2,1996,3.17921425259053,3.17921425259053,4,2005
3,1996,2.01801451485526,2.01801451485526,4,2005
4,1996,0.838728575691539,0.838728575691539,4,2005
1,1997,1.67455314506748,1.67455314506748,4,2005
2,1997,5.21240866427861,5.21240866427861,4,2005
3,1997,2.81796709107731,2.81796709107731,4,2005
4,1997,4.12800450283974,4.12800450283974,4,2005
1,1998,3.13425558848097,3.13425558848097,4,2005
2,1998,1.52251611292689,1.52251611292689,4,2005
3,1998,2.1522931263837,2.1522931263837,4,2005
4,1998,0.547181704549994,0.547181704549993,4,2005
1,1999,3.3440982135136,3.3440982135136,4,2005
2,1999,2.58240548669271,2.58240548669271,4,2005
3,1999,5.17785662083674,5.17785662083674,4,2005
4,1999,4.81561575576923,4.81561575576923,4,2005
1,2000,4.17306020110577,4.17306020110577,4,2005
2,2000,3.57445928906195,3.57445928906195,4,2005
3,2000,1.68921775869153,1.68921775869153,4,2005
4,2000,2.54762648722564,2.54762648722564,4,2005
1,2001,2.9201722105908,2.9201722105908,4,2005
2,2001,0.447794211765085,0.447794211765085,4,2005
3,2001,0.785199682929316,0.785199682929316,4,2005
4,2001,-0.0146692094912244,-0.0146692094912247,4,2005
1,2002,1.01213519648808,1.01213519648808,4,2005
2,2002,1.57459734711691,1.57459734711691,4,2005
3,2002,1.56619948616876,1.56619948616876,4,2005
4,2002,0.332271375644933,0.332271375644932,4,2005
1,2003,0.100999372280008,0.100999372280008,4,2005
2,2003,-0.450750852742487,-0.450750852742488,4,2005
3,2003,2.26073272840306,2.26073272840306,4,2005
4,2003,1.83370634033191,1.83370634033191,4,2005
1,2004,2.6741527260401,2.6741527260401,4,2005
2,2004,1.81678032112724,1.81678032112724,4,2005
3,2004,1.09535056896675,1.09535056896675,4,2005
4,2004,0.713250824778556,0.713250824778555,4,2005
1,2005,1.51093298551361,1.51093298551361,4,2005
2,2005,1.21996701967124,1.21996701967124,4,2005
3,2005,1.60641459889738,1.59928083897358,4,2005
4,2005,1.73523045863943,1.74962603764281,4,2005
1,2006,,1.77951011127003,4,2005
2,2006,,1.79744055544636,4,2005
3,2006,,1.80640577753452,4,2005
4,2006,,1.80939418489725,4,2005
2,1991,0.472542148356703,0.472542148356703,1,2006
3,1991,0.248231839187985,0.248231839187985,1,2006
4,1991,3.88979776137965,3.88979776137965,1,2006
1,1992,4.90857613207749,4.90857613207749,1,2006
2,1992,-2.32957985206096,-2.32957985206096,1,2006
3,1992,-0.669840070936989,-0.669840070936989,1,2006
4,1992,-1.12894120603166,-1.12894120603166,1,2006
1,1993,-3.00576423971767,-3.00576423971767,1,2006
2,1993,0.674577310596902,0.674577310596902,1,2006
3,1993,1.74997454526191,1.74997454526191,1,2006
4,1993,1.22017254096978,1.22017254096978,1,2006
1,1994,3.43288694156636,3.43288694156636,1,2006
2,1994,2.88271991629148,2.88271991629148,1,2006
3,1994,3.25830273947281,3.25830273947281,1,2006
4,1994,3.23611567773709,3.23611567773709,1,2006
1,1995,2.74021929361845,2.74021929361845,1,2006
2,1995,2.78992571342016,2.78992571342016,1,2006
3,1995,1.26357514311268,1.26357514311268,1,2006
4,1995,0.47044148160289,0.47044148160289,1,2006
1,1996,0.462680235417201,0.462680235417201,1,2006
2,1996,3.25645880088747,3.25645880088747,1,2006
3,1996,2.01486376058964,2.01486376058964,1,2006
4,1996,0.776132910938676,0.776132910938676,1,2006
1,1997,1.68599219094026,1.68599219094026,1,2006
2,1997,5.19168190965609,5.19168190965609,1,2006
3,1997,2.86990585730837,2.86990585730837,1,2006
4,1997,4.31270278816551,4.31270278816551,1,2006
1,1998,2.55661147471518,2.55661147471518,1,2006
2,1998,1.73614391897308,1.73614391897308,1,2006
3,1998,2.27942061051223,2.27942061051223,1,2006
4,1998,0.609107989994984,0.609107989994984,1,2006
1,1999,3.59402348719797,3.59402348719797,1,2006
2,1999,2.66457816103955,2.66457816103955,1,2006
3,1999,5.22007789198553,5.22007789198553,1,2006
4,1999,5.00224732329964,5.00224732329964,1,2006
1,2000,4.67379057444781,4.67379057444781,1,2006
2,2000,3.50304194831674,3.50304194831674,1,2006
3,2000,1.82590828957776,1.82590828957776,1,2006
4,2000,2.67287957599611,2.67287957599611,1,2006
1,2001,2.99460386435011,2.99460386435011,1,2006
2,2001,0.585958420375343,0.585958420375343,1,2006
3,2001,0.773366063018055,0.773366063018055,1,2006
4,2001,0.0768756201272369,0.0768756201272369,1,2006
1,2002,1.20962650310661,1.20962650310661,1,2006
2,2002,1.61152665533955,1.61152665533955,1,2006
3,2002,1.49071106038685,1.49071106038685,1,2006
4,2002,0.404282385513,0.404282385513,1,2006
1,2003,0.297729439107464,0.297729439107464,1,2006
2,2003,-0.42803304215735,-0.42803304215735,1,2006
3,2003,2.218303298405,2.218303298405,1,2006
4,2003,1.79555585707345,1.79555585707345,1,2006
1,2004,2.82319770299755,2.82319770299755,1,2006
2,2004,1.80773830654322,1.80773830654322,1,2006
3,2004,1.0543108811129,1.0543108811129,1,2006
4,2004,0.821008500716114,0.821008500716114,1,2006
1,2005,1.3103293236534,1.3103293236534,1,2006
2,2005,1.66852741223982,1.66852741223982,1,2006
3,2005,2.61752747356161,2.61752747356161,1,2006
4,2005,2.24893817352716,2.20740496975836,1,2006
1,2006,1.96540794273142,1.91959598235449,1,2006
2,2006,1.79528980425399,1.79487168348312,1,2006
3,2006,1.71023073501527,1.78496698014068,1,2006
4,2006,1.68187771193569,1.84161677932356,1,2006
1,2007,,1.91655598802818,1,2006
2,2007,,1.96151951325095,1,2006
3,2007,,1.98400127586234,1,2006
4,2007,,1.9914951967328,1,2006
2,1991,0.472542335988924,0.472542335902398,2,2006
3,1991,0.248231903565154,0.248231903565155,2,2006
4,1991,3.88979768533899,3.88979768533899,2,2006
1,1992,4.90857614366682,4.90857614366682,2,2006
2,1992,-2.32957985500219,-2.3295798550022,2,2006
3,1992,-0.669840176860426,-0.669840176860426,2,2006
4,1992,-1.12894134843369,-1.12894134843369,2,2006
1,1993,-3.00576411525677,-3.00576411525677,2,2006
2,1993,0.674577159827105,0.674577159827106,2,2006
3,1993,1.74997479179093,1.74997479179093,2,2006
4,1993,1.22017253591729,1.22017253591729,2,2006
1,1994,3.43288695803488,3.43288695803488,2,2006
2,1994,2.88271976556722,2.88271976556722,2,2006
3,1994,3.25830297440193,3.25830297440193,2,2006
4,1994,3.236115369523,3.236115369523,2,2006
1,1995,2.74021946028724,2.74021946028724,2,2006
2,1995,2.84904696953814,2.84904696953814,2,2006
3,1995,1.50732393179966,1.50732393179966,2,2006
4,1995,0.587815452588747,0.587815452588747,2,2006
1,1996,0.272816666982489,0.272816666982489,2,2006
2,1996,3.20375282532814,3.20375282532814,2,2006
3,1996,1.93464638589336,1.93464638589336,2,2006
4,1996,0.765794070502235,0.765794070502235,2,2006
1,1997,2.30076724000603,2.30076724000603,2,2006
2,1997,4.46822464205774,4.46822464205774,2,2006
3,1997,2.84823220093999,2.84823220093999,2,2006
4,1997,4.36174603279265,4.36174603279265,2,2006
1,1998,2.70887823321491,2.70887823321491,2,2006
2,1998,1.60685522690465,1.60685522690465,2,2006
3,1998,2.32352565441405,2.32352565441405,2,2006
4,1998,0.702591708432965,0.702591708432965,2,2006
1,1999,3.47125988052965,3.47125988052965,2,2006
2,1999,2.6978157668595,2.6978157668595,2,2006
3,1999,5.28697274579839,5.28697274579839,2,2006
4,1999,4.99382178618149,4.99382178618149,2,2006
1,2000,4.42168502169058,4.42168502169058,2,2006
2,2000,3.72000484380859,3.72000484380859,2,2006
3,2000,1.92653711534894,1.92653711534894,2,2006
4,2000,2.91261773601721,2.91261773601721,2,2006
1,2001,2.98383481037732,2.98383481037732,2,2006
2,2001,0.427055601085646,0.427055601085646,2,2006
3,2001,0.660713382055756,0.660713382055755,2,2006
4,2001,-0.0192742806488067,-0.0192742806488067,2,2006
1,2002,1.35830328697402,1.35830328697402,2,2006
2,2002,1.64560429686427,1.64560429686427,2,2006
3,2002,1.560203588945,1.560203588945,2,2006
4,2002,0.201050414979798,0.201050414979798,2,2006
1,2003,0.240592347218916,0.240592347218915,2,2006
2,2003,-0.432168545104839,-0.432168545104839,2,2006
3,2003,2.14540100641061,2.14540100641061,2,2006
4,2003,1.89364495954538,1.89364495954538,2,2006
1,2004,2.78355713820486,2.78355713820486,2,2006
2,2004,1.76306297839137,1.76306297839137,2,2006
3,2004,1.05681617059443,1.05681617059443,2,2006
4,2004,0.663182931825523,0.663182931825523,2,2006
1,2005,1.30417507240215,1.30417507240215,2,2006
2,2005,1.688640901677,1.688640901677,2,2006
3,2005,2.76361378021872,2.76361378021872,2,2006
4,2005,1.27668180039953,1.27668180039953,2,2006
1,2006,1.94700239886361,2.10884928091657,2,2006
2,2006,2.34919475794206,2.42000762986152,2,2006
3,2006,2.55029093748128,2.36980633940324,2,2006
4,2006,2.61732299732769,2.11789490171056,2,2006
1,2007,,1.82392280895233,2,2006
2,2007,,1.64753955329739,2,2006
3,2007,,1.55934792546992,2,2006
4,2007,,1.5299507161941,2,2006
2,1991,0.472542424052757,0.472542424055327,3,2006
3,1991,0.248231736612836,0.248231736612837,3,2006
4,1991,3.88979786939752,3.88979786939752,3,2006
1,1992,4.90857610632414,4.90857610632413,3,2006
2,1992,-2.32957997679664,-2.32957997679664,3,2006
3,1992,-0.669840020873169,-0.66984002087317,3,2006
4,1992,-1.12894121997055,-1.12894121997055,3,2006
1,1993,-3.00576420123838,-3.00576420123838,3,2006
2,1993,0.674577165475188,0.674577165475188,3,2006
3,1993,1.7499747201825,1.7499747201825,3,2006
4,1993,1.22017262521048,1.22017262521048,3,2006
1,1994,3.43288683889891,3.43288683889891,3,2006
2,1994,2.88271983759207,2.88271983759207,3,2006
3,1994,3.2583029855827,3.2583029855827,3,2006
4,1994,3.23611545494098,3.23611545494098,3,2006
1,1995,2.74021929118449,2.74021929118449,3,2006
2,1995,2.58256403611275,2.58256403611274,3,2006
3,1995,1.47093449062998,1.47093449062998,3,2006
4,1995,0.906579985762557,0.906579985762557,3,2006
1,1996,0.031001555357757,0.0310015553577578,3,2006
2,1996,3.32188690482629,3.32188690482629,3,2006
3,1996,1.94842119185874,1.94842119185874,3,2006
4,1996,0.869746546089555,0.869746546089556,3,2006
1,1997,2.2648689651098,2.2648689651098,3,2006
2,1997,4.3489085735493,4.3489085735493,3,2006
3,1997,2.85571151985009,2.85571151985009,3,2006
4,1997,4.04044355034765,4.04044355034765,3,2006
1,1998,2.76251307662991,2.76251307662991,3,2006
2,1998,1.57594754667567,1.57594754667567,3,2006
3,1998,2.39427533742969,2.39427533742969,3,2006
4,1998,0.830103533677739,0.830103533677739,3,2006
1,1999,3.49647251215484,3.49647251215484,3,2006
2,1999,2.74199405075839,2.74199405075839,3,2006
3,1999,5.11351690845443,5.11351690845443,3,2006
4,1999,4.90464151148293,4.90464151148293,3,2006
1,2000,4.69799991699675,4.69799991699675,3,2006
2,2000,3.84924576937644,3.84924576937644,3,2006
3,2000,1.91686346711899,1.91686346711899,3,2006
4,2000,2.84085259748339,2.84085259748339,3,2006
1,2001,3.20032882297914,3.20032882297914,3,2006
2,2001,0.508107341960806,0.508107341960806,3,2006
3,2001,0.259891977681437,0.259891977681437,3,2006
4,2001,0.326514719270965,0.326514719270965,3,2006
1,2002,1.14262045074665,1.14262045074665,3,2006
2,2002,1.74855893947652,1.74855893947652,3,2006
3,2002,1.65862051872139,1.65862051872139,3,2006
4,2002,0.146665036632143,0.146665036632143,3,2006
1,2003,0.384794434780456,0.384794434780455,3,2006
2,2003,-0.170891764364734,-0.170891764364733,3,2006
3,2003,2.06677048510504,2.06677048510504,3,2006
4,2003,1.89042639890633,1.89042639890633,3,2006
1,2004,3.05095544278109,3.05095544278109,3,2006
2,2004,1.71415934563037,1.71415934563037,3,2006
3,2004,0.917160455562005,0.917160455562005,3,2006
4,2004,0.582884460355593,0.582884460355593,3,2006
1,2005,1.48915908821676,1.48915908821676,3,2006
2,2005,1.68825125661056,1.68825125661056,3,2006
3,2005,2.48244376567803,2.48244376567803,3,2006
4,2005,1.12022702173018,1.12022702173018,3,2006
1,2006,2.52638186666592,2.52638186666592,3,2006
2,2006,2.51625708980906,2.65833273255926,3,2006
3,2006,2.51119470138064,2.48072760156831,3,2006
4,2006,2.50950723857116,2.14314810388071,3,2006
1,2007,,1.79517586968411,3,2006
2,2007,,1.58639252916614,3,2006
3,2007,,1.48200085890716,3,2006
4,2007,,1.4472036354875,3,2006
2,1991,0.472542414609479,0.472542414693724,4,2006
3,1991,0.24823190840788,0.248231908407881,4,2006
4,1991,3.8897976651725,3.8897976651725,4,2006
1,1992,4.90857616135785,4.90857616135785,4,2006
2,1992,-2.32958011031948,-2.32958011031947,4,2006
3,1992,-0.66983979210462,-0.669839792104621,4,2006
4,1992,-1.1289414776344,-1.1289414776344,4,2006
1,1993,-3.00576403385914,-3.00576403385914,4,2006
2,1993,0.67457715135364,0.674577151353639,4,2006
3,1993,1.74997458894688,1.74997458894688,4,2006
4,1993,1.22017258483029,1.22017258483029,4,2006
1,1994,3.43288705759708,3.43288705759708,4,2006
2,1994,2.88271975665633,2.88271975665633,4,2006
3,1994,3.25830279695316,3.25830279695316,4,2006
4,1994,3.23611541071247,3.23611541071247,4,2006
1,1995,2.74021953628256,2.74021953628256,4,2006
2,1995,2.480815645222,2.480815645222,4,2006
3,1995,1.45527726697392,1.45527726697392,4,2006
4,1995,0.882949645790587,0.882949645790587,4,2006
1,1996,0.0644305530941073,0.064430553094108,4,2006
2,1996,3.21710117763512,3.21710117763512,4,2006
3,1996,2.03435312495666,2.03435312495666,4,2006
4,1996,0.836563515296062,0.836563515296063,4,2006
1,1997,2.10560026549771,2.10560026549771,4,2006
2,1997,4.55791446276464,4.55791446276463,4,2006
3,1997,2.89714071748415,2.89714071748415,4,2006
4,1997,4.02152894878458,4.02152894878458,4,2006
1,1998,2.83038201564165,2.83038201564165,4,2006
2,1998,1.54013522291376,1.54013522291376,4,2006
3,1998,2.39368561021556,2.39368561021556,4,2006
4,1998,0.85404542564964,0.854045425649641,4,2006
1,1999,3.55797019129218,3.55797019129218,4,2006
2,1999,2.63135892959254,2.63135892959254,4,2006
3,1999,5.20553758437792,5.20553758437792,4,2006
4,1999,5.09288354936954,5.09288354936954,4,2006
1,2000,4.69264804004654,4.69264804004654,4,2006
2,2000,3.65208400928301,3.65208400928301,4,2006
3,2000,1.90427499249708,1.90427499249708,4,2006
4,2000,2.9190603210953,2.9190603210953,4,2006
1,2001,3.10071823687881,3.10071823687881,4,2006
2,2001,0.431776987618159,0.43177698761816,4,2006
3,2001,0.291838750635143,0.291838750635143,4,2006
4,2001,0.328588195647539,0.328588195647539,4,2006
1,2002,0.931672354516211,0.931672354516211,4,2006
2,2002,1.64907575664262,1.64907575664262,4,2006
3,2002,1.57067312620882,1.57067312620882,4,2006
4,2002,0.193171854441409,0.19317185444141,4,2006
1,2003,0.677091239593475,0.677091239593475,4,2006
2,2003,-0.509314722986865,-0.509314722986864,4,2006
3,2003,2.13613066649043,2.13613066649043,4,2006
4,2003,1.84636951619976,1.84636951619976,4,2006
1,2004,2.89232520486191,2.89232520486191,4,2006
2,2004,1.21549390745694,1.21549390745694,4,2006
3,2004,0.852250305356694,0.852250305356694,4,2006
4,2004,0.892131629633552,0.892131629633552,4,2006
1,2005,1.7409389208908,1.7409389208908,4,2006
2,2005,1.52575572053961,1.52575572053961,4,2006
3,2005,2.51751792236223,2.51751792236223,4,2006
4,2005,1.50782647719165,1.50782647719165,4,2006
1,2006,3.12879544303841,3.12879544303841,4,2006
2,2006,3.77925156007992,3.77925156007992,4,2006
3,2006,2.3779965495734,2.39412444790456,4,2006
4,2006,1.91091154607122,1.87837251931614,4,2006
1,2007,,1.81081890532036,4,2006
2,2007,,1.77028673692289,4,2006
3,2007,,1.75002065272415,4,2006
4,2007,,1.74326529132457,4,2006
2,1991,0.472542368034445,0.472542368210933,1,2007
3,1991,0.24823185212337,0.248231852123371,1,2007
4,1991,3.88979781129497,3.88979781129497,1,2007
1,1992,4.90857609689051,4.90857609689051,1,2007
2,1992,-2.32958000761242,-2.32958000761242,1,2007
3,1992,-0.669839967312357,-0.669839967312358,1,2007
4,1992,-1.12894134749469,-1.12894134749469,1,2007
1,1993,-3.00576411942616,-3.00576411942616,1,2007
2,1993,0.674577159683287,0.674577159683287,1,2007
3,1993,1.74997477807253,1.74997477807253,1,2007
4,1993,1.22017253173419,1.22017253173419,1,2007
1,1994,3.43288683323846,3.43288683323846,1,2007
2,1994,2.88271984385344,2.88271984385344,1,2007
3,1994,3.25830290937446,3.25830290937446,1,2007
4,1994,3.23611547503075,3.23611547503075,1,2007
1,1995,2.74021940614984,2.74021940614984,1,2007
2,1995,2.64665898573711,2.64665898573711,1,2007
3,1995,1.39070913165744,1.39070913165744,1,2007
4,1995,0.972549035453141,0.972549035453141,1,2007
1,1996,0.0696353848448342,0.069635384844835,1,2007
2,1996,3.22601670109541,3.22601670109541,1,2007
3,1996,1.95800427104027,1.95800427104027,1,2007
4,1996,0.889066588558385,0.889066588558385,1,2007
1,1997,2.027470169078,2.02747016907801,1,2007
2,1997,4.57289104202741,4.57289104202741,1,2007
3,1997,2.90281210296785,2.90281210296786,1,2007
4,1997,4.04768093656986,4.04768093656986,1,2007
1,1998,2.62963894296557,2.62963894296557,1,2007
2,1998,1.62980100768106,1.62980100768106,1,2007
3,1998,2.43171251828327,2.43171251828327,1,2007
4,1998,0.889385455472902,0.889385455472902,1,2007
1,1999,3.53582609503,3.53582609503,1,2007
2,1999,2.69360827665908,2.69360827665908,1,2007
3,1999,5.04254370283213,5.04254370283213,1,2007
4,1999,5.00594700611203,5.00594700611203,1,2007
1,2000,4.80227458528038,4.80227458528038,1,2007
2,2000,3.63908980748175,3.63908980748175,1,2007
3,2000,1.88989150108014,1.88989150108014,1,2007
4,2000,2.85940568749477,2.85940568749477,1,2007
1,2001,3.11527691046145,3.11527691046145,1,2007
2,2001,0.47922303244885,0.47922303244885,1,2007
3,2001,0.212597261541014,0.212597261541014,1,2007
4,2001,0.404775949865233,0.404775949865233,1,2007
1,2002,0.843002485782396,0.843002485782396,1,2007
2,2002,1.67954966426196,1.67954966426196,1,2007
3,2002,1.64845043867397,1.64845043867397,1,2007
4,2002,0.158603623601405,0.158603623601406,1,2007
1,2003,0.498191569720552,0.498191569720552,1,2007
2,2003,-0.399400439002906,-0.399400439002906,1,2007
3,2003,2.19917377396635,2.19917377396635,1,2007
4,2003,1.87515169041435,1.87515169041435,1,2007
1,2004,2.88781640392806,2.88781640392806,1,2007
2,2004,1.30748772875895,1.30748772875895,1,2007
3,2004,0.946133524458315,0.946133524458315,1,2007
4,2004,0.870407225816927,0.870407225816927,1,2007
1,2005,1.59916986146202,1.59916986146202,1,2007
2,2005,1.44614665455132,1.44614665455132,1,2007
3,2005,2.60513565656542,2.60513565656542,1,2007
4,2005,1.51500774791715,1.51500774791715,1,2007
1,2006,3.33074624641807,3.33074624641807,1,2007
2,2006,4.02085637233309,4.02085637233309,1,2007
3,2006,2.12341374502176,2.12341374502176,1,2007
4,2006,2.0296487420393,1.98723300206909,1,2007
1,2007,1.95752181666818,1.91073651094702,1,2007
2,2007,1.91424566144551,1.91381902226575,1,2007
3,2007,1.89260758383417,1.96893259697885,1,2007
4,2007,1.88539489129706,2.04852929603986,1,2007
1,2008,,2.12506118040232,1,2007
2,2008,,2.1709803110198,1,2007
3,2008,,2.19393987632854,1,2007
4,2008,,2.20159306476479,1,2007
2,1991,0.472542367737017,0.472542367912887,2,2007
3,1991,0.248231853796344,0.248231853796344,2,2007
4,1991,3.88979781079914,3.88979781079914,2,2007
1,1992,4.90857609692299,4.90857609692299,2,2007
2,1992,-2.32958000732851,-2.32958000732851,2,2007
3,1992,-0.669839968852493,-0.669839968852493,2,2007
4,1992,-1.12894134416554,-1.12894134416554,2,2007
1,1993,-3.00576412195293,-3.00576412195292,2,2007
2,1993,0.674577157633105,0.674577157633104,2,2007
3,1993,1.7499747799856,1.7499747799856,2,2007
4,1993,1.22017253115438,1.22017253115439,2,2007
1,1994,3.43288683480183,3.43288683480183,2,2007
2,1994,2.88271984513331,2.88271984513331,2,2007
3,1994,3.25830290835503,3.25830290835503,2,2007
4,1994,3.23611547553799,3.23611547553799,2,2007
1,1995,2.74021940497011,2.74021940497011,2,2007
2,1995,2.65817924241381,2.6581792424138,2,2007
3,1995,1.37658257168221,1.37658257168221,2,2007
4,1995,1.01705811647173,1.01705811647173,2,2007
1,1996,0.0668651129480002,0.0668651129480011,2,2007
2,1996,3.20207054394723,3.20207054394723,2,2007
3,1996,1.92806415348232,1.92806415348232,2,2007
4,1996,0.90983371753135,0.90983371753135,2,2007
1,1997,2.01460256399377,2.01460256399377,2,2007
2,1997,4.58681724305579,4.58681724305578,2,2007
3,1997,2.93094231491193,2.93094231491193,2,2007
4,1997,4.0186762423861,4.0186762423861,2,2007
1,1998,2.6024781101901,2.6024781101901,2,2007
2,1998,1.65623193403344,1.65623193403344,2,2007
3,1998,2.45546956114988,2.45546956114988,2,2007
4,1998,0.882854483920159,0.88285448392016,2,2007
1,1999,3.52752361829449,3.52752361829449,2,2007
2,1999,2.71253375291842,2.71253375291842,2,2007
3,1999,5.03789565121191,5.03789565121191,2,2007
4,1999,4.94357178670632,4.94357178670632,2,2007
1,2000,4.86155476050205,4.86155476050205,2,2007
2,2000,3.62762687981306,3.62762687981306,2,2007
3,2000,1.87737823705236,1.87737823705236,2,2007
4,2000,2.86393629518618,2.86393629518618,2,2007
1,2001,3.11479393697189,3.11479393697189,2,2007
2,2001,0.463136285857568,0.463136285857569,2,2007
3,2001,0.243200685340494,0.243200685340495,2,2007
4,2001,0.415095441030067,0.415095441030067,2,2007
1,2002,0.818863025171845,0.818863025171845,2,2007
2,2002,1.69612956664436,1.69612956664436,2,2007
3,2002,1.60029520800022,1.60029520800022,2,2007
4,2002,0.214040329124954,0.214040329124954,2,2007
1,2003,0.50371434376626,0.503714343766259,2,2007
2,2003,-0.384324756196974,-0.384324756196973,2,2007
3,2003,2.19991590537147,2.19991590537147,2,2007
4,2003,1.85022460098572,1.85022460098572,2,2007
1,2004,3.02260409074351,3.02260409074351,2,2007
2,2004,1.29600753583983,1.29600753583983,2,2007
3,2004,0.96828444142778,0.96828444142778,2,2007
4,2004,0.867887194329642,0.867887194329642,2,2007
1,2005,1.6619489075137,1.6619489075137,2,2007
2,2005,1.50233199020293,1.50233199020293,2,2007
3,2005,2.60734438801291,2.60734438801291,2,2007
4,2005,1.43502323785119,1.43502323785119,2,2007
1,2006,3.37121057718661,3.37121057718661,2,2007
2,2006,4.00173074695978,4.00173074695977,2,2007
3,2006,2.35369364645217,2.35369364645217,2,2007
4,2006,3.59215224383174,3.59215224383174,2,2007
1,2007,2.53693607140327,2.35485964798756,2,2007
2,2007,1.9038063679462,1.82414351006592,2,2007
3,2007,1.58724151621766,1.79028793127606,2,2007
4,2007,1.48171989897481,2.0435770128272,2,2007
1,2008,,2.37429485592857,2,2007
2,2008,,2.57272556178939,2,2007
3,2008,,2.67194091471979,2,2007
4,2008,,2.70501269902993,2,2007
2,1991,0.472542367649031,0.472542367647732,3,2007
3,1991,0.248231853796343,0.248231853796345,3,2007
4,1991,3.88979781079915,3.88979781079914,3,2007
1,1992,4.90857609692299,4.90857609692299,3,2007
2,1992,-2.32958000732851,-2.32958000732851,3,2007
3,1992,-0.669839968852493,-0.669839968852493,3,2007
4,1992,-1.12894134416554,-1.12894134416554,3,2007
1,1993,-3.00576412195293,-3.00576412195292,3,2007
2,1993,0.674577157633105,0.674577157633105,3,2007
3,1993,1.7499747799856,1.7499747799856,3,2007
4,1993,1.22017253115438,1.22017253115438,3,2007
1,1994,3.43288683480183,3.43288683480183,3,2007
2,1994,2.88271984513331,2.88271984513331,3,2007
3,1994,3.25830290835503,3.25830290835503,3,2007
4,1994,3.23611547553799,3.23611547553799,3,2007
1,1995,2.74021940497011,2.74021940497011,3,2007
2,1995,2.62072171367564,2.62072171367564,3,2007
3,1995,1.48487249518479,1.48487249518479,3,2007
4,1995,1.10884294858951,1.10884294858951,3,2007
1,1996,-0.0637607212707447,-0.0637607212707434,3,2007
2,1996,3.19061465948125,3.19061465948125,3,2007
3,1996,2.08286744308241,2.08286744308241,3,2007
4,1996,0.837094837287755,0.837094837287755,3,2007
1,1997,1.84599408625308,1.84599408625308,3,2007
2,1997,4.93275053173461,4.93275053173461,3,2007
3,1997,2.77306396985604,2.77306396985604,3,2007
4,1997,4.05306944305683,4.05306944305683,3,2007
1,1998,2.52538698297735,2.52538698297735,3,2007
2,1998,1.71784469217773,1.71784469217773,3,2007
3,1998,2.44007154618557,2.44007154618557,3,2007
4,1998,0.990449133335125,0.990449133335126,3,2007
1,1999,3.44985532605262,3.44985532605262,3,2007
2,1999,2.85714933015324,2.85714933015324,3,2007
3,1999,4.9890096548785,4.9890096548785,3,2007
4,1999,4.97961594159246,4.97961594159246,3,2007
1,2000,4.75553983962727,4.75553983962727,3,2007
2,2000,3.67631486808739,3.67631486808739,3,2007
3,2000,1.81107328293091,1.81107328293091,3,2007
4,2000,2.75607746495226,2.75607746495226,3,2007
1,2001,3.1592658914277,3.1592658914277,3,2007
2,2001,0.392537232479118,0.392537232479118,3,2007
3,2001,0.37608225588539,0.376082255885391,3,2007
4,2001,0.569358777349915,0.569358777349915,3,2007
1,2002,0.745846601132483,0.745846601132483,3,2007
2,2002,1.67273117791487,1.67273117791487,3,2007
3,2002,1.56859386029085,1.56859386029085,3,2007
4,2002,0.169753716579213,0.169753716579213,3,2007
1,2003,0.542553074220353,0.542553074220353,3,2007
2,2003,-0.311157688140395,-0.311157688140395,3,2007
3,2003,2.12374495460477,2.12374495460477,3,2007
4,2003,1.98460095737352,1.98460095737352,3,2007
1,2004,2.86852229513173,2.86852229513173,3,2007
2,2004,1.41581964348456,1.41581964348456,3,2007
3,2004,1.18706706801459,1.18706706801459,3,2007
4,2004,1.00951449404214,1.00951449404214,3,2007
1,2005,1.67498144072502,1.67498144072502,3,2007
2,2005,1.87406527164211,1.87406527164211,3,2007
3,2005,2.60356456804556,2.60356456804556,3,2007
4,2005,1.49599110750773,1.49599110750773,3,2007
1,2006,3.70973239156796,3.70973239156795,3,2007
2,2006,3.71999565944399,3.71999565944399,3,2007
3,2006,2.34929709451668,2.34929709451668,3,2007
4,2006,3.61536499631945,3.61536499631945,3,2007
1,2007,2.85398477592851,2.85398477592851,3,2007
2,2007,2.25351163419294,2.15821180155638,3,2007
3,2007,1.95327506332516,1.97371480366652,3,2007
4,2007,1.85319620636923,2.09894664927985,3,2007
1,2008,,2.33236020541729,3,2007
2,2008,,2.47240833909975,3,2007
3,2008,,2.54243240594098,3,2007
4,2008,,2.56577376155473,3,2007
2,1991,0.47254236755909,0.472542367737017,4,2007
3,1991,0.248231853796343,0.248231853796343,4,2007
4,1991,3.88979781079914,3.88979781079915,4,2007
1,1992,4.90857609692299,4.90857609692299,4,2007
2,1992,-2.32958000732851,-2.32958000732851,4,2007
3,1992,-0.669839968852492,-0.669839968852492,4,2007
4,1992,-1.12894134416554,-1.12894134416554,4,2007
1,1993,-3.00576412195293,-3.00576412195293,4,2007
2,1993,0.674577157633105,0.674577157633105,4,2007
3,1993,1.7499747799856,1.7499747799856,4,2007
4,1993,1.22017253115438,1.22017253115438,4,2007
1,1994,3.43288683480183,3.43288683480183,4,2007
2,1994,2.88271984513331,2.88271984513331,4,2007
3,1994,3.25830290835503,3.25830290835503,4,2007
4,1994,3.23611547553799,3.23611547553799,4,2007
1,1995,2.74021940497011,2.74021940497011,4,2007
2,1995,2.35100265947878,2.35100265947878,4,2007
3,1995,1.34153488198623,1.34153488198623,4,2007
4,1995,1.04903214719063,1.04903214719063,4,2007
1,1996,0.26062102961768,0.26062102961768,4,2007
2,1996,2.89278907593884,2.89278907593884,4,2007
3,1996,2.16638500684048,2.16638500684048,4,2007
4,1996,1.11784245009434,1.11784245009434,4,2007
1,1997,1.65312977756007,1.65312977756007,4,2007
2,1997,5.07573478378038,5.07573478378038,4,2007
3,1997,2.61788263632319,2.61788263632319,4,2007
4,1997,3.92413502854183,3.92413502854183,4,2007
1,1998,2.80147219594002,2.80147219594002,4,2007
2,1998,1.68362315517334,1.68362315517334,4,2007
3,1998,2.19792758517461,2.19792758517461,4,2007
4,1998,0.937673210235191,0.93767321023519,4,2007
1,1999,3.84000281398069,3.84000281398069,4,2007
2,1999,2.57379172646901,2.57379172646901,4,2007
3,1999,5.09274760903531,5.09274760903531,4,2007
4,1999,4.80475782668786,4.80475782668786,4,2007
1,2000,4.52636662390729,4.52636662390729,4,2007
2,2000,4.01843490833298,4.01843490833298,4,2007
3,2000,1.93553243798963,1.93553243798963,4,2007
4,2000,2.78278465982484,2.78278465982484,4,2007
1,2001,3.21383331185268,3.21383331185268,4,2007
2,2001,0.252439428927832,0.252439428927831,4,2007
3,2001,0.249084465671756,0.249084465671756,4,2007
4,2001,0.408505218313038,0.408505218313038,4,2007
1,2002,0.94418398644367,0.94418398644367,4,2007
2,2002,1.74625949753688,1.74625949753688,4,2007
3,2002,1.5640736964424,1.5640736964424,4,2007
4,2002,0.00738497448427045,0.00738497448427022,4,2007
1,2003,0.374843297258032,0.374843297258032,4,2007
2,2003,-0.0319187817241382,-0.0319187817241384,4,2007
3,2003,2.16394431053388,2.16394431053388,4,2007
4,2003,2.14170433309313,2.14170433309313,4,2007
1,2004,2.33434446076792,2.33434446076792,4,2007
2,2004,1.61233826863274,1.61233826863274,4,2007
3,2004,1.3323839190408,1.3323839190408,4,2007
4,2004,1.07580865467898,1.07580865467898,4,2007
1,2005,1.14521564609262,1.14521564609262,4,2007
2,2005,2.27038542427838,2.27038542427838,4,2007
3,2005,2.51242025142042,2.51242025142042,4,2007
4,2005,1.56660637741577,1.56660637741577,4,2007
1,2006,3.599673745819,3.599673745819,4,2007
2,2006,3.90292740299116,3.90292740299116,4,2007
3,2006,2.4295069763038,2.4295069763038,4,2007
4,2006,3.24707060869995,3.24707060869995,4,2007
1,2007,3.08899155375892,3.08899155375892,4,2007
2,2007,1.27314150341882,1.27314150341882,4,2007
3,2007,2.20290069961121,2.262416395399,4,2007
4,2007,2.51282043167534,2.39240484775504,4,2007
1,2008,,2.14269254154168,4,2007
2,2008,,1.99286515781366,4,2007
3,2008,,1.91795146594965,4,2007
4,2008,,1.89298023532832,4,2007
2,1991,0.472542367737017,0.472542367914537,1,2008
3,1991,0.248231853796344,0.248231853796344,1,2008
4,1991,3.88979781079914,3.88979781079914,1,2008
1,1992,4.90857609692299,4.90857609692299,1,2008
2,1992,-2.32958000732851,-2.32958000732851,1,2008
3,1992,-0.669839968852493,-0.669839968852493,1,2008
4,1992,-1.12894134416554,-1.12894134416554,1,2008
1,1993,-3.00576412195293,-3.00576412195292,1,2008
2,1993,0.674577157633105,0.674577157633104,1,2008
3,1993,1.7499747799856,1.7499747799856,1,2008
4,1993,1.22017253115438,1.22017253115439,1,2008
1,1994,3.43288683480183,3.43288683480183,1,2008
2,1994,2.88271984513331,2.88271984513331,1,2008
3,1994,3.25830290835503,3.25830290835503,1,2008
4,1994,3.23611547553799,3.23611547553799,1,2008
1,1995,2.74021940497011,2.74021940497011,1,2008
2,1995,2.31289496259834,2.31289496259834,1,2008
3,1995,1.30341428522931,1.30341428522931,1,2008
4,1995,1.12988564522785,1.12988564522785,1,2008
1,1996,0.216118437050938,0.216118437050939,1,2008
2,1996,2.94900731356143,2.94900731356142,1,2008
3,1996,2.14836567976906,2.14836567976906,1,2008
4,1996,1.07274142523823,1.07274142523823,1,2008
1,1997,1.68325032603249,1.68325032603249,1,2008
2,1997,5.01897149649795,5.01897149649795,1,2008
3,1997,2.66114355776668,2.66114355776668,1,2008
4,1997,3.92615763156177,3.92615763156177,1,2008
1,1998,2.77913340606042,2.77913340606042,1,2008
2,1998,1.76286864871409,1.76286864871409,1,2008
3,1998,2.21448834906395,2.21448834906395,1,2008
4,1998,0.858302321198368,0.858302321198369,1,2008
1,1999,3.88925775687701,3.88925775687701,1,2008
2,1999,2.51556148706538,2.51556148706538,1,2008
3,1999,5.13432431965242,5.13432431965242,1,2008
4,1999,4.81612022290809,4.81612022290809,1,2008
1,2000,4.562994080473,4.562994080473,1,2008
2,2000,4.0426787179771,4.0426787179771,1,2008
3,2000,1.82878455596645,1.82878455596645,1,2008
4,2000,2.85183607845791,2.85183607845791,1,2008
1,2001,3.17460084794992,3.17460084794991,1,2008
2,2001,0.282493559360697,0.282493559360697,1,2008
3,2001,0.308401848295525,0.308401848295525,1,2008
4,2001,0.329842340732101,0.329842340732101,1,2008
1,2002,1.0360114251154,1.0360114251154,1,2008
2,2002,1.70215751072498,1.70215751072498,1,2008
3,2002,1.51054533538586,1.51054533538586,1,2008
4,2002,0.0549772809577798,0.05497728095778,1,2008
1,2003,0.44506298107585,0.44506298107585,1,2008
2,2003,-0.106301358230509,-0.106301358230509,1,2008
3,2003,2.14443615337452,2.14443615337452,1,2008
4,2003,2.17766168571698,2.17766168571698,1,2008
1,2004,2.35245154793191,2.35245154793191,1,2008
2,2004,1.62574010030965,1.62574010030965,1,2008
3,2004,1.27638124803204,1.27638124803204,1,2008
4,2004,1.07050128926194,1.07050128926194,1,2008
1,2005,1.21907039164793,1.21907039164793,1,2008
2,2005,2.28229718495809,2.28229718495809,1,2008
3,2005,2.47314149987541,2.47314149987541,1,2008
4,2005,1.69398054456005,1.69398054456005,1,2008
1,2006,3.50366016463597,3.50366016463597,1,2008
2,2006,3.9202569591382,3.9202569591382,1,2008
3,2006,2.32224110068338,2.32224110068338,1,2008
4,2006,3.23995128947625,3.23995128947625,1,2008
1,2007,3.26546227925426,3.26546227925426,1,2008
2,2007,1.24186512622537,1.24186512622537,1,2008
3,2007,3.08608288644814,3.08608288644814,1,2008
4,2007,2.31299258387723,2.14203388621133,1,2008
1,2008,1.71830773574576,1.52973744150432,1,2008
2,2008,1.36149682686687,1.35977773750371,1,2008
3,2008,1.18309137242743,1.49072400109171,1,2008
4,2008,1.12362288761428,1.78114545915053,1,2008
1,2009,,2.08961133856239,1,2008
2,2009,,2.27469086620951,1,2008
3,2009,,2.36723063003307,1,2008
4,2009,,2.39807721797426,1,2008
2,1991,0.472542367737017,0.472542367919853,2,2008
3,1991,0.248231853796343,0.248231853796344,2,2008
4,1991,3.88979781079915,3.88979781079915,2,2008
1,1992,4.90857609692299,4.90857609692299,2,2008
2,1992,-2.32958000732851,-2.32958000732851,2,2008
3,1992,-0.669839968852493,-0.669839968852493,2,2008
4,1992,-1.12894134416554,-1.12894134416554,2,2008
1,1993,-3.00576412195293,-3.00576412195293,2,2008
2,1993,0.674577157633105,0.674577157633105,2,2008
3,1993,1.7499747799856,1.7499747799856,2,2008
4,1993,1.22017253115438,1.22017253115438,2,2008
1,1994,3.43288683480183,3.43288683480183,2,2008
2,1994,2.88271984513331,2.88271984513331,2,2008
3,1994,3.25830290835503,3.25830290835503,2,2008
4,1994,3.23611547553799,3.23611547553799,2,2008
1,1995,2.74021940497011,2.74021940497011,2,2008
2,1995,2.28756046918799,2.28756046918799,2,2008
3,1995,1.2337981959357,1.2337981959357,2,2008
4,1995,1.24310728602395,1.24310728602395,2,2008
1,1996,0.170602204052405,0.170602204052406,2,2008
2,1996,2.95609423816055,2.95609423816055,2,2008
3,1996,2.10053713813156,2.10053713813156,2,2008
4,1996,1.15941637903598,1.15941637903598,2,2008
1,1997,1.69339334893954,1.69339334893954,2,2008
2,1997,4.93701557513093,4.93701557513093,2,2008
3,1997,2.57582276723569,2.57582276723569,2,2008
4,1997,4.0366805047477,4.0366805047477,2,2008
1,1998,2.75916412987149,2.75916412987149,2,2008
2,1998,1.77372583403037,1.77372583403037,2,2008
3,1998,2.11802194894106,2.11802194894106,2,2008
4,1998,0.947175583497439,0.947175583497439,2,2008
1,1999,3.90952348381897,3.90952348381897,2,2008
2,1999,2.49109310485121,2.49109310485121,2,2008
3,1999,5.03147054832309,5.03147054832309,2,2008
4,1999,4.86009886272067,4.86009886272067,2,2008
1,2000,4.57662172467719,4.57662172467719,2,2008
2,2000,4.0342769915082,4.0342769915082,2,2008
3,2000,1.76571456660657,1.76571456660657,2,2008
4,2000,2.97103536038088,2.97103536038088,2,2008
1,2001,3.0929523666533,3.0929523666533,2,2008
2,2001,0.31263823658747,0.31263823658747,2,2008
3,2001,0.290101288432631,0.290101288432632,2,2008
4,2001,0.412990262871737,0.412990262871737,2,2008
1,2002,1.031091231728,1.031091231728,2,2008
2,2002,1.77692329136048,1.77692329136048,2,2008
3,2002,1.45791354416207,1.45791354416207,2,2008
4,2002,0.165406647451416,0.165406647451416,2,2008
1,2003,0.252476114613698,0.252476114613698,2,2008
2,2003,0.0357269446942921,0.0357269446942921,2,2008
3,2003,2.10748316056995,2.10748316056995,2,2008
4,2003,2.36563969726031,2.36563969726031,2,2008
1,2004,2.24965262105501,2.24965262105501,2,2008
2,2004,1.87365798993631,1.87365798993631,2,2008
3,2004,1.26834249992438,1.26834249992438,2,2008
4,2004,1.23693780204079,1.23693780204079,2,2008
1,2005,1.22825878843291,1.22825878843291,2,2008
2,2005,2.47009470328421,2.47009470328421,2,2008
3,2005,2.45149306137258,2.45149306137258,2,2008
4,2005,1.85426105597222,1.85426105597222,2,2008
1,2006,3.29351008399295,3.29351008399295,2,2008
2,2006,4.09632746094182,4.09632746094182,2,2008
3,2006,2.18074019737606,2.18074019737606,2,2008
4,2006,3.36045627258048,3.36045627258048,2,2008
1,2007,3.01364243499711,3.01364243499711,2,2008
2,2007,1.34179732966992,1.34179732966993,2,2008
3,2007,2.91643765492158,2.91643765492158,2,2008
4,2007,1.41691111059548,1.41691111059548,2,2008
1,2008,1.417286629431,1.37464977238861,2,2008
2,2008,1.41751194073231,1.39885751644079,2,2008
3,2008,1.41762459638296,1.46517261172221,2,2008
4,2008,1.41766214826651,1.54923332720306,2,2008
1,2009,,1.62667793185352,2,2008
2,2009,,1.6731446946438,2,2008
3,2009,,1.69637807603894,2,2008
4,2009,,1.70412253650399,2,2008
2,1991,0.472542367919362,0.472542367737017,3,2008
3,1991,0.248231853796344,0.248231853796344,3,2008
4,1991,3.88979781079915,3.88979781079915,3,2008
1,1992,4.90857609692299,4.90857609692299,3,2008
2,1992,-2.32958000732851,-2.32958000732851,3,2008
3,1992,-0.669839968852493,-0.669839968852493,3,2008
4,1992,-1.12894134416554,-1.12894134416554,3,2008
1,1993,-3.00576412195293,-3.00576412195293,3,2008
2,1993,0.674577157633105,0.674577157633105,3,2008
3,1993,1.7499747799856,1.7499747799856,3,2008
4,1993,1.22017253115438,1.22017253115438,3,2008
1,1994,3.43288683480183,3.43288683480183,3,2008
2,1994,2.88271984513331,2.88271984513331,3,2008
3,1994,3.25830290835503,3.25830290835503,3,2008
4,1994,3.23611547553799,3.23611547553799,3,2008
1,1995,2.74021940497011,2.74021940497011,3,2008
2,1995,2.24228568177496,2.24228568177496,3,2008
3,1995,1.33012339179723,1.33012339179723,3,2008
4,1995,1.34655467682567,1.34655467682567,3,2008
1,1996,0.268904968661965,0.268904968661965,3,2008
2,1996,2.98915641552964,2.98915641552964,3,2008
3,1996,2.07637218540742,2.07637218540742,3,2008
4,1996,1.18224090920021,1.18224090920021,3,2008
1,1997,1.65198222552978,1.65198222552978,3,2008
2,1997,4.90092357017822,4.90092357017822,3,2008
3,1997,2.69918653570487,2.69918653570487,3,2008
4,1997,4.03708992561262,4.03708992561262,3,2008
1,1998,2.76603302955278,2.76603302955278,3,2008
2,1998,1.73075329675154,1.73075329675154,3,2008
3,1998,2.09213989134556,2.09213989134556,3,2008
4,1998,0.80857312548912,0.80857312548912,3,2008
1,1999,3.77582053435037,3.77582053435037,3,2008
2,1999,2.43082838611159,2.43082838611159,3,2008
3,1999,4.93626829142251,4.93626829142251,3,2008
4,1999,4.9776585858633,4.9776585858633,3,2008
1,2000,4.62978828209089,4.62978828209089,3,2008
2,2000,3.91770364971804,3.91770364971804,3,2008
3,2000,1.91079382495518,1.91079382495518,3,2008
4,2000,3.07718458495603,3.07718458495603,3,2008
1,2001,3.01091834725742,3.01091834725742,3,2008
2,2001,0.28823986450599,0.28823986450599,3,2008
3,2001,0.249180064570354,0.249180064570353,3,2008
4,2001,0.48251176620524,0.48251176620524,3,2008
1,2002,1.03166961447634,1.03166961447634,3,2008
2,2002,1.77793845161029,1.77793845161029,3,2008
3,2002,1.39030444726143,1.39030444726143,3,2008
4,2002,0.281084600552517,0.281084600552517,3,2008
1,2003,0.280094554391241,0.280094554391241,3,2008
2,2003,-0.00909785205247537,-0.00909785205247537,3,2008
3,2003,2.04848286464616,2.04848286464616,3,2008
4,2003,2.37608836675289,2.37608836675289,3,2008
1,2004,2.26032776122229,2.26032776122229,3,2008
2,2004,1.74155914927683,1.74155914927683,3,2008
3,2004,1.39897754370644,1.39897754370644,3,2008
4,2004,1.37138221214239,1.37138221214239,3,2008
1,2005,1.29878785813775,1.29878785813775,3,2008
2,2005,2.47745138384925,2.47745138384925,3,2008
3,2005,2.59079677937266,2.59079677937266,3,2008
4,2005,1.99096689838336,1.99096689838336,3,2008
1,2006,3.36044525155612,3.36044525155612,3,2008
2,2006,4.03677821955919,4.03677821955919,3,2008
3,2006,2.23763986706269,2.23763986706269,3,2008
4,2006,3.43371645578963,3.43371645578963,3,2008
1,2007,3.29312994791728,3.29312994791728,3,2008
2,2007,1.37201894730099,1.37201894730099,3,2008
3,2007,2.55563340111973,2.55563340111973,3,2008
4,2007,1.45698685750881,1.45698685750881,3,2008
1,2008,2.92732733923358,2.92732733923358,3,2008
2,2008,1.13714602966127,0.847388989563807,3,2008
3,2008,0.242055374875124,0.304211093164581,3,2008
4,2008,-0.0563081767202607,0.690913255434163,3,2008
1,2009,,1.40061508177082,3,2008
2,2009,,1.82643617757281,3,2008
3,2009,,2.03934672547381,3,2008
4,2009,,2.11031690810747,3,2008
2,1991,0.472542367908158,0.472542367910545,4,2008
3,1991,0.248231853796344,0.248231853796344,4,2008
4,1991,3.88979781079915,3.88979781079915,4,2008
1,1992,4.90857609692299,4.90857609692299,4,2008
2,1992,-2.32958000732851,-2.32958000732851,4,2008
3,1992,-0.669839968852493,-0.669839968852493,4,2008
4,1992,-1.12894134416553,-1.12894134416554,4,2008
1,1993,-3.00576412195293,-3.00576412195293,4,2008
2,1993,0.674577157633106,0.674577157633105,4,2008
3,1993,1.7499747799856,1.7499747799856,4,2008
4,1993,1.22017253115438,1.22017253115438,4,2008
1,1994,3.43288683480183,3.43288683480183,4,2008
2,1994,2.88271984513331,2.88271984513331,4,2008
3,1994,3.25830290835503,3.25830290835503,4,2008
4,1994,3.23611547553799,3.23611547553799,4,2008
1,1995,2.74021940497011,2.74021940497011,4,2008
2,1995,2.29776348666466,2.29776348666466,4,2008
3,1995,1.33842546612939,1.33842546612939,4,2008
4,1995,1.5069175511403,1.5069175511403,4,2008
1,1996,0.00239683495513177,0.00239683495513154,4,2008
2,1996,3.02448458204525,3.02448458204525,4,2008
3,1996,2.11691731428199,2.11691731428199,4,2008
4,1996,1.31549125843045,1.31549125843045,4,2008
1,1997,1.46750091366656,1.46750091366656,4,2008
2,1997,4.98652964199848,4.98652964199848,4,2008
3,1997,2.74342996210264,2.74342996210264,4,2008
4,1997,4.01869213937003,4.01869213937003,4,2008
1,1998,2.7648086391056,2.7648086391056,4,2008
2,1998,1.7030253120512,1.7030253120512,4,2008
3,1998,2.21379445084888,2.21379445084888,4,2008
4,1998,0.661753057295699,0.6617530572957,4,2008
1,1999,3.81471386838586,3.81471386838586,4,2008
2,1999,2.50262949236337,2.50262949236337,4,2008
3,1999,5.01716162700023,5.01716162700023,4,2008
4,1999,4.74881467515149,4.74881467515149,4,2008
1,2000,4.79193662743085,4.79193662743085,4,2008
2,2000,3.89334011483631,3.89334011483631,4,2008
3,2000,1.9354115624038,1.9354115624038,4,2008
4,2000,2.96521033159607,2.96521033159607,4,2008
1,2001,3.04505351651525,3.04505351651525,4,2008
2,2001,0.230155429161738,0.230155429161738,4,2008
3,2001,0.283165571970812,0.283165571970812,4,2008
4,2001,0.506155986518286,0.506155986518286,4,2008
1,2002,0.9409406779193,0.9409406779193,4,2008
2,2002,1.89859496788578,1.89859496788578,4,2008
3,2002,1.39922113837414,1.39922113837414,4,2008
4,2002,0.333043399626409,0.333043399626409,4,2008
1,2003,0.0734050174764356,0.0734050174764356,4,2008
2,2003,0.10159699056651,0.10159699056651,4,2008
3,2003,2.1042597521663,2.1042597521663,4,2008
4,2003,2.44343648962955,2.44343648962955,4,2008
1,2004,2.26360254540452,2.26360254540452,4,2008
2,2004,1.97875402901462,1.97875402901462,4,2008
3,2004,1.37153926657232,1.37153926657232,4,2008
4,2004,1.35817872161303,1.35817872161303,4,2008
1,2005,1.01740815885174,1.01740815885174,4,2008
2,2005,2.94602052623392,2.94602052623392,4,2008
3,2005,2.48501140941873,2.48501140941873,4,2008
4,2005,1.88824337377311,1.88824337377311,4,2008
1,2006,3.32547655258646,3.32547655258646,4,2008
2,2006,4.43895981904659,4.43895981904658,4,2008
3,2006,2.12967840996534,2.12967840996534,4,2008
4,2006,3.35465528464216,3.35465528464216,4,2008
1,2007,2.944805725224,2.944805725224,4,2008
2,2007,1.92140888076027,1.92140888076027,4,2008
3,2007,2.2366296406666,2.2366296406666,4,2008
4,2007,1.42486543577316,1.42486543577316,4,2008
1,2008,2.67216382137545,2.67216382137545,4,2008
2,2008,-0.67774475999034,-0.67774475999034,4,2008
3,2008,-0.105683325137835,-0.159297636591042,4,2008
4,2008,0.0850038198130002,0.193371018159463,4,2008
1,2009,,0.418187201847888,4,2008
2,2009,,0.553076912060943,4,2008
3,2009,,0.620521767167471,4,2008
4,2009,,0.643003385536313,4,2008
2,1991,0.47254236791133,0.472542367908963,1,2009
3,1991,0.248231853796344,0.248231853796344,1,2009
4,1991,3.88979781079914,3.88979781079915,1,2009
1,1992,4.90857609692299,4.90857609692299,1,2009
2,1992,-2.32958000732851,-2.32958000732851,1,2009
3,1992,-0.669839968852493,-0.669839968852492,1,2009
4,1992,-1.12894134416554,-1.12894134416554,1,2009
1,1993,-3.00576412195292,-3.00576412195293,1,2009
2,1993,0.674577157633104,0.674577157633105,1,2009
3,1993,1.7499747799856,1.7499747799856,1,2009
4,1993,1.22017253115438,1.22017253115438,1,2009
1,1994,3.43288683480183,3.43288683480183,1,2009
2,1994,2.88271984513331,2.88271984513331,1,2009
3,1994,3.25830290835503,3.25830290835503,1,2009
4,1994,3.23611547553799,3.23611547553799,1,2009
1,1995,2.74021940497011,2.74021940497011,1,2009
2,1995,2.2657708424904,2.2657708424904,1,2009
3,1995,1.25432371332086,1.25432371332086,1,2009
4,1995,1.45778522595055,1.45778522595055,1,2009
1,1996,0.171905652513483,0.171905652513482,1,2009
2,1996,2.99168823628377,2.99168823628377,1,2009
3,1996,2.01342189850533,2.01342189850533,1,2009
4,1996,1.31047375125342,1.31047375125342,1,2009
1,1997,1.66589118426965,1.66589118426965,1,2009
2,1997,4.93441075382839,4.93441075382839,1,2009
3,1997,2.69131068991218,2.69131068991217,1,2009
4,1997,3.98716936661145,3.98716936661145,1,2009
1,1998,2.88679318982767,2.88679318982767,1,2009
2,1998,1.66870715287955,1.66870715287955,1,2009
3,1998,2.15855585299267,2.15855585299267,1,2009
4,1998,0.646110339685558,0.646110339685557,1,2009
1,1999,3.94102485823393,3.94102485823393,1,2009
2,1999,2.46751439755997,2.46751439755997,1,2009
3,1999,4.85965068378089,4.85965068378089,1,2009
4,1999,4.73152366308181,4.73152366308181,1,2009
1,2000,4.89329436013763,4.89329436013763,1,2009
2,2000,3.89716305075005,3.89716305075005,1,2009
3,2000,1.87596348385635,1.87596348385635,1,2009
4,2000,2.94402076401501,2.94402076401501,1,2009
1,2001,3.08857450153974,3.08857450153974,1,2009
2,2001,0.199202733368598,0.199202733368598,1,2009
3,2001,0.344984743473797,0.344984743473797,1,2009
4,2001,0.513566886294958,0.513566886294958,1,2009
1,2002,0.957230928188735,0.957230928188735,1,2009
2,2002,1.89723601912579,1.89723601912579,1,2009
3,2002,1.43070561242433,1.43070561242433,1,2009
4,2002,0.35250957952464,0.35250957952464,1,2009
1,2003,0.130830662733761,0.130830662733761,1,2009
2,2003,0.0942951830469556,0.0942951830469552,1,2009
3,2003,2.06727929843193,2.06727929843193,1,2009
4,2003,2.45015784853171,2.45015784853171,1,2009
1,2004,2.31674951051224,2.31674951051224,1,2009
2,2004,1.92146743396038,1.92146743396038,1,2009
3,2004,1.42709007083639,1.42709007083639,1,2009
4,2004,1.39896246133251,1.39896246133251,1,2009
1,2005,1.02363424542702,1.02363424542702,1,2009
2,2005,2.96111766284912,2.96111766284912,1,2009
3,2005,2.5890575753954,2.5890575753954,1,2009
4,2005,1.84749543630378,1.84749543630378,1,2009
1,2006,3.34814951408031,3.34814951408031,1,2009
2,2006,4.41266702714349,4.41266702714349,1,2009
3,2006,2.24814726610712,2.24814726610711,1,2009
4,2006,3.38829158221217,3.38829158221217,1,2009
1,2007,2.9100671494211,2.9100671494211,1,2009
2,2007,1.87143529737732,1.87143529737732,1,2009
3,2007,2.5081107440915,2.5081107440915,1,2009
4,2007,1.40501126737147,1.40501126737147,1,2009
1,2008,2.68467036521234,2.68467036521234,1,2009
2,2008,-0.665146205927735,-0.665146205927736,1,2009
3,2008,-0.699934197184815,-0.699934197184815,1,2009
4,2008,-1.4277418484253,-2.05356283480421,1,2009
1,2009,-1.98759388784106,-2.67788722646965,1,2009
2,2009,-2.32350511149052,-2.32980595686314,1,2009
3,2009,-2.49146072331524,-1.36533855139732,1,2009
4,2009,-2.54744592725682,-0.140504535484822,1,2009
1,2010,,0.988676565461703,1,2009
2,2010,,1.66618522602962,1,2009
3,2010,,2.00493955631357,1,2009
4,2010,,2.11785766640823,1,2009
2,1991,0.472542367889786,0.472542367737017,2,2009
3,1991,0.248231853796344,0.248231853796344,2,2009
4,1991,3.88979781079915,3.88979781079915,2,2009
1,1992,4.90857609692299,4.90857609692299,2,2009
2,1992,-2.32958000732851,-2.32958000732851,2,2009
3,1992,-0.669839968852493,-0.669839968852492,2,2009
4,1992,-1.12894134416553,-1.12894134416554,2,2009
1,1993,-3.00576412195293,-3.00576412195293,2,2009
2,1993,0.674577157633106,0.674577157633105,2,2009
3,1993,1.7499747799856,1.7499747799856,2,2009
4,1993,1.22017253115438,1.22017253115438,2,2009
1,1994,3.43288683480183,3.43288683480183,2,2009
2,1994,2.88271984513331,2.88271984513331,2,2009
3,1994,3.25830290835503,3.25830290835503,2,2009
4,1994,3.23611547553799,3.23611547553799,2,2009
1,1995,2.74021940497011,2.74021940497011,2,2009
2,1995,2.26107721344686,2.26107721344686,2,2009
3,1995,1.26315382717515,1.26315382717515,2,2009
4,1995,1.43472280632684,1.43472280632684,2,2009
1,1996,0.160716421616902,0.160716421616902,2,2009
2,1996,3.00613865030803,3.00613865030803,2,2009
3,1996,2.02744426078623,2.02744426078623,2,2009
4,1996,1.31966457707913,1.31966457707913,2,2009
1,1997,1.6334959431197,1.6334959431197,2,2009
2,1997,4.94203914650575,4.94203914650575,2,2009
3,1997,2.71664268030833,2.71664268030833,2,2009
4,1997,3.96612509250118,3.96612509250118,2,2009
1,1998,2.89929849686141,2.89929849686141,2,2009
2,1998,1.64231850258143,1.64231850258143,2,2009
3,1998,2.16625610339429,2.16625610339429,2,2009
4,1998,0.683373570285716,0.683373570285717,2,2009
1,1999,3.91006483972989,3.91006483972989,2,2009
2,1999,2.45174076706964,2.45174076706964,2,2009
3,1999,4.8758931578639,4.8758931578639,2,2009
4,1999,4.72526706315166,4.72526706315166,2,2009
1,2000,4.90421728306441,4.90421728306441,2,2009
2,2000,3.88743432403365,3.88743432403365,2,2009
3,2000,1.88598637138133,1.88598637138133,2,2009
4,2000,2.92788072377017,2.92788072377017,2,2009
1,2001,3.10883427312334,3.10883427312334,2,2009
2,2001,0.177583582563833,0.177583582563834,2,2009
3,2001,0.352265406941754,0.352265406941754,2,2009
4,2001,0.514137236757306,0.514137236757306,2,2009
1,2002,0.940029849086454,0.940029849086454,2,2009
2,2002,1.91706568743688,1.91706568743688,2,2009
3,2002,1.42026389870593,1.42026389870593,2,2009
4,2002,0.357106917896654,0.357106917896655,2,2009
1,2003,0.142923580348597,0.142923580348597,2,2009
2,2003,0.062122351571436,0.0621223515714364,2,2009
3,2003,2.09122150985877,2.09122150985877,2,2009
4,2003,2.43413883202952,2.43413883202952,2,2009
1,2004,2.31745804796464,2.31745804796464,2,2009
2,2004,1.9128692807449,1.9128692807449,2,2009
3,2004,1.39972113106996,1.39972113106996,2,2009
4,2004,1.4149457293873,1.4149457293873,2,2009
1,2005,1.04201041062926,1.04201041062926,2,2009
2,2005,2.99714810047362,2.99714810047362,2,2009
3,2005,2.59951941410843,2.59951941410843,2,2009
4,2005,1.95026518008505,1.95026518008505,2,2009
1,2006,3.35464333513964,3.35464333513964,2,2009
2,2006,4.3782001779076,4.3782001779076,2,2009
3,2006,2.29013101079718,2.29013101079718,2,2009
4,2006,3.56933403355406,3.56933403355406,2,2009
1,2007,2.76412311619081,2.76412311619081,2,2009
2,2007,1.80654981113881,1.80654981113881,2,2009
3,2007,2.45213243698859,2.45213243698859,2,2009
4,2007,1.83576636348828,1.83576636348828,2,2009
1,2008,2.57589740004711,2.57589740004711,2,2009
2,2008,-0.95998117139925,-0.959981171399249,2,2009
3,2008,-0.985911660142469,-0.985911660142469,2,2009
4,2008,-6.15928225390193,-6.15928225390193,2,2009
1,2009,-4.09073091543478,-4.65186787286145,2,2009
2,2009,-2.84960011235448,-3.09513503536502,2,2009
3,2009,-2.22903471081434,-1.60333276316291,2,2009
